;Generated with Cura_SteamEngine DEV
M109 S210     ;Heatup to 210C
G21           ;metric values
G90           ;absolute positioning
G28           ;Home
G1 Z15.0 F300 ;move the platform down 15mm
G92 E0        ;zero the extruded length
G1 F200 E5    ;extrude 5mm of feed stock
G92 E0        ;zero the extruded length again

;Layer count: 198
;LAYER:0
M107
G0 F9000 X95.359 Y95.112 Z0.300
G0 X97.166 Y95.514
;TYPE:SKIRT
G1 F1200 X97.594 Y95.091 E0.01651
G1 X98.212 Y95.314 E0.03454
G1 X100.554 Y94.651 E0.10133
G1 X103.239 Y97.130 E0.20161
G1 X103.294 Y97.150 E0.20321
G1 X103.549 Y96.821 E0.21464
G1 X105.479 Y95.398 E0.28043
G1 X108.237 Y94.822 E0.35775
G1 X110.614 Y91.978 E0.45946
G1 X113.849 Y97.294 E0.63021
G1 X116.065 Y99.954 E0.72522
G1 X115.938 Y100.729 E0.74677
G1 X116.448 Y101.567 E0.77368
G1 X115.896 Y105.430 E0.88076
G1 X114.960 Y106.678 E0.92357
G1 X114.934 Y106.806 E0.92715
G1 X114.564 Y107.255 E0.94312
G1 X114.369 Y107.602 E0.95404
G1 X114.083 Y107.840 E0.96425
G1 X113.629 Y108.391 E0.98384
G1 X112.720 Y109.253 E1.01822
G1 X111.677 Y109.885 E1.05168
G1 X111.293 Y110.277 E1.06674
G1 X111.163 Y110.371 E1.07114
G1 X110.973 Y110.555 E1.07840
G1 X109.902 Y111.306 E1.11429
G1 X108.150 Y112.001 E1.16601
G1 X106.557 Y112.232 E1.21018
G1 X105.168 Y112.232 E1.24829
G1 X104.196 Y111.942 E1.27613
G1 X104.074 Y112.075 E1.28108
G1 X101.354 Y112.976 E1.35971
G1 X97.878 Y113.118 E1.45517
G1 X94.819 Y110.645 E1.56311
G1 X94.659 Y110.373 E1.57177
G1 X94.652 Y110.368 E1.57200
G1 X94.344 Y109.930 E1.58669
G1 X94.215 Y109.830 E1.59117
G1 X93.244 Y108.934 E1.62743
G1 X91.847 Y107.024 E1.69236
G1 X91.797 Y106.764 E1.69963
G1 X91.786 Y106.745 E1.70023
G1 X90.865 Y105.340 E1.74633
G1 X90.785 Y102.020 E1.83746
G1 X90.422 Y101.074 E1.86526
G1 X92.579 Y98.469 E1.95807
G1 X92.611 Y97.958 E1.97211
G1 X93.345 Y97.544 E1.99524
G1 X95.359 Y95.112 E2.08189
G1 X97.166 Y95.514 E2.13268
G1 F2700 E-2.36732
G0 F9000 X99.277 Y104.674
;TYPE:WALL-INNER
G1 F2700 E2.13268
G1 F1200 X99.328 Y104.501 E2.13763
G1 X99.512 Y104.896 E2.14959
G1 X99.277 Y104.674 E2.15846
G0 F9000 X99.893 Y104.296
;TYPE:WALL-OUTER
G1 F1200 X100.121 Y104.778 E2.17309
G1 X100.226 Y105.036 E2.18073
G1 X100.393 Y105.300 E2.18931
G1 X100.537 Y105.884 E2.20581
G1 X100.537 Y105.903 E2.20633
G1 X100.486 Y106.158 E2.21347
G1 X100.353 Y106.354 E2.21997
G1 X100.159 Y106.419 E2.22558
G1 X100.093 Y106.421 E2.22739
G1 X99.894 Y106.261 E2.23440
G1 X99.746 Y106.010 E2.24240
G1 X99.532 Y105.834 E2.25000
G1 X99.469 Y105.745 E2.25299
G1 X99.078 Y105.310 E2.26904
G1 X98.707 Y104.962 E2.28300
G1 X98.191 Y104.518 E2.30168
G1 X98.049 Y104.323 E2.30830
G1 X98.007 Y104.108 E2.31431
G1 X97.772 Y103.851 E2.32386
G1 X97.792 Y103.863 E2.32450
G1 X98.092 Y103.956 E2.33312
G1 X98.525 Y103.607 E2.34838
G1 X98.403 Y103.249 E2.35876
G1 X98.237 Y103.095 E2.36498
G1 X98.204 Y103.011 E2.36745
G1 X98.221 Y102.972 E2.36862
G1 X98.161 Y102.817 E2.37318
G1 X98.970 Y103.586 E2.40381
G1 X99.067 Y103.254 E2.41330
G1 X99.376 Y103.175 E2.42205
G1 X99.365 Y103.129 E2.42335
G1 X99.592 Y103.269 E2.43067
G1 X99.639 Y103.349 E2.43321
G1 X99.772 Y103.838 E2.44712
G1 X99.893 Y104.296 E2.46012
G0 F9000 X99.366 Y104.080
G1 F2700 E-2.03988
G0 F9000 X107.307 Y104.062
;TYPE:WALL-INNER
G1 F2700 E2.46012
G1 F1200 X107.359 Y103.857 E2.46592
G1 X107.557 Y103.665 E2.47349
G1 X107.604 Y103.329 E2.48280
G1 X107.996 Y103.553 E2.49519
G1 X108.069 Y103.652 E2.49856
G1 X107.867 Y103.775 E2.50505
G1 X107.410 Y104.004 E2.51908
G1 X107.216 Y104.185 E2.52636
G1 X107.307 Y104.062 E2.53056
G0 F9000 X106.992 Y103.378
;TYPE:WALL-OUTER
G1 F1200 X107.036 Y103.066 E2.53920
G1 X107.282 Y102.739 E2.55043
G1 X107.513 Y102.649 E2.55724
G1 X107.799 Y102.157 E2.57285
G1 X107.704 Y102.694 E2.58782
G1 X108.150 Y102.950 E2.60193
G1 X108.423 Y102.930 E2.60944
G1 X108.695 Y102.542 E2.62244
G1 X108.865 Y102.360 E2.62927
G1 X108.828 Y102.453 E2.63202
G1 X108.806 Y102.481 E2.63300
G1 X108.668 Y102.793 E2.64236
G1 X108.610 Y102.872 E2.64505
G1 X108.509 Y103.237 E2.65544
G1 X108.832 Y103.672 E2.67031
G1 X108.789 Y103.885 E2.67627
G1 X108.694 Y103.975 E2.67986
G1 X108.150 Y104.305 E2.69732
G1 X107.756 Y104.502 E2.70941
G1 X107.247 Y104.976 E2.72849
G1 X106.973 Y105.257 E2.73926
G1 X106.910 Y105.302 E2.74139
G1 X106.748 Y105.457 E2.74754
G1 X106.436 Y105.580 E2.75674
G1 X106.114 Y105.627 E2.76567
G1 X105.909 Y105.566 E2.77154
G1 X105.838 Y105.457 E2.77511
G1 X105.812 Y105.276 E2.78013
G1 X105.820 Y105.211 E2.78192
G1 X105.914 Y105.041 E2.78726
G1 X105.969 Y104.895 E2.79154
G1 X106.029 Y104.835 E2.79386
G1 X106.121 Y104.663 E2.79922
G1 X106.754 Y103.800 E2.82859
G1 X106.814 Y103.564 E2.83527
G1 X106.837 Y103.528 E2.83644
G1 X106.992 Y103.378 E2.84236
G0 F9000 X107.613 Y103.878
;LAYER:1
M106 S127
G1 F2700 E-1.65764
G0 F9000 X100.175 Y105.522 Z0.400
;TYPE:WALL-INNER
G1 F2700 E2.84236
G1 F540 X100.246 Y105.807 E2.84415
G1 X100.241 Y105.981 E2.84521
G1 X100.227 Y106.055 E2.84567
G1 X100.209 Y106.104 E2.84599
G1 X100.196 Y106.123 E2.84613
G1 X100.090 Y106.045 E2.84693
G1 X99.910 Y105.742 E2.84908
G1 X99.718 Y105.604 E2.85052
G1 X99.620 Y105.470 E2.85153
G1 X99.271 Y105.100 E2.85464
G1 X99.099 Y104.963 E2.85598
G1 X98.845 Y104.695 E2.85823
G1 X98.752 Y104.624 E2.85894
G1 X98.571 Y104.433 E2.86055
G1 X98.305 Y104.194 E2.86273
G1 X98.507 Y103.882 E2.86499
G1 X98.705 Y103.693 E2.86666
G1 X99.094 Y104.071 E2.86997
G1 X99.303 Y103.417 E2.87416
G1 X99.344 Y103.435 E2.87443
G1 X99.383 Y103.517 E2.87498
G1 X99.481 Y103.887 E2.87732
G1 X99.495 Y103.918 E2.87752
G1 X99.593 Y104.360 E2.88029
G1 X99.809 Y104.845 E2.88352
G1 X99.893 Y104.978 E2.88448
G1 X99.971 Y105.165 E2.88572
G1 X100.105 Y105.364 E2.88718
G1 X100.175 Y105.522 E2.88823
G0 F9000 X99.609 Y106.018
;TYPE:WALL-OUTER
G1 F540 X99.432 Y105.892 E2.88956
G1 X99.311 Y105.726 E2.89081
G1 X99.008 Y105.405 E2.89350
G1 X98.935 Y105.354 E2.89405
G1 X98.576 Y104.992 E2.89716
G1 X98.485 Y104.922 E2.89786
G1 X98.078 Y104.532 E2.90129
G1 X98.055 Y104.529 E2.90143
G1 X97.918 Y104.338 E2.90287
G1 X97.880 Y104.122 E2.90420
G1 X97.592 Y103.792 E2.90688
G1 X97.433 Y103.510 E2.90885
G1 X97.617 Y103.634 E2.91020
G1 X98.060 Y103.837 E2.91317
G1 X98.196 Y103.626 E2.91471
G1 X98.305 Y103.523 E2.91562
G1 X98.126 Y103.146 E2.91816
G1 X98.167 Y103.051 E2.91880
G1 X97.963 Y102.586 E2.92189
G1 X97.915 Y102.449 E2.92278
G1 X98.193 Y102.621 E2.92477
G1 X98.909 Y103.334 E2.93093
G1 X98.990 Y103.083 E2.93254
G1 X99.151 Y103.040 E2.93356
G1 X99.083 Y102.690 E2.93573
G1 X98.916 Y102.281 E2.93842
G1 X98.891 Y102.071 E2.93971
G1 X99.267 Y102.655 E2.94395
G1 X99.444 Y103.042 E2.94654
G1 X99.650 Y103.149 E2.94796
G1 X99.761 Y103.380 E2.94952
G1 X99.975 Y104.234 E2.95489
G1 X100.163 Y104.656 E2.95771
G1 X100.248 Y104.792 E2.95869
G1 X100.325 Y104.975 E2.95990
G1 X100.455 Y105.169 E2.96132
G1 X100.554 Y105.391 E2.96280
G1 X100.647 Y105.764 E2.96515
G1 X100.640 Y106.023 E2.96673
G1 X100.614 Y106.162 E2.96759
G1 X100.566 Y106.290 E2.96842
G1 X100.483 Y106.413 E2.96933
G1 X100.410 Y106.472 E2.96990
G1 X100.289 Y106.525 E2.97071
G1 X100.057 Y106.520 E2.97212
G1 X100.035 Y106.512 E2.97226
G1 X99.775 Y106.300 E2.97431
G1 X99.609 Y106.018 E2.97630
G0 F9000 X99.705 Y105.355
;TYPE:SKIN
G1 F540 X99.747 Y105.030 E2.97747
G1 X99.282 Y104.929 E2.97938
G1 X99.347 Y104.298 E2.98235
G1 X99.232 Y104.130 E2.98366
G1 X98.703 Y104.376 E2.98582
G1 X98.810 Y103.987 E2.98828
G1 F2700 E-1.51172
G0 F9000 X106.985 Y104.156
;TYPE:FILL
G1 F2700 E2.98828
G1 F540 X107.232 Y104.403 E2.99041
G0 F9000 X107.609 Y104.251
;TYPE:WALL-INNER
G1 F540 X107.087 Y104.726 E2.99471
G1 X106.778 Y105.048 E2.99743
G1 X106.543 Y105.221 E2.99921
G1 X106.376 Y105.291 E3.00031
G1 X106.174 Y105.322 E3.00156
G1 X106.112 Y105.300 E3.00196
G1 X106.082 Y105.270 E3.00222
G1 X106.072 Y105.230 E3.00247
G1 X106.137 Y105.108 E3.00331
G1 X106.315 Y104.930 E3.00485
G1 X106.508 Y104.572 E3.00733
G1 X106.781 Y104.217 E3.01006
G1 X107.040 Y103.815 E3.01298
G1 X107.066 Y103.711 E3.01363
G1 X107.157 Y103.568 E3.01466
G1 X107.280 Y103.451 E3.01570
G1 X107.303 Y103.261 E3.01687
G1 X107.381 Y103.035 E3.01832
G1 X107.476 Y102.912 E3.01927
G1 X107.573 Y102.889 E3.01988
G1 X108.013 Y103.151 E3.02300
G1 X108.272 Y103.125 E3.02459
G1 X108.242 Y103.240 E3.02531
G1 X108.544 Y103.642 E3.02838
G1 X108.528 Y103.718 E3.02885
G1 X108.485 Y103.764 E3.02924
G1 X108.036 Y104.045 E3.03247
G1 X107.609 Y104.251 E3.03536
G0 F9000 X107.835 Y104.586
;TYPE:WALL-OUTER
G1 F540 X107.366 Y105.013 E3.03923
G1 X107.042 Y105.352 E3.04209
G1 X106.744 Y105.571 E3.04434
G1 X106.488 Y105.678 E3.04603
G1 X106.085 Y105.739 E3.04852
G1 X106.052 Y105.739 E3.04872
G1 X105.978 Y105.678 E3.04930
G1 X105.813 Y105.631 E3.05035
G1 X105.777 Y105.531 E3.05100
G1 X105.721 Y105.475 E3.05148
G1 X105.646 Y105.176 E3.05336
G1 X105.812 Y104.869 E3.05549
G1 X105.990 Y104.689 E3.05703
G1 X106.163 Y104.367 E3.05926
G1 X106.223 Y104.277 E3.05992
G1 X106.456 Y103.984 E3.06220
G1 X106.667 Y103.655 E3.06459
G1 X106.692 Y103.553 E3.06523
G1 X106.847 Y103.310 E3.06698
G1 X106.901 Y103.259 E3.06744
G1 X106.912 Y103.169 E3.06799
G1 X107.023 Y102.844 E3.07008
G1 X107.217 Y102.595 E3.07201
G1 X107.309 Y102.541 E3.07266
G1 X107.398 Y102.520 E3.07322
G1 X107.793 Y101.937 E3.07751
G1 X107.990 Y101.687 E3.07945
G1 X107.979 Y101.855 E3.08048
G1 X107.854 Y102.259 E3.08306
G1 X107.915 Y102.446 E3.08426
G1 X107.887 Y102.611 E3.08528
G1 X108.104 Y102.740 E3.08682
G1 X108.368 Y102.713 E3.08844
G1 X108.467 Y102.572 E3.08949
G1 X108.793 Y102.224 E3.09239
G1 X109.084 Y101.981 E3.09471
G1 X109.109 Y101.975 E3.09486
G1 X108.883 Y102.527 E3.09850
G1 X108.814 Y102.679 E3.09952
G1 X108.731 Y102.961 E3.10131
G1 X108.740 Y102.975 E3.10141
G1 X108.717 Y103.008 E3.10166
G1 X108.678 Y103.155 E3.10258
G1 X108.920 Y103.476 E3.10504
G1 X109.235 Y103.302 E3.10723
G1 X109.358 Y103.256 E3.10803
G1 X109.478 Y103.135 E3.10907
G1 X109.333 Y103.342 E3.11061
G1 X108.946 Y103.671 E3.11371
G1 X108.897 Y103.908 E3.11518
G1 X108.742 Y104.075 E3.11657
G1 X108.226 Y104.398 E3.12029
G1 X107.835 Y104.586 E3.12293
G0 F9000 X107.887 Y103.961
;TYPE:SKIN
G1 F540 X108.299 Y103.550 E3.12648
G0 F9000 X107.990 Y103.293
G1 F540 X106.611 Y104.671 E3.13837
G0 F9000 X107.448 Y103.269
G1 F540 X107.631 Y103.086 E3.13995
;LAYER:2
M106 S255
G1 F2700 E-1.36005
G0 F9000 X100.139 Y105.425 Z0.500
;TYPE:WALL-INNER
G1 F2700 E3.13995
G1 F540 X100.255 Y105.701 E3.14177
G1 X100.246 Y106.067 E3.14400
G1 X100.228 Y106.113 E3.14430
G1 X100.217 Y106.122 E3.14439
G1 X100.177 Y106.120 E3.14464
G1 X100.158 Y106.105 E3.14478
G1 X100.102 Y106.041 E3.14530
G1 X100.006 Y105.962 E3.14606
G1 X99.843 Y105.703 E3.14793
G1 X99.703 Y105.603 E3.14898
G1 X99.657 Y105.537 E3.14947
G1 X99.300 Y105.154 E3.15266
G1 X99.174 Y105.063 E3.15361
G1 X98.296 Y104.161 E3.16128
G1 X98.274 Y104.158 E3.16142
G1 X98.475 Y104.050 E3.16281
G1 X98.722 Y103.652 E3.16567
G1 X99.027 Y103.951 E3.16827
G1 X99.261 Y103.387 E3.17199
G1 X99.353 Y103.446 E3.17266
G1 X99.432 Y103.648 E3.17398
G1 X99.461 Y103.879 E3.17540
G1 X99.518 Y104.005 E3.17624
G1 X99.594 Y104.364 E3.17848
G1 X99.783 Y104.797 E3.18136
G1 X99.932 Y105.034 E3.18307
G1 X99.979 Y105.148 E3.18382
G1 X100.139 Y105.425 E3.18577
G0 F9000 X99.546 Y105.982
;TYPE:WALL-OUTER
G1 F540 X99.415 Y105.888 E3.18676
G1 X99.346 Y105.790 E3.18749
G1 X99.034 Y105.455 E3.19028
G1 X98.909 Y105.365 E3.19122
G1 X98.555 Y104.983 E3.19439
G1 X98.109 Y104.539 E3.19823
G1 X98.035 Y104.529 E3.19869
G1 X97.883 Y104.309 E3.20032
G1 X97.847 Y104.084 E3.20171
G1 X97.598 Y103.787 E3.20407
G1 X97.515 Y103.641 E3.20509
G1 X97.488 Y103.573 E3.20554
G1 X97.677 Y103.700 E3.20693
G1 X98.018 Y103.841 E3.20918
G1 X98.192 Y103.748 E3.21038
G1 X98.312 Y103.554 E3.21177
G1 X98.245 Y103.289 E3.21344
G1 X98.192 Y103.208 E3.21403
G1 X98.223 Y103.138 E3.21450
G1 X97.988 Y102.635 E3.21788
G1 X97.944 Y102.496 E3.21877
G1 X98.256 Y102.696 E3.22103
G1 X98.414 Y102.855 E3.22240
G1 X98.590 Y102.963 E3.22366
G1 X98.884 Y103.251 E3.22617
G1 X99.051 Y102.849 E3.22882
G1 X99.021 Y102.544 E3.23069
G1 X98.958 Y102.181 E3.23294
G1 X99.252 Y102.606 E3.23609
G1 X99.300 Y102.742 E3.23697
G1 X99.427 Y103.016 E3.23881
G1 X99.527 Y103.084 E3.23955
G1 X99.651 Y103.132 E3.24036
G1 X99.784 Y103.433 E3.24236
G1 X99.824 Y103.565 E3.24320
G1 X99.850 Y103.769 E3.24446
G1 X99.899 Y103.876 E3.24518
G1 X99.977 Y104.241 E3.24745
G1 X100.138 Y104.610 E3.24991
G1 X100.288 Y104.849 E3.25163
G1 X100.333 Y104.957 E3.25234
G1 X100.413 Y105.076 E3.25322
G1 X100.636 Y105.574 E3.25654
G1 X100.656 Y105.656 E3.25706
G1 X100.639 Y106.156 E3.26011
G1 X100.563 Y106.356 E3.26141
G1 X100.382 Y106.504 E3.26284
G1 X100.327 Y106.528 E3.26320
G1 X100.085 Y106.516 E3.26468
G1 X99.983 Y106.476 E3.26535
G1 X99.876 Y106.392 E3.26618
G1 X99.821 Y106.328 E3.26669
G1 X99.701 Y106.228 E3.26765
G1 X99.546 Y105.982 E3.26942
G0 F9000 X99.876 Y105.250
;TYPE:SKIN
G1 F540 X98.653 Y104.027 E3.27997
G0 F9000 X99.166 Y103.975
G1 F540 X99.423 Y104.231 E3.28218
G1 F2700 E-1.21782
G0 F9000 X106.958 Y104.129
;TYPE:FILL
G1 F2700 E3.28218
G1 F540 X107.240 Y104.412 E3.28461
G0 F9000 X107.655 Y104.238
;TYPE:WALL-INNER
G1 F540 X107.139 Y104.688 E3.28879
G1 X106.777 Y105.071 E3.29200
G1 X106.765 Y105.080 E3.29209
G1 X106.526 Y105.229 E3.29381
G1 X106.383 Y105.296 E3.29477
G1 X106.156 Y105.331 E3.29618
G1 X106.090 Y105.277 E3.29670
G1 X106.075 Y105.218 E3.29707
G1 X106.176 Y105.028 E3.29838
G1 X106.359 Y104.843 E3.29997
G1 X106.492 Y104.594 E3.30169
G1 X106.992 Y103.821 E3.30730
G1 X107.334 Y103.328 E3.31096
G1 X107.326 Y103.248 E3.31145
G1 X107.444 Y102.911 E3.31363
G1 X107.521 Y102.892 E3.31411
G1 X107.578 Y103.386 E3.31714
G1 X108.249 Y103.113 E3.32156
G1 X108.212 Y103.195 E3.32211
G1 X108.553 Y103.651 E3.32558
G1 X108.538 Y103.721 E3.32602
G1 X108.489 Y103.776 E3.32647
G1 X107.918 Y104.114 E3.33051
G1 X107.655 Y104.238 E3.33229
G0 F9000 X107.876 Y104.576
;TYPE:WALL-OUTER
G1 F540 X107.416 Y104.977 E3.33601
G1 X107.045 Y105.370 E3.33930
G1 X106.703 Y105.590 E3.34178
G1 X106.506 Y105.682 E3.34311
G1 X106.085 Y105.746 E3.34570
G1 X106.006 Y105.725 E3.34620
G1 X105.805 Y105.561 E3.34778
G1 X105.728 Y105.481 E3.34846
G1 X105.660 Y105.156 E3.35049
G1 X105.664 Y105.138 E3.35060
G1 X105.841 Y104.807 E3.35289
G1 X106.034 Y104.603 E3.35460
G1 X106.144 Y104.395 E3.35604
G1 X106.398 Y104.009 E3.35885
G1 X106.425 Y103.979 E3.35910
G1 X106.663 Y103.592 E3.36187
G1 X106.921 Y103.222 E3.36462
G1 X106.917 Y103.186 E3.36484
G1 X106.927 Y103.176 E3.36493
G1 X107.079 Y102.736 E3.36777
G1 X107.202 Y102.557 E3.36909
G1 X107.417 Y102.506 E3.37044
G1 X107.768 Y101.961 E3.37439
G1 X107.928 Y101.754 E3.37599
G1 X107.901 Y101.944 E3.37716
G1 X107.804 Y102.256 E3.37915
G1 X107.874 Y102.471 E3.38053
G1 X107.915 Y102.817 E3.38265
G1 X108.420 Y102.612 E3.38598
G1 X108.803 Y102.245 E3.38921
G1 X109.004 Y102.079 E3.39080
G1 X109.058 Y102.055 E3.39116
G1 X108.741 Y102.773 E3.39595
G1 X108.683 Y102.970 E3.39720
G1 X108.722 Y103.035 E3.39766
G1 X108.673 Y103.144 E3.39839
G1 X108.814 Y103.333 E3.39983
G1 X109.044 Y103.302 E3.40124
G1 X109.359 Y103.179 E3.40330
G1 X109.396 Y103.141 E3.40363
G1 X109.491 Y103.112 E3.40423
G1 X109.320 Y103.356 E3.40605
G1 X108.955 Y103.676 E3.40901
G1 X108.911 Y103.898 E3.41039
G1 X108.804 Y104.028 E3.41142
G1 X108.740 Y104.090 E3.41196
G1 X108.587 Y104.194 E3.41309
G1 X108.097 Y104.472 E3.41652
G1 X107.876 Y104.576 E3.41801
G0 F9000 X107.725 Y104.048
;TYPE:SKIN
G1 F540 X107.184 Y103.790 E3.42169
G1 X107.240 Y104.412 E3.42446
G1 X106.736 Y104.473 E3.42654
G1 X106.653 Y104.956 E3.42814
G1 X106.406 Y104.992 E3.42966
G0 F9000 X107.720 Y103.478
G1 F540 X108.090 Y103.847 E3.43285
;LAYER:3
G1 F2700 E-1.06715
G0 F9000 X100.265 Y105.904 Z0.600
;TYPE:WALL-INNER
G1 F2700 E3.43285
G1 F540 X100.262 Y105.982 E3.43332
G1 X100.249 Y106.063 E3.43382
G1 X100.227 Y106.113 E3.43415
G1 X100.183 Y106.109 E3.43442
G1 X100.160 Y106.100 E3.43457
G1 X100.112 Y106.044 E3.43502
G1 X99.915 Y105.874 E3.43661
G1 X99.777 Y105.664 E3.43814
G1 X99.684 Y105.597 E3.43884
G1 X99.665 Y105.570 E3.43904
G1 X99.335 Y105.215 E3.44200
G1 X99.230 Y105.130 E3.44282
G1 X99.131 Y104.993 E3.44385
