;Generated with Cura_SteamEngine DEV
M109 S210     ;Heatup to 210C
G21           ;metric values
G90           ;absolute positioning
G28           ;Home
G1 Z15.0 F300 ;move the platform down 15mm
G92 E0        ;zero the extruded length
G1 F200 E5    ;extrude 5mm of feed stock
G92 E0        ;zero the extruded length again

;Layer count: 114
;LAYER:0
M107
G0 F9000 X95.677 Y93.550 Z0.300
G0 X95.113 Y94.170
;TYPE:SKIRT
G1 F1200 X95.677 Y93.550 E0.02300
G1 X97.701 Y92.827 E0.08197
G1 X98.787 Y92.619 E0.11232
G1 X98.824 Y92.616 E0.11334
G1 X98.967 Y92.511 E0.11820
G1 X101.391 Y91.987 E0.18625
G1 X102.745 Y92.053 E0.22345
G1 X103.825 Y92.268 E0.25367
G1 X104.613 Y92.535 E0.27650
G1 X104.739 Y92.589 E0.28026
G1 X105.118 Y92.685 E0.29099
G1 X105.397 Y92.771 E0.29900
G1 X105.805 Y92.847 E0.31039
G1 X107.832 Y93.311 E0.36745
G1 X109.960 Y95.078 E0.44335
G1 X110.857 Y96.510 E0.48972
G1 X110.892 Y96.591 E0.49214
G1 X110.973 Y96.651 E0.49490
G1 X112.508 Y99.259 E0.57794
G1 X112.906 Y101.954 E0.65270
G1 X112.277 Y104.285 E0.71895
G1 X110.747 Y106.716 E0.79777
G1 X110.442 Y106.906 E0.80763
G1 X109.652 Y108.318 E0.85202
G1 X107.515 Y109.708 E0.92198
G1 X106.243 Y110.183 E0.95923
G1 X104.797 Y110.435 E0.99951
G1 X104.230 Y110.494 E1.01515
G1 X104.112 Y110.526 E1.01851
G1 X104.015 Y110.536 E1.02118
G1 X103.239 Y110.713 E1.04302
G1 X100.140 Y111.404 E1.13015
G1 X98.742 Y110.559 E1.17497
G1 X98.610 Y110.491 E1.17905
G1 X97.394 Y110.314 E1.21277
G1 X95.672 Y108.377 E1.28389
G1 X95.663 Y108.369 E1.28422
G1 X94.452 Y107.689 E1.32233
G1 X92.925 Y105.715 E1.39081
G1 X92.895 Y105.628 E1.39333
G1 X92.306 Y104.931 E1.41837
G1 X92.001 Y102.232 E1.49291
G1 X92.010 Y102.119 E1.49602
G1 X91.973 Y101.748 E1.50625
G1 X92.189 Y100.413 E1.54336
G1 X92.447 Y99.567 E1.56763
G1 X92.597 Y98.133 E1.60719
G1 X93.100 Y96.749 E1.64760
G1 X93.978 Y95.344 E1.69306
G1 X95.076 Y94.194 E1.73669
G1 X95.113 Y94.170 E1.73790
G1 F2700 E-2.76210
G0 F9000 X100.057 Y101.471
;TYPE:FILL
G1 F2700 E1.73790
G1 F1200 X100.391 Y101.805 E1.75086
G0 F9000 X99.741 Y101.597
;TYPE:WALL-INNER
G1 F1200 X100.296 Y100.661 E1.78072
G1 X99.856 Y100.282 E1.79666
G1 X99.698 Y99.886 E1.80836
G1 X99.654 Y99.869 E1.80965
G1 X99.657 Y99.842 E1.81040
G1 X99.697 Y99.780 E1.81242
G1 X99.798 Y99.792 E1.81521
G1 X100.286 Y99.948 E1.82927
G1 X100.395 Y99.981 E1.83240
G1 X100.415 Y100.160 E1.83734
G1 X100.635 Y100.798 E1.85586
G1 X100.630 Y100.828 E1.85669
G1 X100.912 Y101.632 E1.88007
G1 X100.037 Y102.392 E1.91187
G1 X100.015 Y102.391 E1.91248
G1 X99.450 Y102.189 E1.92894
G1 X99.313 Y102.145 E1.93289
G1 X99.278 Y102.042 E1.93588
G1 X99.462 Y101.834 E1.94350
G1 X99.741 Y101.597 E1.95354
G1 F2700 E-2.54646
G0 F9000 X102.289 Y99.374
G1 F2700 E1.95354
G1 F1200 X102.777 Y99.555 E1.96782
G1 X102.958 Y99.566 E1.97280
G1 X103.212 Y99.632 E1.98000
G1 X102.406 Y100.333 E2.00931
G1 X102.041 Y99.267 E2.04023
G1 X102.289 Y99.374 E2.04764
G0 F9000 X104.525 Y101.434
G1 F1200 X104.526 Y101.421 E2.04800
G1 X104.603 Y101.311 E2.05168
G1 X104.924 Y101.058 E2.06290
G1 X105.186 Y101.275 E2.07223
G1 X105.359 Y101.456 E2.07910
G1 X105.457 Y101.529 E2.08246
G1 X105.407 Y101.560 E2.08407
G1 X105.296 Y101.592 E2.08724
G1 X105.136 Y101.682 E2.09228
G1 X104.753 Y101.768 E2.10305
G1 X104.701 Y101.872 E2.10624
G1 X104.536 Y101.614 E2.11464
G1 X104.526 Y101.568 E2.11594
G1 X104.525 Y101.434 E2.11961
G0 F9000 X103.935 Y101.266
;TYPE:WALL-OUTER
G1 F1200 X103.985 Y101.147 E2.12316
G1 X104.161 Y100.895 E2.13159
G1 X104.555 Y100.585 E2.14535
G1 X104.833 Y100.291 E2.15645
G1 X104.813 Y99.817 E2.16947
G1 X104.468 Y99.335 E2.18573
G1 X100.477 Y102.805 E2.33085
G1 X100.554 Y103.147 E2.34047
G1 X100.711 Y103.539 E2.35206
G1 X100.987 Y103.867 E2.36382
G1 X101.189 Y103.984 E2.37023
G1 X101.411 Y104.074 E2.37680
G1 X101.712 Y104.101 E2.38509
G1 X102.332 Y104.054 E2.40216
G1 X102.848 Y103.973 E2.41649
G1 X103.525 Y103.849 E2.43537
G1 X103.672 Y103.842 E2.43941
G1 X103.969 Y103.794 E2.44767
G1 X104.532 Y103.580 E2.46419
G1 X104.653 Y103.368 E2.47089
G1 X104.700 Y103.106 E2.47820
G1 X104.659 Y102.888 E2.48428
G1 X104.603 Y102.741 E2.48860
G1 X104.233 Y102.249 E2.50549
G1 X104.156 Y102.149 E2.50896
G1 X103.972 Y101.839 E2.51885
G1 X103.927 Y101.636 E2.52455
G1 X103.925 Y101.409 E2.53078
G1 X103.935 Y101.266 E2.53472
G0 F9000 X104.330 Y101.350
G0 X104.805 Y102.113
G0 X105.162 Y102.291
G1 F1200 X105.077 Y102.461 E2.53993
G1 X104.914 Y103.001 E2.55541
G1 X104.863 Y103.359 E2.56533
G1 X104.686 Y103.675 E2.57527
G1 X104.509 Y103.786 E2.58100
G1 X103.875 Y103.896 E2.59866
G1 X103.183 Y103.968 E2.61775
G1 X102.769 Y104.027 E2.62923
G1 X102.446 Y104.107 E2.63836
G1 X102.376 Y104.140 E2.64048
G1 X101.785 Y104.276 E2.65712
G1 X101.272 Y104.389 E2.67154
G1 X101.106 Y104.352 E2.67620
G1 X100.912 Y104.253 E2.68218
G1 X100.776 Y104.158 E2.68673
G1 X100.748 Y104.100 E2.68850
G1 X100.742 Y103.985 E2.69166
G1 X100.634 Y103.898 E2.69546
G1 X100.543 Y103.588 E2.70433
G1 X100.430 Y103.069 E2.71891
G1 X100.040 Y102.993 E2.72981
G1 X99.895 Y102.986 E2.73379
G1 X99.257 Y102.757 E2.75239
G1 X99.004 Y102.676 E2.75968
G1 X98.852 Y102.590 E2.76447
G1 X98.815 Y102.542 E2.76614
G1 X98.738 Y102.316 E2.77269
G1 X98.640 Y102.200 E2.77686
G1 X98.632 Y102.135 E2.77865
G1 X98.638 Y102.064 E2.78061
G1 X98.626 Y101.948 E2.78381
G1 X98.639 Y101.887 E2.78552
G1 X98.870 Y101.589 E2.79587
G1 X99.051 Y101.395 E2.80315
G1 X99.276 Y101.204 E2.81124
G1 X99.523 Y100.788 E2.82452
G1 X99.353 Y100.641 E2.83069
G1 X99.236 Y100.348 E2.83934
G1 X99.146 Y100.312 E2.84200
G1 X99.084 Y100.162 E2.84646
G1 X99.051 Y100.015 E2.85059
G1 X99.045 Y99.922 E2.85315
G1 X99.075 Y99.642 E2.86088
G1 X99.216 Y99.415 E2.86821
G1 X99.319 Y99.307 E2.87230
G1 X99.425 Y99.238 E2.87578
G1 X99.448 Y99.212 E2.87673
G1 X99.660 Y99.172 E2.88265
G1 X99.933 Y99.204 E2.89019
G1 X99.957 Y99.214 E2.89090
G1 X100.463 Y99.375 E2.90547
G1 X100.948 Y99.520 E2.91936
G1 X101.082 Y99.337 E2.92559
G1 X101.272 Y99.143 E2.93304
G1 X101.515 Y98.839 E2.94372
G1 X101.739 Y98.664 E2.95152
G1 X101.934 Y98.622 E2.95699
G1 X102.113 Y98.656 E2.96199
G1 X102.235 Y98.698 E2.96553
G1 X102.902 Y98.962 E2.98522
G1 X103.051 Y98.970 E2.98931
G1 X103.820 Y99.192 E3.01127
G1 X104.474 Y99.313 E3.02953
G1 X104.824 Y99.393 E3.03938
G1 X104.930 Y99.481 E3.04316
G1 X105.005 Y99.611 E3.04728
G1 X105.059 Y99.943 E3.05651
G1 X105.150 Y100.135 E3.06234
G1 X105.206 Y100.377 E3.06915
G1 X105.380 Y100.657 E3.07820
G1 X105.598 Y100.838 E3.08597
G1 X105.756 Y101.003 E3.09224
G1 X105.967 Y101.159 E3.09944
G1 X106.167 Y101.497 E3.11022
G1 X106.176 Y101.560 E3.11196
G1 X106.163 Y101.609 E3.11336
G1 X105.969 Y101.916 E3.12332
G1 X105.652 Y102.114 E3.13358
G1 X105.529 Y102.149 E3.13709
G1 X105.352 Y102.248 E3.14265
G1 X105.162 Y102.291 E3.14800
G1 F2700 E-1.35200
G0 F9000 X102.061 Y101.331
G1 F2700 E3.14800
G1 F1200 X101.863 Y100.704 E3.16604
G1 X101.877 Y100.622 E3.16832
G1 X101.758 Y100.336 E3.17682
G1 X101.684 Y100.132 E3.18278
G1 X101.495 Y99.531 E3.20006
G1 X100.962 Y99.642 E3.21500
G1 X101.004 Y100.022 E3.22549
G1 X101.249 Y100.749 E3.24655
G1 X101.244 Y100.782 E3.24746
G1 X101.514 Y101.524 E3.26913
G1 X102.061 Y101.331 E3.28505
;LAYER:1
M106 S127
G0 F9000 X101.489 Y101.240 Z0.400
G0 X100.857 Y100.035
G0 X100.653 Y100.165
;TYPE:FILL
G1 F900 X100.092 Y100.725 E3.28988
G1 F2700 E-1.21012
G0 F9000 X104.269 Y101.441
G1 F2700 E3.28988
G1 F900 X104.959 Y102.130 E3.29582
G0 F9000 X104.484 Y101.990
G1 F900 X105.438 Y101.036 E3.30405
G0 F9000 X99.525 Y102.353
G1 F900 X99.149 Y101.978 E3.30729
G0 F9000 X99.061 Y102.160
;TYPE:WALL-INNER
G1 F900 X98.977 Y102.080 E3.30800
G1 X98.982 Y101.994 E3.30852
G1 X98.974 Y101.971 E3.30867
G1 X99.116 Y101.800 E3.31003
G1 X99.626 Y101.349 E3.31418
G1 X99.658 Y101.291 E3.31458
G1 X100.086 Y100.942 E3.31795
G1 X99.664 Y100.421 E3.32204
G1 X99.547 Y100.134 E3.32393
G1 X99.396 Y100.073 E3.32492
G1 X99.377 Y100.015 E3.32529
G1 X99.363 Y99.840 E3.32636
G1 X99.384 Y99.756 E3.32689
G1 X99.492 Y99.569 E3.32821
G1 X99.578 Y99.479 E3.32897
G1 X99.696 Y99.461 E3.32970
G1 X99.719 Y99.464 E3.32984
G1 X99.896 Y99.538 E3.33101
G1 X100.203 Y99.601 E3.33292
G1 X100.483 Y99.721 E3.33477
G1 X100.789 Y99.814 E3.33673
G1 X100.701 Y99.986 E3.33790
G1 X101.080 Y100.539 E3.34199
G1 X101.328 Y101.022 E3.34530
G1 X101.406 Y101.117 E3.34605
G1 X101.387 Y101.235 E3.34678
G1 X101.234 Y101.346 E3.34793
G1 X100.316 Y102.721 E3.35801
G1 X100.033 Y102.665 E3.35977
G1 X99.969 Y102.662 E3.36016
G1 X99.456 Y102.476 E3.36349
G1 X99.131 Y102.362 E3.36559
G1 X99.061 Y102.160 E3.36690
G0 F9000 X101.513 Y99.318
G1 F900 X101.686 Y99.075 E3.36871
G1 X101.745 Y99.042 E3.36913
G1 X101.871 Y98.929 E3.37016
G1 X101.956 Y98.922 E3.37068
G1 X102.160 Y98.990 E3.37199
G1 X102.378 Y99.082 E3.37343
G1 X103.080 Y99.298 E3.37791
G1 X101.493 Y99.338 E3.38759
G1 X101.513 Y99.318 E3.38776
G0 F9000 X104.132 Y101.556
G1 F900 X104.129 Y101.349 E3.38903
G1 X104.191 Y101.205 E3.38998
G1 X104.303 Y101.056 E3.39112
G1 X104.760 Y100.685 E3.39471
G1 X105.038 Y100.388 E3.39719
G1 X105.036 Y100.335 E3.39751
G1 X105.158 Y100.597 E3.39928
G1 X105.651 Y101.038 E3.40331
G1 X105.735 Y101.075 E3.40387
G1 X105.951 Y101.233 E3.40550
G1 X106.074 Y101.452 E3.40703
G1 X106.092 Y101.566 E3.40774
G1 X106.065 Y101.669 E3.40839
G1 X106.001 Y101.765 E3.40909
G1 X105.819 Y101.887 E3.41042
G1 X105.357 Y102.022 E3.41336
G1 X104.863 Y102.372 E3.41705
G1 X104.788 Y102.626 E3.41867
G1 X104.767 Y102.565 E3.41906
G1 X104.329 Y102.019 E3.42333
G1 X104.153 Y101.712 E3.42549
G1 X104.124 Y101.578 E3.42632
G1 X104.132 Y101.556 E3.42646
G0 F9000 X103.693 Y101.602
;TYPE:WALL-OUTER
G1 F900 X103.731 Y101.492 E3.42717
G1 X103.728 Y101.269 E3.42853
G1 X103.841 Y101.004 E3.43029
G1 X104.013 Y100.776 E3.43203
G1 X104.491 Y100.387 E3.43579
G1 X104.632 Y100.236 E3.43705
G1 X104.626 Y100.058 E3.43814
G1 X104.655 Y99.836 E3.43950
G1 X104.529 Y99.661 E3.44082
G1 X101.274 Y99.744 E3.46067
G1 X101.166 Y99.956 E3.46212
G1 X101.419 Y100.325 E3.46485
G1 X101.664 Y100.801 E3.46811
G1 X101.829 Y101.014 E3.46976
G1 X101.767 Y101.390 E3.47208
G1 X101.770 Y101.452 E3.47246
G1 X101.527 Y101.628 E3.47429
G1 X100.678 Y102.900 E3.48362
G1 X100.708 Y103.025 E3.48440
G1 X100.876 Y103.445 E3.48716
G1 X101.131 Y103.738 E3.48953
G1 X101.197 Y103.778 E3.49000
G1 X101.582 Y103.932 E3.49252
G1 X101.661 Y103.937 E3.49301
G1 X102.205 Y103.885 E3.49634
G1 X102.957 Y103.785 E3.50097
G1 X103.094 Y103.768 E3.50181
G1 X103.548 Y103.674 E3.50463
G1 X103.866 Y103.655 E3.50658
G1 X104.089 Y103.564 E3.50805
G1 X104.355 Y103.422 E3.50988
G1 X104.465 Y103.222 E3.51128
G1 X104.498 Y103.017 E3.51254
G1 X104.411 Y102.760 E3.51420
G1 X103.997 Y102.244 E3.51823
G1 X103.776 Y101.858 E3.52094
G1 X103.743 Y101.706 E3.52189
G1 X103.693 Y101.602 E3.52260
G0 F9000 X104.007 Y101.614
G0 X104.920 Y102.534
G0 X105.207 Y102.619
G1 F900 X105.064 Y103.070 E3.52548
G1 X105.000 Y103.449 E3.52782
G1 X104.837 Y103.760 E3.52997
G1 X104.690 Y103.850 E3.53102
G1 X104.491 Y103.917 E3.53230
G1 X103.681 Y104.056 E3.53731
G1 X103.096 Y104.111 E3.54089
G1 X102.783 Y104.146 E3.54281
G1 X102.586 Y104.195 E3.54405
G1 X102.544 Y104.214 E3.54433
G1 X101.915 Y104.363 E3.54827
G1 X101.321 Y104.473 E3.55196
G1 X101.088 Y104.428 E3.55340
G1 X101.013 Y104.396 E3.55390
G1 X100.727 Y104.216 E3.55596
G1 X100.707 Y104.189 E3.55617
G1 X100.700 Y104.038 E3.55709
G1 X100.539 Y103.908 E3.55835
G1 X100.463 Y103.588 E3.56036
G1 X100.446 Y103.549 E3.56061
G1 X100.385 Y103.189 E3.56284
G1 X100.248 Y103.115 E3.56379
G1 X99.985 Y103.063 E3.56543
G1 X99.889 Y103.058 E3.56601
G1 X99.321 Y102.853 E3.56969
G1 X98.892 Y102.701 E3.57247
G1 X98.819 Y102.660 E3.57298
G1 X98.806 Y102.644 E3.57311
G1 X98.715 Y102.383 E3.57479
G1 X98.592 Y102.265 E3.57583
G1 X98.579 Y102.185 E3.57632
G1 X98.575 Y102.119 E3.57673
G1 X98.578 Y102.053 E3.57713
G1 X98.530 Y101.919 E3.57800
G1 X98.543 Y101.863 E3.57835
G1 X98.833 Y101.514 E3.58112
G1 X99.307 Y101.100 E3.58495
G1 X99.346 Y101.029 E3.58545
G1 X99.524 Y100.884 E3.58685
G1 X99.315 Y100.626 E3.58887
G1 X99.240 Y100.442 E3.59008
G1 X99.073 Y100.374 E3.59118
G1 X98.982 Y100.094 E3.59298
G1 X98.960 Y99.808 E3.59473
G1 X99.005 Y99.621 E3.59590
G1 X99.173 Y99.325 E3.59798
G1 X99.336 Y99.155 E3.59941
G1 X99.382 Y99.119 E3.59977
G1 X99.448 Y99.095 E3.60020
G1 X99.691 Y99.058 E3.60170
G1 X99.821 Y99.074 E3.60249
G1 X100.015 Y99.154 E3.60377
G1 X100.327 Y99.219 E3.60572
G1 X100.620 Y99.344 E3.60766
G1 X100.902 Y99.430 E3.60946
G1 X101.075 Y99.192 E3.61125
G1 X101.201 Y99.065 E3.61234
G1 X101.425 Y98.763 E3.61464
G1 X101.511 Y98.715 E3.61524
G1 X101.697 Y98.549 E3.61676
G1 X101.934 Y98.521 E3.61821
G1 X102.032 Y98.527 E3.61881
G1 X102.301 Y98.615 E3.62054
G1 X102.515 Y98.706 E3.62195
G1 X103.307 Y98.949 E3.62701
G1 X104.044 Y99.139 E3.63165
G1 X104.506 Y99.213 E3.63450
G1 X104.544 Y99.215 E3.63473
G1 X104.923 Y99.302 E3.63710
G1 X104.996 Y99.341 E3.63761
G1 X105.086 Y99.417 E3.63833
G1 X105.200 Y99.568 E3.63948
G1 X105.221 Y99.618 E3.63981
G1 X105.265 Y99.880 E3.64143
G1 X105.486 Y100.354 E3.64462
G1 X105.870 Y100.698 E3.64776
G1 X105.937 Y100.728 E3.64821
G1 X106.257 Y100.961 E3.65062
G1 X106.449 Y101.303 E3.65302
G1 X106.462 Y101.343 E3.65327
G1 X106.498 Y101.568 E3.65466
G1 X106.495 Y101.603 E3.65488
G1 X106.435 Y101.836 E3.65634
G1 X106.290 Y102.053 E3.65793
G1 X105.988 Y102.254 E3.66015
G1 X105.534 Y102.387 E3.66303
G1 X105.207 Y102.619 E3.66548
G0 F9000 X104.610 Y102.147
;TYPE:SKIN
G1 F900 X105.592 Y101.165 E3.67394
G0 F9000 X105.897 Y101.425
G1 F900 X105.485 Y101.838 E3.67750
G0 F9000 X105.289 Y100.902
G1 F900 X104.374 Y101.817 E3.68539
G0 F9000 X104.284 Y101.342
G1 F900 X104.767 Y100.858 E3.68956
G1 F2700 E-0.81044
G0 F9000 X101.183 Y101.049
G1 F2700 E3.68956
G1 F900 X99.784 Y102.447 E3.70162
G0 F9000 X99.368 Y102.298
G1 F900 X100.991 Y100.675 E3.71562
G0 F9000 X100.768 Y100.332
G1 F900 X100.218 Y100.882 E3.72036
G0 F9000 X99.965 Y100.569
G1 F900 X100.537 Y99.997 E3.72529
G0 F9000 X100.212 Y99.757
G1 F900 X99.622 Y100.063 E3.72938
G1 X99.767 Y99.636 E3.73213
;LAYER:2
M106 S255
G0 F9000 X99.910 Y99.568 Z0.500
;TYPE:WALL-INNER
G1 F1140 X100.318 Y99.662 E3.73468
G1 X101.008 Y99.953 E3.73925
G1 X101.529 Y99.282 E3.74443
G1 X101.669 Y99.073 E3.74596
G1 X101.792 Y99.005 E3.74682
G1 X101.871 Y98.933 E3.74747
G1 X101.944 Y98.925 E3.74792
G1 X102.839 Y99.231 E3.75369
G1 X103.345 Y99.381 E3.75690
G1 X103.975 Y99.539 E3.76086
G1 X104.529 Y99.610 E3.76427
G1 X104.815 Y99.675 E3.76606
G1 X104.886 Y99.715 E3.76656
G1 X104.941 Y99.787 E3.76711
G1 X104.969 Y99.856 E3.76756
G1 X104.989 Y99.970 E3.76827
G1 X105.226 Y100.475 E3.77167
G1 X105.768 Y100.966 E3.77613
G1 X105.936 Y101.010 E3.77719
G1 X106.040 Y101.064 E3.77790
G1 X106.126 Y101.126 E3.77855
G1 X106.236 Y101.302 E3.77981
G1 X106.292 Y101.492 E3.78102
G1 X106.278 Y101.693 E3.78225
G1 X106.257 Y101.786 E3.78283
G1 X106.199 Y101.857 E3.78339
G1 X106.114 Y101.914 E3.78402
G1 X105.893 Y101.964 E3.78540
G1 X105.305 Y102.182 E3.78922
G1 X104.920 Y102.477 E3.79218
G1 X104.730 Y102.993 E3.79553
G1 X104.652 Y103.413 E3.79814
G1 X104.625 Y103.466 E3.79850
G1 X103.918 Y103.617 E3.80291
G1 X103.356 Y103.708 E3.80638
G1 X102.715 Y103.770 E3.81031
G1 X102.096 Y103.930 E3.81420
G1 X101.959 Y103.959 E3.81506
G1 X101.348 Y104.049 E3.81882
G1 X101.247 Y104.034 E3.81945
G1 X101.155 Y103.978 E3.82010
G1 X101.150 Y103.850 E3.82089
G1 X100.945 Y103.680 E3.82251
G1 X100.906 Y103.468 E3.82382
G1 X100.833 Y103.302 E3.82493
G1 X100.773 Y102.934 E3.82720
G1 X100.396 Y102.716 E3.82986
G1 X99.992 Y102.636 E3.83237
G1 X99.184 Y102.341 E3.83761
G1 X99.132 Y102.194 E3.83857
G1 X99.029 Y102.089 E3.83946
G1 X99.037 Y102.007 E3.83997
G1 X99.032 Y101.989 E3.84008
G1 X99.184 Y101.806 E3.84153
G1 X99.749 Y101.300 E3.84615
G1 X100.020 Y100.697 E3.85019
G1 X99.643 Y100.312 E3.85347
G1 X99.426 Y100.016 E3.85571
G1 X99.420 Y99.775 E3.85718
G1 X99.423 Y99.761 E3.85727
G1 X99.524 Y99.548 E3.85870
G1 X99.642 Y99.456 E3.85962
G1 X99.910 Y99.568 E3.86139
G0 F9000 X100.028 Y99.184
;TYPE:WALL-OUTER
G1 F1140 X100.468 Y99.290 E3.86415
G1 X100.881 Y99.465 E3.86688
G1 X101.204 Y99.048 E3.87010
