;Generated with Cura_SteamEngine DEV
M109 S210     ;Heatup to 210C
G21           ;metric values
G90           ;absolute positioning
G28           ;Home
G1 Z15.0 F300 ;move the platform down 15mm
G92 E0        ;zero the extruded length
G1 F200 E5    ;extrude 5mm of feed stock
G92 E0        ;zero the extruded length again

;Layer count: 139
;LAYER:0
M107
G0 F9000 X92.269 Y94.170 Z0.300
;TYPE:SKIRT
G1 F1200 X94.740 Y92.934 E0.07581
G1 X96.549 Y92.485 E0.12696
G1 X98.284 Y92.432 E0.17459
G1 X98.875 Y92.560 E0.19118
G1 X106.233 Y92.258 E0.39326
G1 X105.908 Y94.194 E0.44713
G1 X106.616 Y93.956 E0.46762
G1 X108.040 Y93.772 E0.50702
G1 X109.547 Y93.862 E0.54845
G1 X110.872 Y94.109 E0.58543
G1 X113.148 Y95.255 E0.65536
G1 X115.465 Y98.086 E0.75574
G1 X115.615 Y99.108 E0.78408
G1 X115.938 Y99.454 E0.79707
G1 X116.390 Y101.783 E0.86217
G1 X116.451 Y103.526 E0.91003
G1 X115.932 Y105.412 E0.96371
G1 X115.862 Y105.557 E0.96813
G1 X115.621 Y106.340 E0.99061
G1 X114.721 Y107.433 E1.02946
G1 X113.563 Y109.073 E1.08455
G1 X112.692 Y109.385 E1.10993
G1 X111.290 Y110.435 E1.15800
G1 X108.863 Y110.656 E1.22487
G1 X106.909 Y110.545 E1.27858
G1 X105.161 Y110.678 E1.32668
G1 X104.553 Y110.491 E1.34413
G1 X103.894 Y111.262 E1.37197
G1 X101.020 Y112.319 E1.45599
G1 X99.267 Y112.379 E1.50412
G1 X97.809 Y112.137 E1.54468
G1 X92.325 Y114.633 E1.71001
G1 X92.786 Y108.570 E1.87686
G1 X92.732 Y108.497 E1.87936
G1 X91.709 Y107.843 E1.91267
G1 X91.451 Y107.201 E1.93166
G1 X90.414 Y105.786 E1.97980
G1 X89.827 Y103.852 E2.03526
G1 X89.749 Y102.341 E2.07678
G1 X89.915 Y100.840 E2.11821
G1 X90.313 Y99.540 E2.15552
G1 X90.034 Y97.823 E2.20325
G1 X92.269 Y94.170 E2.32077
G1 F2700 E-2.17923
G0 F9000 X97.037 Y99.164
;TYPE:WALL-OUTER
G1 F2700 E2.32077
G1 F1200 X97.452 Y99.061 E2.33250
G1 X97.682 Y99.054 E2.33881
G1 X97.892 Y99.099 E2.34471
G1 X97.972 Y99.148 E2.34728
G1 X98.020 Y99.219 E2.34963
G1 X98.000 Y99.564 E2.35912
G1 X97.903 Y99.729 E2.36437
G1 X97.725 Y99.942 E2.37198
G1 X97.460 Y99.999 E2.37942
G1 X97.386 Y99.950 E2.38186
G1 X97.224 Y99.887 E2.38663
G1 X97.011 Y99.613 E2.39615
G1 X96.946 Y99.210 E2.40735
G1 X97.037 Y99.164 E2.41015
G0 F9000 X97.631 Y101.416
G1 F1200 X98.205 Y101.381 E2.42593
G1 X98.303 Y101.350 E2.42875
G1 X98.483 Y101.349 E2.43369
G1 X99.261 Y101.433 E2.45516
G1 X99.368 Y101.442 E2.45811
G1 X99.711 Y101.528 E2.46781
G1 X99.897 Y101.553 E2.47296
G1 X100.203 Y101.724 E2.48258
G1 X100.433 Y101.819 E2.48941
G1 X100.602 Y101.988 E2.49597
G1 X100.706 Y102.057 E2.49939
G1 X100.800 Y102.153 E2.50308
G1 X101.005 Y102.569 E2.51580
G1 X100.995 Y102.779 E2.52157
G1 X100.865 Y103.407 E2.53917
G1 X100.853 Y103.454 E2.54050
G1 X100.626 Y103.753 E2.55080
G1 X100.498 Y103.862 E2.55542
G1 X100.029 Y104.061 E2.56940
G1 X99.557 Y104.092 E2.58238
G1 X99.242 Y104.061 E2.59106
G1 X99.124 Y104.039 E2.59436
G1 X98.846 Y104.019 E2.60200
G1 X98.708 Y103.947 E2.60627
G1 X98.463 Y103.943 E2.61300
G1 X98.172 Y103.755 E2.62250
G1 X97.924 Y103.802 E2.62943
G1 X97.624 Y103.603 E2.63931
G1 X97.458 Y103.595 E2.64387
G1 X97.380 Y103.566 E2.64615
G1 X97.298 Y103.465 E2.64972
G1 X97.033 Y103.388 E2.65730
G1 X96.958 Y103.201 E2.66282
G1 X96.650 Y102.992 E2.67304
G1 X96.585 Y102.900 E2.67613
G1 X96.395 Y102.768 E2.68248
G1 X96.377 Y102.709 E2.68417
G1 X96.368 Y102.531 E2.68906
G1 X96.407 Y102.181 E2.69872
G1 X96.456 Y102.020 E2.70334
G1 X96.592 Y101.793 E2.71060
G1 X96.647 Y101.738 E2.71274
G1 X96.816 Y101.623 E2.71835
G1 X96.826 Y101.621 E2.71863
G1 X96.984 Y101.708 E2.72358
G1 X97.328 Y101.462 E2.73518
G1 X97.471 Y101.412 E2.73934
G1 X97.631 Y101.416 E2.74373
G0 F9000 X98.659 Y101.670
G1 F1200 X98.515 Y101.698 E2.74775
G1 X98.261 Y101.686 E2.75473
G1 X97.851 Y101.837 E2.76672
G1 X97.611 Y101.959 E2.77411
G1 X97.512 Y102.191 E2.78103
G1 X97.477 Y102.544 E2.79076
G1 X97.714 Y103.145 E2.80849
G1 X98.207 Y103.341 E2.82305
G1 X98.447 Y103.534 E2.83150
G1 X99.018 Y103.686 E2.84772
G1 X99.169 Y103.727 E2.85201
G1 X99.444 Y103.758 E2.85960
G1 X99.746 Y103.639 E2.86851
G1 X100.016 Y103.459 E2.87741
G1 X100.141 Y102.976 E2.89110
G1 X100.225 Y102.802 E2.89641
G1 X100.075 Y102.277 E2.91139
G1 X100.057 Y102.072 E2.91704
G1 X99.915 Y101.918 E2.92278
G1 X99.457 Y101.602 E2.93805
G1 X99.276 Y101.604 E2.94302
G1 X98.912 Y101.534 E2.95319
G1 X98.659 Y101.670 E2.96107
G1 F2700 E-1.53893
G0 F9000 X98.824 Y104.942
G1 F2700 E2.96107
G1 F1200 X98.885 Y104.901 E2.96309
G1 X99.345 Y104.829 E2.97587
G1 X99.710 Y104.963 E2.98653
G1 X99.996 Y105.181 E2.99640
G1 X100.117 Y105.423 E3.00383
G1 X100.105 Y105.516 E3.00640
G1 X100.047 Y105.607 E3.00936
G1 X99.999 Y105.662 E3.01136
G1 X99.736 Y105.759 E3.01906
G1 X99.697 Y105.760 E3.02013
G1 X99.257 Y105.687 E3.03237
G1 X99.134 Y105.609 E3.03636
G1 X98.936 Y105.560 E3.04196
G1 X98.824 Y105.479 E3.04575
G1 X98.644 Y105.386 E3.05131
G1 X98.595 Y105.320 E3.05357
G1 X98.630 Y105.213 E3.05666
G1 X98.699 Y105.091 E3.06050
G1 X98.824 Y104.942 E3.06584
G1 F2700 E-1.43416
G0 F9000 X101.077 Y100.879
G1 F2700 E3.06584
G1 F1200 X100.784 Y100.890 E3.07388
G1 X100.600 Y100.751 E3.08021
G1 X100.525 Y100.676 E3.08312
G1 X100.401 Y100.459 E3.08998
G1 X100.350 Y100.320 E3.09404
G1 X100.483 Y100.082 E3.10152
G1 X100.534 Y100.015 E3.10384
G1 X100.638 Y99.943 E3.10731
G1 X100.937 Y99.828 E3.11610
G1 X100.968 Y99.831 E3.11695
G1 X101.197 Y99.806 E3.12327
G1 X101.398 Y99.920 E3.12961
G1 X101.522 Y100.158 E3.13698
G1 X101.549 Y100.462 E3.14535
G1 X101.476 Y100.772 E3.15409
G1 X101.416 Y100.797 E3.15587
G1 X101.409 Y100.785 E3.15626
G1 X101.137 Y100.883 E3.16419
G1 X101.077 Y100.879 E3.16584
G1 F2700 E-1.33416
G0 F9000 X108.668 Y101.597
;TYPE:FILL
G1 F2700 E3.16584
G1 F1200 X108.914 Y101.843 E3.17539
G0 F9000 X109.091 Y101.717
;TYPE:WALL-OUTER
G1 F1200 X109.181 Y101.938 E3.18193
G1 X109.218 Y102.184 E3.18876
G1 X109.323 Y102.342 E3.19397
G1 X109.709 Y102.477 E3.20519
G1 X109.813 Y102.572 E3.20905
G1 X109.819 Y102.749 E3.21391
G1 X109.727 Y103.085 E3.22347
G1 X109.697 Y103.152 E3.22549
G1 X109.462 Y103.438 E3.23564
G1 X109.373 Y103.564 E3.23988
G1 X109.280 Y103.597 E3.24258
G1 X109.131 Y103.806 E3.24963
G1 X108.829 Y104.032 E3.25998
G1 X108.752 Y104.039 E3.26210
G1 X108.670 Y104.034 E3.26435
G1 X108.634 Y103.992 E3.26587
G1 X108.533 Y103.813 E3.27151
G1 X108.492 Y103.528 E3.27941
G1 X108.549 Y103.152 E3.28985
G1 X108.329 Y102.868 E3.29970
G1 X107.879 Y102.971 E3.31237
G1 X107.420 Y103.365 E3.32897
G1 X107.230 Y103.458 E3.33478
G1 X107.121 Y103.560 E3.33887
G1 X106.884 Y103.692 E3.34632
G1 X106.650 Y103.772 E3.35310
G1 X106.465 Y103.882 E3.35901
G1 X106.076 Y103.990 E3.37009
G1 X105.907 Y104.003 E3.37474
G1 X105.865 Y103.990 E3.37594
G1 X105.654 Y103.867 E3.38264
G1 X105.448 Y103.665 E3.39056
G1 X105.313 Y103.213 E3.40351
G1 X105.322 Y102.951 E3.41070
G1 X105.354 Y102.770 E3.41574
G1 X105.474 Y102.414 E3.42605
G1 X105.547 Y102.277 E3.43031
G1 X105.925 Y101.797 E3.44708
G1 X105.935 Y101.783 E3.44755
G1 X105.826 Y102.064 E3.45582
G1 X105.886 Y102.481 E3.46738
G1 X105.865 Y102.545 E3.46923
G1 X106.001 Y102.827 E3.47782
G1 X106.057 Y103.011 E3.48310
G1 X106.354 Y103.142 E3.49200
G1 X106.541 Y103.107 E3.49722
G1 X107.022 Y103.240 E3.51092
G1 X107.131 Y103.123 E3.51531
G1 X107.404 Y102.998 E3.52355
G1 X107.499 Y102.906 E3.52717
G1 X107.701 Y102.759 E3.53403
G1 X107.920 Y102.430 E3.54487
G1 X108.154 Y102.118 E3.55558
G1 X108.317 Y101.814 E3.56504
G1 X108.368 Y101.748 E3.56733
G1 X108.475 Y101.517 E3.57432
G1 X108.433 Y101.029 E3.58776
G1 X108.115 Y100.878 E3.59742
G1 X107.877 Y100.885 E3.60395
G1 X107.574 Y100.950 E3.61245
G1 X107.233 Y101.101 E3.62269
G1 X107.158 Y101.071 E3.62490
G1 X106.939 Y101.156 E3.63135
G1 X106.872 Y101.141 E3.63323
G1 X106.506 Y101.238 E3.64362
G1 X106.944 Y100.952 E3.65798
G1 X107.492 Y100.669 E3.67490
G1 X107.660 Y100.567 E3.68029
G1 X108.097 Y100.420 E3.69295
G1 X108.275 Y100.397 E3.69787
G1 X108.741 Y100.425 E3.71068
G1 X108.929 Y100.520 E3.71646
G1 X109.200 Y100.851 E3.72820
G1 X109.260 Y101.262 E3.73960
G1 X109.181 Y101.519 E3.74697
G1 X109.091 Y101.717 E3.75294
G0 F9000 X108.881 Y101.669
;TYPE:SKIN
G1 F1200 X108.839 Y101.202 E3.76075
G1 X108.701 Y100.640 E3.77663
G0 F9000 X108.422 Y102.058
G1 F1200 X109.465 Y103.101 E3.81710
G0 F9000 X109.059 Y103.544
G1 F1200 X108.472 Y102.957 E3.82918
G1 X108.080 Y102.565 E3.84439
;LAYER:1
M106 S127
G1 F2700 E-0.65561
G0 F9000 X97.769 Y99.470 Z0.400
;TYPE:WALL-INNER
G1 F2700 E3.84439
G1 F1320 X97.721 Y99.626 E3.84538
G1 X97.602 Y99.749 E3.84643
G1 X97.434 Y99.791 E3.84748
G1 X97.389 Y99.769 E3.84779
G1 X97.213 Y99.491 E3.84979
G1 X97.189 Y99.325 E3.85082
G1 X97.274 Y99.277 E3.85141
G1 X97.486 Y99.220 E3.85275
G1 X97.600 Y99.216 E3.85345
G1 X97.651 Y99.222 E3.85376
G1 X97.771 Y99.292 E3.85461
G1 X97.769 Y99.470 E3.85569
G0 F9000 X98.178 Y99.256
;TYPE:WALL-OUTER
G1 F1320 X98.166 Y99.541 E3.85743
G1 X98.075 Y99.835 E3.85931
G1 X97.803 Y100.111 E3.86167
G1 X97.389 Y100.215 E3.86427
G1 X97.111 Y100.078 E3.86616
G1 X96.829 Y99.633 E3.86938
G1 X96.764 Y99.183 E3.87215
G1 X96.832 Y99.068 E3.87296
G1 X97.121 Y98.905 E3.87499
G1 X97.427 Y98.821 E3.87692
G1 X97.622 Y98.814 E3.87811
G1 X97.780 Y98.836 E3.87909
G1 X98.052 Y98.993 E3.88100
G1 X98.162 Y99.157 E3.88220
G1 X98.307 Y99.102 E3.88315
G1 X98.178 Y99.256 E3.88437
G0 F9000 X97.520 Y99.829
G0 X97.663 Y101.504
G0 X97.944 Y102.978
G0 X97.729 Y103.088
;TYPE:FILL
G1 F1320 X97.546 Y103.271 E3.88595
G0 F9000 X97.501 Y103.510
G0 X99.146 Y103.921
G0 X100.010 Y103.516
G0 X100.111 Y103.065
G0 X100.331 Y103.159
G1 F1320 X100.513 Y103.341 E3.88752
G0 F9000 X100.022 Y103.528
;TYPE:WALL-INNER
G1 F1320 X100.347 Y102.768 E3.89256
G1 X100.276 Y102.012 E3.89719
G1 X100.217 Y101.947 E3.89773
G1 X100.540 Y102.156 E3.90007
G1 X100.758 Y102.375 E3.90196
G1 X100.791 Y102.509 E3.90280
G1 X100.776 Y102.861 E3.90495
G1 X100.785 Y102.944 E3.90546
G1 X100.674 Y103.347 E3.90801
G1 X100.552 Y103.543 E3.90941
G1 X100.369 Y103.700 E3.91088
G1 X100.016 Y103.838 E3.91320
G1 X99.949 Y103.853 E3.91361
G1 X99.680 Y103.870 E3.91526
G1 X99.219 Y104.082 E3.91835
G1 X98.829 Y103.874 E3.92105
G1 X99.149 Y103.933 E3.92303
G1 X99.472 Y103.751 E3.92529
G1 X100.022 Y103.528 E3.92891
G0 F9000 X99.238 Y105.352
G1 F1320 X98.895 Y105.262 E3.93107
G1 X98.729 Y105.200 E3.93215
G1 X99.178 Y104.902 E3.93544
G1 X99.828 Y105.351 E3.94026
G1 X99.885 Y105.464 E3.94103
G1 X99.859 Y105.476 E3.94120
G1 X99.691 Y105.482 E3.94223
G1 X99.369 Y105.434 E3.94421
G1 X99.238 Y105.352 E3.94516
G1 F2700 E-0.55484
G0 F9000 X98.205 Y103.553
G1 F2700 E3.94516
G1 F1320 X97.948 Y103.601 E3.94675
G1 X97.688 Y103.490 E3.94847
G1 X97.569 Y103.414 E3.94934
G1 X97.494 Y103.409 E3.94979
G1 X97.289 Y103.330 E3.95113
G1 X97.019 Y103.163 E3.95307
G1 X96.994 Y103.102 E3.95347
G1 X96.839 Y102.997 E3.95461
G1 X96.651 Y102.735 E3.95658
G1 X96.542 Y102.659 E3.95739
G1 X96.528 Y102.428 E3.95880
G1 X96.509 Y102.379 E3.95912
G1 X96.651 Y101.981 E3.96170
G1 X96.820 Y101.814 E3.96315
G1 X96.944 Y101.723 E3.96408
G1 X96.993 Y101.734 E3.96439
G1 X97.358 Y101.670 E3.96665
G1 X97.509 Y101.615 E3.96763
G1 X97.529 Y101.616 E3.96775
G1 X98.176 Y101.560 E3.97171
G1 X98.290 Y101.524 E3.97244
G1 X98.396 Y101.540 E3.97310
G1 X98.054 Y101.706 E3.97541
G1 X97.796 Y102.207 E3.97885
G1 X97.816 Y102.948 E3.98337
G1 X98.017 Y103.346 E3.98609
G1 X98.260 Y103.589 E3.98818
G1 X98.205 Y103.553 E3.98859
G0 F9000 X98.120 Y103.976
;TYPE:WALL-OUTER
G1 F1320 X97.928 Y104.011 E3.98978
G1 X97.503 Y103.846 E3.99256
G1 X97.440 Y103.806 E3.99301
G1 X97.407 Y103.804 E3.99321
G1 X97.107 Y103.689 E3.99517
G1 X96.697 Y103.436 E3.99811
G1 X96.669 Y103.365 E3.99857
G1 X96.557 Y103.289 E3.99940
G1 X96.366 Y103.024 E4.00139
G1 X96.241 Y102.938 E4.00232
G1 X96.154 Y102.820 E4.00321
G1 X96.133 Y102.514 E4.00508
G1 X96.077 Y102.369 E4.00603
G1 X96.234 Y101.980 E4.00859
G1 X96.292 Y101.783 E4.00984
G1 X96.307 Y101.758 E4.01002
G1 X96.559 Y101.509 E4.01218
G1 X96.806 Y101.328 E4.01404
G1 X96.909 Y101.307 E4.01469
G1 X97.001 Y101.327 E4.01526
G1 X97.255 Y101.282 E4.01683
G1 X97.447 Y101.212 E4.01808
G1 X97.520 Y101.215 E4.01852
G1 X98.097 Y101.165 E4.02206
G1 X98.257 Y101.115 E4.02308
G1 X98.778 Y101.193 E4.02629
G1 X99.353 Y101.246 E4.02981
G1 X99.947 Y101.337 E4.03348
G1 X100.466 Y101.628 E4.03710
G1 X100.788 Y101.840 E4.03946
G1 X101.116 Y102.174 E4.04231
G1 X101.124 Y102.187 E4.04240
G1 X101.192 Y102.468 E4.04417
G1 X101.177 Y102.847 E4.04648
G1 X101.191 Y102.975 E4.04726
G1 X101.043 Y103.511 E4.05065
G1 X100.861 Y103.805 E4.05276
G1 X100.576 Y104.047 E4.05504
G1 X100.128 Y104.224 E4.05798
G1 X100.009 Y104.250 E4.05872
G1 X99.779 Y104.265 E4.06013
G1 X99.507 Y104.390 E4.06195
G1 X99.490 Y104.626 E4.06340
G1 X99.715 Y104.770 E4.06503
G1 X100.119 Y105.069 E4.06809
G1 X100.158 Y105.116 E4.06846
G1 X100.293 Y105.387 E4.07031
G1 X100.271 Y105.629 E4.07179
G1 X100.169 Y105.780 E4.07290
G1 X99.945 Y105.873 E4.07438
G1 X99.669 Y105.883 E4.07606
G1 X99.259 Y105.823 E4.07859
G1 X99.212 Y105.809 E4.07889
G1 X99.077 Y105.723 E4.07987
G1 X98.768 Y105.642 E4.08181
G1 X98.393 Y105.482 E4.08430
G1 X98.232 Y105.300 E4.08578
G1 X98.278 Y105.166 E4.08665
G1 X98.435 Y104.915 E4.08845
G1 X99.101 Y104.472 E4.09333
G1 X98.555 Y104.182 E4.09710
G1 X98.432 Y104.180 E4.09785
G1 X98.120 Y103.976 E4.10012
G0 F9000 X99.301 Y103.389
G1 F1320 X99.719 Y103.219 E4.10287
G1 X99.939 Y102.704 E4.10629
G1 X99.890 Y102.181 E4.10949
G1 X99.562 Y101.817 E4.11248
G1 X99.441 Y101.733 E4.11338
G1 X98.958 Y101.741 E4.11632
G1 X98.934 Y101.723 E4.11651
G1 X98.349 Y102.007 E4.12047
G1 X98.199 Y102.299 E4.12247
G1 X98.213 Y102.848 E4.12582
G1 X98.345 Y103.109 E4.12761
G1 X98.676 Y103.439 E4.13046
G1 X99.079 Y103.514 E4.13296
G1 X99.301 Y103.389 E4.13451
G0 F9000 X98.823 Y102.624
G1 F1320 X98.836 Y102.836 E4.13580
G1 X98.821 Y102.830 E4.13590
G1 X98.805 Y102.810 E4.13606
G1 X98.807 Y102.603 E4.13732
G1 X98.827 Y102.583 E4.13749
G1 X98.823 Y102.624 E4.13775
G0 F9000 X98.971 Y102.347
G1 F1320 X98.844 Y102.511 E4.13901
G1 X98.859 Y102.385 E4.13978
G1 X99.044 Y102.120 E4.14175
G1 X99.078 Y102.132 E4.14197
G1 X98.971 Y102.347 E4.14344
G0 F9000 X97.658 Y102.311
;TYPE:SKIN
G1 F1320 X97.019 Y102.950 E4.14895
G0 F9000 X96.759 Y102.644
G1 F1320 X97.660 Y101.743 E4.15672
G0 F9000 X96.942 Y101.896
G1 F1320 X96.766 Y102.071 E4.15823
G0 F9000 X97.673 Y102.862
G1 F1320 X97.540 Y103.276 E4.16112
G1 X97.825 Y103.275 E4.16285
G1 F2700 E-0.33715
G0 F9000 X100.763 Y100.591
;TYPE:WALL-INNER
G1 F2700 E4.16285
G1 F1320 X100.673 Y100.497 E4.16365
G1 X100.577 Y100.314 E4.16491
G1 X100.572 Y100.302 E4.16499
G1 X100.603 Y100.243 E4.16539
G1 X100.664 Y100.202 E4.16584
G1 X100.708 Y100.199 E4.16611
G1 X100.879 Y100.130 E4.16723
G1 X100.988 Y100.140 E4.16790
G1 X101.186 Y100.119 E4.16912
G1 X101.295 Y100.176 E4.16987
G1 X101.312 Y100.387 E4.17116
G1 X101.311 Y100.450 E4.17154
G1 X101.296 Y100.513 E4.17194
G1 X100.907 Y100.667 E4.17449
G1 X100.865 Y100.672 E4.17475
G1 X100.763 Y100.591 E4.17554
G0 F9000 X101.368 Y100.915
;TYPE:WALL-OUTER
G1 F1320 X101.007 Y101.057 E4.17791
G1 X100.737 Y101.091 E4.17956
G1 X100.499 Y100.894 E4.18145
G1 X100.348 Y100.736 E4.18278
G1 X100.210 Y100.475 E4.18458
G1 X100.157 Y100.333 E4.18551
G1 X100.142 Y100.258 E4.18597
G1 X100.297 Y99.967 E4.18798
G1 X100.531 Y99.809 E4.18970
G1 X100.619 Y99.804 E4.19024
G1 X100.821 Y99.723 E4.19157
G1 X100.985 Y99.738 E4.19257
G1 X101.158 Y99.720 E4.19363
G1 X101.237 Y99.694 E4.19414
G1 X101.562 Y99.865 E4.19638
G1 X101.612 Y99.902 E4.19676
G1 X101.686 Y100.048 E4.19776
G1 X101.712 Y100.368 E4.19972
G1 X101.710 Y100.501 E4.20053
G1 X101.625 Y100.855 E4.20275
G1 X101.608 Y100.883 E4.20295
G1 X101.414 Y100.961 E4.20422
G1 X101.368 Y100.915 E4.20462
G0 F9000 X101.082 Y100.734
G0 X105.553 Y100.222
G1 F1320 X105.368 Y100.121 E4.20590
G1 X105.640 Y100.182 E4.20760
G1 X105.861 Y100.034 E4.20922
G1 X106.165 Y99.926 E4.21119
G1 X106.182 Y99.903 E4.21137
G1 X105.967 Y100.261 E4.21391
G1 X105.933 Y100.314 E4.21430
G1 X105.910 Y100.386 E4.21476
G1 X105.767 Y100.530 E4.21600
G1 X105.553 Y100.222 E4.21828
G0 F9000 X106.240 Y103.412
;TYPE:FILL
G1 F1320 X106.360 Y103.531 E4.21931
G0 F9000 X106.967 Y103.492
