;Generated with Cura_SteamEngine DEV
M109 S210     ;Heatup to 210C
G21           ;metric values
G90           ;absolute positioning
G28           ;Home
G1 Z15.0 F300 ;move the platform down 15mm
G92 E0        ;zero the extruded length
G1 F200 E5    ;extrude 5mm of feed stock
G92 E0        ;zero the extruded length again

;Layer count: 101
;LAYER:0
M107
G0 F9000 X94.392 Y96.378 Z0.300
;TYPE:SKIRT
G1 F1200 X96.326 Y94.687 E0.07049
G1 X97.600 Y94.110 E0.10887
G1 X98.398 Y93.731 E0.13311
G1 X100.403 Y93.359 E0.18907
G1 X101.206 Y93.282 E0.21120
G1 X101.798 Y93.221 E0.22754
G1 X102.973 Y93.304 E0.25986
G1 X103.301 Y93.320 E0.26887
G1 X104.911 Y93.564 E0.31355
G1 X106.283 Y93.934 E0.35255
G1 X107.375 Y94.256 E0.38379
G1 X108.771 Y95.142 E0.42916
G1 X110.110 Y95.939 E0.47191
G1 X112.154 Y99.069 E0.57449
G1 X112.489 Y101.512 E0.64216
G1 X112.567 Y103.524 E0.69741
G1 X112.284 Y104.785 E0.73287
G1 X112.036 Y106.132 E0.77045
G1 X110.896 Y107.806 E0.82603
G1 X109.997 Y109.123 E0.86978
G1 X107.231 Y110.740 E0.95770
G1 X105.016 Y111.418 E1.02127
G1 X103.721 Y111.628 E1.05727
G1 X103.233 Y111.703 E1.07081
G1 X101.698 Y111.757 E1.11296
G1 X100.384 Y111.630 E1.14918
G1 X99.500 Y111.473 E1.17382
G1 X98.627 Y111.329 E1.19810
G1 X96.428 Y110.430 E1.26329
G1 X94.378 Y108.688 E1.33711
G1 X93.143 Y106.602 E1.40363
G1 X92.593 Y104.812 E1.45501
G1 X92.426 Y103.473 E1.49204
G1 X92.404 Y102.866 E1.50871
G1 X92.420 Y101.896 E1.53533
G1 X92.608 Y100.549 E1.57265
G1 X93.090 Y98.679 E1.62564
G1 X93.731 Y97.498 E1.66251
G1 X94.392 Y96.378 E1.69820
G1 F2700 E-2.80180
G0 F9000 X100.005 Y101.034
;TYPE:WALL-INNER
G1 F2700 E1.69820
G1 F1200 X100.262 Y100.809 E1.70757
G1 X100.637 Y100.639 E1.71887
G1 X101.404 Y100.496 E1.74028
G1 X101.917 Y100.448 E1.75441
G1 X102.537 Y100.491 E1.77147
G1 X102.578 Y100.493 E1.77259
G1 X103.432 Y100.623 E1.79630
G1 X104.339 Y100.867 E1.82207
G1 X104.369 Y100.876 E1.82293
G1 X104.989 Y101.269 E1.84307
G1 X105.240 Y101.651 E1.85562
G1 X105.309 Y102.149 E1.86941
G1 X105.336 Y102.866 E1.88910
G1 X105.232 Y103.333 E1.90223
G1 X104.965 Y103.724 E1.91522
G1 X104.323 Y104.100 E1.93564
G1 X103.372 Y104.391 E1.96293
G1 X102.599 Y104.516 E1.98441
G1 X101.924 Y104.545 E2.00295
G1 X101.357 Y104.490 E2.01858
G1 X100.704 Y104.374 E2.03678
G1 X100.598 Y104.357 E2.03973
G1 X100.216 Y104.200 E2.05106
G1 X99.960 Y103.983 E2.06027
G1 X99.774 Y103.668 E2.07031
G1 X99.660 Y103.299 E2.08091
G1 X99.609 Y102.891 E2.09219
G1 X99.606 Y102.803 E2.09461
G1 X99.612 Y102.450 E2.10429
G1 X99.682 Y101.949 E2.11817
G1 X99.840 Y101.336 E2.13554
G1 X100.005 Y101.034 E2.14499
G0 F9000 X99.277 Y101.116
;TYPE:WALL-OUTER
G1 F1200 X99.536 Y100.648 E2.15967
G1 X99.936 Y100.298 E2.17425
G1 X100.451 Y100.063 E2.18978
G1 X101.318 Y99.902 E2.21398
G1 X101.884 Y99.848 E2.22958
G1 X101.909 Y99.845 E2.23027
G1 X102.573 Y99.892 E2.24854
G1 X102.640 Y99.896 E2.25038
G1 X103.554 Y100.035 E2.27575
G1 X104.488 Y100.286 E2.30229
G1 X104.622 Y100.326 E2.30613
G1 X105.303 Y100.758 E2.32825
G1 X105.420 Y100.828 E2.33200
G1 X105.817 Y101.436 E2.35192
G1 X105.906 Y102.085 E2.36990
G1 X105.939 Y102.921 E2.39285
G1 X105.813 Y103.483 E2.40866
G1 X105.798 Y103.567 E2.41100
G1 X105.384 Y104.175 E2.43118
G1 X104.564 Y104.654 E2.45724
G1 X103.513 Y104.976 E2.48741
G1 X102.689 Y105.109 E2.51031
G1 X101.903 Y105.145 E2.53190
G1 X101.269 Y105.084 E2.54938
G1 X100.603 Y104.965 E2.56794
G1 X100.435 Y104.938 E2.57261
G1 X99.899 Y104.719 E2.58850
G1 X99.494 Y104.375 E2.60308
G1 X99.223 Y103.916 E2.61771
G1 X99.072 Y103.424 E2.63183
G1 X99.011 Y102.941 E2.64519
G1 X99.006 Y102.792 E2.64928
G1 X99.013 Y102.406 E2.65987
G1 X99.093 Y101.830 E2.67583
G1 X99.277 Y101.116 E2.69606
G0 F9000 X99.885 Y102.007
;TYPE:SKIN
G1 F1200 X102.200 Y104.321 E2.78588
G0 F9000 X102.970 Y104.243
G1 F1200 X100.073 Y101.346 E2.89830
G0 F9000 X100.505 Y100.929
G1 F1200 X103.658 Y104.082 E3.02066
G0 F9000 X104.295 Y103.871
G1 F1200 X101.177 Y100.752 E3.14167
G0 F9000 X101.933 Y100.660
G1 F1200 X104.826 Y103.553 E3.25394
G0 F9000 X105.096 Y102.975
G1 F1200 X102.872 Y100.751 E3.34025
G0 F9000 X103.951 Y100.981
G1 F1200 X105.093 Y102.123 E3.38456
G0 F9000 X101.295 Y104.265
G1 F1200 X99.815 Y102.785 E3.44200
;LAYER:1
M106 S127
G0 F9000 X99.111 Y102.491 Z0.400
;TYPE:WALL-INNER
G1 F1200 X99.110 Y102.428 E3.44238
G1 X99.185 Y101.901 E3.44563
G1 X99.384 Y101.185 E3.45016
G1 X99.611 Y100.774 E3.45302
G1 X99.964 Y100.463 E3.45589
G1 X100.436 Y100.251 E3.45904
G1 X101.277 Y100.100 E3.46425
G1 X101.900 Y100.049 E3.46807
G1 X102.644 Y100.092 E3.47261
G1 X103.574 Y100.227 E3.47834
G1 X104.353 Y100.438 E3.48326
G1 X104.630 Y100.510 E3.48501
G1 X105.208 Y100.871 E3.48916
G1 X105.325 Y100.958 E3.49005
G1 X105.686 Y101.520 E3.49413
G1 X105.787 Y102.117 E3.49782
G1 X105.805 Y102.759 E3.50173
G1 X105.807 Y102.891 E3.50254
G1 X105.695 Y103.392 E3.50567
G1 X105.678 Y103.462 E3.50611
G1 X105.345 Y103.961 E3.50977
G1 X105.305 Y104.024 E3.51022
G1 X104.567 Y104.475 E3.51550
G1 X103.530 Y104.781 E3.52209
G1 X102.922 Y104.874 E3.52584
G1 X102.623 Y104.917 E3.52768
G1 X101.898 Y104.941 E3.53210
G1 X101.222 Y104.881 E3.53624
G1 X100.563 Y104.768 E3.54032
G1 X100.428 Y104.742 E3.54116
G1 X99.928 Y104.544 E3.54444
G1 X99.579 Y104.244 E3.54724
G1 X99.318 Y103.821 E3.55027
G1 X99.168 Y103.372 E3.55316
G1 X99.106 Y102.940 E3.55582
G1 X99.111 Y102.491 E3.55856
G0 F9000 X98.711 Y102.491
;TYPE:WALL-OUTER
G1 F1200 X98.710 Y102.398 E3.55913
G1 X98.779 Y101.895 E3.56222
G1 X99.011 Y101.033 E3.56767
G1 X99.259 Y100.583 E3.57080
G1 X99.300 Y100.514 E3.57129
G1 X99.746 Y100.122 E3.57491
G1 X100.205 Y99.919 E3.57797
G1 X100.309 Y99.867 E3.57868
G1 X101.225 Y99.703 E3.58435
G1 X101.890 Y99.648 E3.58842
G1 X102.690 Y99.695 E3.59331
G1 X103.652 Y99.835 E3.59924
G1 X104.455 Y100.051 E3.60431
G1 X104.790 Y100.138 E3.60642
G1 X105.435 Y100.541 E3.61106
G1 X105.623 Y100.681 E3.61249
G1 X106.068 Y101.373 E3.61750
G1 X106.186 Y102.074 E3.62184
G1 X106.205 Y102.753 E3.62598
G1 X106.208 Y102.935 E3.62709
G1 X106.087 Y103.474 E3.63046
G1 X106.047 Y103.629 E3.63143
G1 X105.680 Y104.179 E3.63547
G1 X105.593 Y104.316 E3.63646
G1 X104.730 Y104.845 E3.64263
G1 X103.621 Y105.171 E3.64968
G1 X102.978 Y105.270 E3.65364
G1 X102.657 Y105.316 E3.65562
G1 X101.880 Y105.342 E3.66036
G1 X101.181 Y105.280 E3.66464
G1 X100.483 Y105.160 E3.66896
G1 X100.317 Y105.128 E3.66999
G1 X99.718 Y104.891 E3.67392
G1 X99.268 Y104.502 E3.67755
G1 X98.955 Y103.995 E3.68118
G1 X98.777 Y103.463 E3.68460
G1 X98.706 Y102.967 E3.68766
G1 X98.711 Y102.491 E3.69056
G0 F9000 X99.253 Y102.413
;TYPE:SKIN
G1 F1200 X101.440 Y100.226 E3.70942
G0 F9000 X102.034 Y100.197
G1 F1200 X99.253 Y102.979 E3.73340
G0 F9000 X99.343 Y103.454
G1 F1200 X102.570 Y100.228 E3.76123
G0 F9000 X103.068 Y100.295
G1 F1200 X99.505 Y103.858 E3.79195
G0 F9000 X99.735 Y104.194
G1 F1200 X103.561 Y100.368 E3.82495
G0 F9000 X104.007 Y100.487
G1 F1200 X100.052 Y104.442 E3.85905
G0 F9000 X100.457 Y104.603
G1 F1200 X104.453 Y100.607 E3.89351
G0 F9000 X104.827 Y100.798
G1 F1200 X100.936 Y104.689 E3.92707
G0 F9000 X101.433 Y104.759
G1 F1200 X105.173 Y101.018 E3.95933
G0 F9000 X105.408 Y101.349
G1 F1200 X101.959 Y104.798 E3.98907
G0 F9000 X102.544 Y104.779
G1 F1200 X105.580 Y101.742 E4.01525
G0 F9000 X105.649 Y102.239
G1 F1200 X103.200 Y104.688 E4.03637
G0 F9000 X103.942 Y104.512
G1 F1200 X105.662 Y102.792 E4.05121
G0 F9000 X105.409 Y103.610
G1 F1200 X104.936 Y104.083 E4.05529
G0 F9000 X100.768 Y100.332
G1 F1200 X99.381 Y101.720 E4.06725
;LAYER:2
M106 S255
G0 F9000 X99.022 Y101.897 Z0.500
;TYPE:WALL-INNER
G1 F1320 X99.247 Y101.168 E4.07190
G1 X99.500 Y100.718 E4.07505
G1 X99.870 Y100.390 E4.07807
G1 X100.333 Y100.171 E4.08119
G1 X100.903 Y100.072 E4.08472
G1 X101.191 Y100.019 E4.08650
G1 X101.792 Y99.972 E4.09018
G1 X101.894 Y99.962 E4.09080
G1 X102.544 Y99.994 E4.09477
G1 X103.642 Y100.141 E4.10153
G1 X104.728 Y100.424 E4.10837
G1 X105.429 Y100.919 E4.11360
G1 X105.804 Y101.506 E4.11785
G1 X105.917 Y102.117 E4.12164
G1 X105.933 Y102.894 E4.12638
G1 X105.789 Y103.489 E4.13011
G1 X105.406 Y104.085 E4.13443
G1 X104.913 Y104.423 E4.13808
G1 X104.691 Y104.554 E4.13965
G1 X103.926 Y104.764 E4.14449
G1 X103.608 Y104.861 E4.14651
G1 X102.658 Y105.001 E4.15237
G1 X101.877 Y105.023 E4.15713
G1 X101.150 Y104.958 E4.16158
G1 X100.344 Y104.810 E4.16658
G1 X99.832 Y104.608 E4.16994
G1 X99.459 Y104.282 E4.17296
G1 X99.188 Y103.853 E4.17605
G1 X99.006 Y103.370 E4.17920
G1 X98.942 Y102.947 E4.18181
G1 X98.944 Y102.735 E4.18310
G1 X98.938 Y102.432 E4.18495
G1 X99.022 Y101.897 E4.18825
G0 F9000 X98.631 Y101.807
;TYPE:WALL-OUTER
G1 F1320 X98.879 Y101.005 E4.19337
G1 X99.182 Y100.466 E4.19714
G1 X99.647 Y100.054 E4.20093
G1 X100.213 Y99.786 E4.20475
G1 X100.832 Y99.678 E4.20858
G1 X101.145 Y99.621 E4.21052
G1 X101.758 Y99.573 E4.21427
G1 X101.882 Y99.562 E4.21503
G1 X102.569 Y99.595 E4.21922
G1 X102.724 Y99.605 E4.22017
G1 X103.720 Y99.748 E4.22630
G1 X104.901 Y100.055 E4.23375
G1 X105.724 Y100.637 E4.23989
G1 X106.006 Y101.082 E4.24310
G1 X106.182 Y101.355 E4.24509
G1 X106.316 Y102.079 E4.24957
G1 X106.334 Y102.938 E4.25481
G1 X106.162 Y103.651 E4.25929
G1 X105.700 Y104.368 E4.26449
G1 X105.124 Y104.763 E4.26875
G1 X104.849 Y104.926 E4.27070
G1 X104.037 Y105.149 E4.27583
G1 X103.695 Y105.253 E4.27801
G1 X102.694 Y105.400 E4.28418
G1 X101.861 Y105.424 E4.28926
G1 X101.108 Y105.356 E4.29387
G1 X100.231 Y105.195 E4.29931
G1 X99.622 Y104.955 E4.30330
G1 X99.153 Y104.545 E4.30710
G1 X98.822 Y104.021 E4.31088
G1 X98.619 Y103.478 E4.31441
G1 X98.542 Y102.972 E4.31753
G1 X98.544 Y102.738 E4.31896
G1 X98.537 Y102.406 E4.32099
G1 X98.631 Y101.807 E4.32468
G0 F9000 X99.210 Y101.756
;TYPE:SKIN
G1 F1320 X102.323 Y104.868 E4.35152
G0 F9000 X102.849 Y104.829
G1 F1320 X99.344 Y101.324 E4.38175
G0 F9000 X99.530 Y100.945
G1 F1320 X103.342 Y104.757 E4.41462
G0 F9000 X103.805 Y104.653
G1 F1320 X99.795 Y100.643 E4.44920
G0 F9000 X99.111 Y102.222
G1 F1320 X101.760 Y104.871 E4.47205
G0 F9000 X101.135 Y104.812
G1 F1320 X99.083 Y102.760 E4.48974
G0 F9000 X99.173 Y103.415
G1 F1320 X100.442 Y104.685 E4.50069
G0 F9000 X104.247 Y104.530
G1 F1320 X100.136 Y100.419 E4.53614
G0 F9000 X100.556 Y100.274
G1 F1320 X104.680 Y104.397 E4.57170
G0 F9000 X105.024 Y104.175
G1 F1320 X101.037 Y100.189 E4.60608
G0 F9000 X101.545 Y100.131
G1 F1320 X105.341 Y103.927 E4.63882
G0 F9000 X105.562 Y103.582
G1 F1320 X102.092 Y100.112 E4.66874
G0 F9000 X102.702 Y100.156
G1 F1320 X105.721 Y103.176 E4.69478
G0 F9000 X105.788 Y102.676
G1 F1320 X103.355 Y100.244 E4.71576
G0 F9000 X104.076 Y100.399
G1 F1320 X105.769 Y102.092 E4.73036
G0 F9000 X105.437 Y101.194
G1 F1320 X105.101 Y100.858 E4.73325
;LAYER:3
G0 F9000 X105.345 Y100.731 Z0.600
;TYPE:WALL-INNER
G1 F1380 X105.528 Y100.866 E4.73464
G1 X105.920 Y101.489 E4.73913
G1 X106.040 Y102.083 E4.74282
G1 X106.061 Y102.894 E4.74777
G1 X105.905 Y103.514 E4.75167
G1 X105.515 Y104.132 E4.75613
G1 X104.769 Y104.634 E4.76161
G1 X103.770 Y104.908 E4.76792
G1 X102.688 Y105.074 E4.77460
G1 X101.970 Y105.094 E4.77898
G1 X101.855 Y105.094 E4.77968
G1 X101.086 Y105.035 E4.78438
G1 X100.265 Y104.880 E4.78948
G1 X99.731 Y104.669 E4.79298
G1 X99.347 Y104.330 E4.79610
G1 X99.059 Y103.887 E4.79933
G1 X98.861 Y103.417 E4.80244
G1 X98.849 Y103.389 E4.80262
G1 X98.777 Y102.948 E4.80535
G1 X98.766 Y102.439 E4.80845
G1 X98.856 Y101.910 E4.81172
G1 X99.114 Y101.164 E4.81654
G1 X99.125 Y101.119 E4.81682
G1 X99.381 Y100.672 E4.81996
G1 X99.771 Y100.320 E4.82316
G1 X100.235 Y100.091 E4.82632
G1 X101.056 Y99.956 E4.83139
G1 X101.872 Y99.895 E4.83638
G1 X102.705 Y99.931 E4.84147
G1 X103.581 Y100.049 E4.84686
G1 X104.813 Y100.350 E4.85459
G1 X105.345 Y100.731 E4.85858
G0 F9000 X105.582 Y100.409
;TYPE:WALL-OUTER
G1 F1380 X105.827 Y100.590 E4.86044
G1 X106.296 Y101.335 E4.86580
G1 X106.439 Y102.039 E4.87019
G1 X106.462 Y102.938 E4.87567
G1 X106.278 Y103.672 E4.88028
G1 X105.808 Y104.417 E4.88565
G1 X104.970 Y104.980 E4.89181
G1 X104.942 Y105.001 E4.89202
G1 X103.859 Y105.299 E4.89887
G1 X102.721 Y105.473 E4.90589
G1 X101.981 Y105.494 E4.91041
G1 X101.837 Y105.494 E4.91129
G1 X101.036 Y105.432 E4.91618
G1 X100.153 Y105.266 E4.92166
G1 X99.519 Y105.015 E4.92582
G1 X99.041 Y104.592 E4.92971
G1 X98.703 Y104.073 E4.93349
G1 X98.492 Y103.572 E4.93681
G1 X98.461 Y103.497 E4.93730
G1 X98.378 Y102.986 E4.94046
G1 X98.365 Y102.406 E4.94399
G1 X98.466 Y101.813 E4.94766
G1 X98.730 Y101.050 E4.95259
G1 X98.750 Y100.969 E4.95309
G1 X99.066 Y100.418 E4.95697
G1 X99.546 Y99.985 E4.96091
G1 X100.111 Y99.706 E4.96475
G1 X101.007 Y99.558 E4.97029
G1 X101.860 Y99.494 E4.97551
G1 X102.753 Y99.534 E4.98096
G1 X103.655 Y99.655 E4.98651
G1 X104.994 Y99.982 E4.99491
G1 X105.582 Y100.409 E4.99934
G0 F9000 X105.310 Y100.881
;TYPE:SKIN
G1 F1380 X101.282 Y104.909 E5.03408
G0 F9000 X100.790 Y104.836
G1 F1380 X104.982 Y100.643 E5.07023
G0 F9000 X104.615 Y100.445
G1 F1380 X100.315 Y104.745 E5.10731
G0 F9000 X99.907 Y104.588
G1 F1380 X104.161 Y100.334 E5.14400
G0 F9000 X103.706 Y100.223
G1 F1380 X99.580 Y104.349 E5.17958
G0 F9000 X99.325 Y104.038
G1 F1380 X103.222 Y100.141 E5.21319
G0 F9000 X102.724 Y100.073
G1 F1380 X99.122 Y103.675 E5.24425
G0 F9000 X98.970 Y103.262
G1 F1380 X102.184 Y100.048 E5.27197
G0 F9000 X101.613 Y100.053
G1 F1380 X98.912 Y102.753 E5.29525
G0 F9000 X98.958 Y102.142
G1 F1380 X100.994 Y100.106 E5.31281
G0 F9000 X100.317 Y100.217
G1 F1380 X99.203 Y101.331 E5.32242
G0 F9000 X101.807 Y104.950
G1 F1380 X105.566 Y101.191 E5.35483
G0 F9000 X105.785 Y101.538
G1 F1380 X102.381 Y104.942 E5.38419
G0 F9000 X103.006 Y104.883
G1 F1380 X105.880 Y102.008 E5.40898
G0 F9000 X105.910 Y102.544
G1 F1380 X103.674 Y104.780 E5.42826
G0 F9000 X104.443 Y104.577
G1 F1380 X105.845 Y103.175 E5.44035
;LAYER:4
G0 F9000 X106.145 Y102.715 Z0.700
;TYPE:WALL-INNER
G1 F1440 X106.145 Y102.885 E5.44139
G1 X105.982 Y103.529 E5.44544
G1 X105.585 Y104.162 E5.44999
G1 X105.053 Y104.513 E5.45388
G1 X104.839 Y104.675 E5.45552
G1 X104.189 Y104.854 E5.45963
G1 X103.729 Y104.983 E5.46254
G1 X103.181 Y105.066 E5.46592
G1 X102.709 Y105.133 E5.46883
G1 X101.828 Y105.147 E5.47420
G1 X101.000 Y105.069 E5.47927
G1 X100.185 Y104.922 E5.48432
G1 X99.706 Y104.735 E5.48746
G1 X99.652 Y104.712 E5.48782
G1 X99.253 Y104.362 E5.49105
G1 X98.939 Y103.871 E5.49461
G1 X98.741 Y103.397 E5.49774
G1 X98.666 Y102.943 E5.50054
G1 X98.653 Y102.427 E5.50369
G1 X98.732 Y101.900 E5.50694
G1 X98.927 Y101.318 E5.51068
G1 X99.292 Y100.632 E5.51542
G1 X99.684 Y100.281 E5.51863
G1 X100.162 Y100.053 E5.52186
G1 X100.750 Y99.957 E5.52549
G1 X101.030 Y99.905 E5.52723
G1 X101.842 Y99.847 E5.53219
G1 X102.394 Y99.863 E5.53556
G1 X102.733 Y99.879 E5.53763
G1 X103.764 Y100.020 E5.54398
G1 X104.278 Y100.149 E5.54721
G1 X104.887 Y100.304 E5.55104
G1 X105.083 Y100.472 E5.55261
G1 X105.599 Y100.841 E5.55648
G1 X105.912 Y101.340 E5.56007
G1 X105.995 Y101.472 E5.56102
G1 X106.099 Y101.973 E5.56414
G1 X106.135 Y102.131 E5.56513
G1 X106.145 Y102.715 E5.56869
G0 F9000 X106.545 Y102.715
;TYPE:WALL-OUTER
G1 F1440 X106.545 Y102.936 E5.57004
G1 X106.354 Y103.689 E5.57478
G1 X105.879 Y104.446 E5.58023
G1 X105.284 Y104.840 E5.58458
G1 X105.019 Y105.041 E5.58661
G1 X104.296 Y105.239 E5.59118
G1 X103.816 Y105.374 E5.59422
G1 X103.235 Y105.462 E5.59780
G1 X102.739 Y105.532 E5.60086
G1 X101.816 Y105.547 E5.60649
G1 X100.950 Y105.466 E5.61179
G1 X100.071 Y105.307 E5.61724
G1 X99.551 Y105.104 E5.62064
G1 X99.438 Y105.056 E5.62139
G1 X98.945 Y104.624 E5.62539
G1 X98.675 Y104.198 E5.62846
G1 X98.584 Y104.059 E5.62948
G1 X98.353 Y103.508 E5.63312
G1 X98.267 Y102.982 E5.63637
G1 X98.252 Y102.407 E5.63988
G1 X98.342 Y101.804 E5.64359
G1 X98.559 Y101.158 E5.64775
G1 X98.972 Y100.381 E5.65312
G1 X99.458 Y99.946 E5.65709
G1 X100.043 Y99.667 E5.66104
G1 X100.681 Y99.563 E5.66499
G1 X100.982 Y99.508 E5.66685
G1 X101.834 Y99.446 E5.67206
G1 X102.402 Y99.463 E5.67553
G1 X102.772 Y99.481 E5.67779
G1 X103.844 Y99.627 E5.68438
G1 X105.077 Y99.940 E5.69214
G1 X105.330 Y100.157 E5.69417
G1 X105.897 Y100.563 E5.69842
G1 X106.372 Y101.320 E5.70387
G1 X106.490 Y101.888 E5.70741
G1 X106.534 Y102.082 E5.70862
