;Generated with Cura_SteamEngine DEV
M109 S210     ;Heatup to 210C
G21           ;metric values
G90           ;absolute positioning
G28           ;Home
G1 Z15.0 F300 ;move the platform down 15mm
G92 E0        ;zero the extruded length
G1 F200 E5    ;extrude 5mm of feed stock
G92 E0        ;zero the extruded length again

;Layer count: 167
;LAYER:0
M107
G0 F9000 X97.190 Y85.716 Z0.300
;TYPE:SKIRT
G1 F1200 X99.199 Y88.616 E0.09681
G1 X100.874 Y86.829 E0.16402
G1 X102.504 Y90.426 E0.27238
G1 X104.160 Y86.784 E0.38216
G1 X105.849 Y88.607 E0.45036
G1 X107.863 Y85.731 E0.54670
G1 X111.437 Y92.676 E0.76103
G1 X111.881 Y92.772 E0.77349
G1 X113.303 Y95.953 E0.86910
G1 X115.108 Y99.170 E0.97032
G1 X113.509 Y102.073 E1.06127
G1 X113.810 Y102.183 E1.07006
G1 X113.837 Y107.275 E1.20979
G1 X113.772 Y108.718 E1.24942
G1 X113.401 Y110.075 E1.28803
G1 X112.073 Y113.461 E1.38783
G1 X109.298 Y114.430 E1.46849
G1 X107.232 Y115.460 E1.53183
G1 X104.329 Y114.806 E1.61349
G1 X102.510 Y114.352 E1.66493
G1 X100.672 Y114.805 E1.71688
G1 X97.765 Y115.469 E1.79870
G1 X95.708 Y114.433 E1.86190
G1 X92.918 Y113.476 E1.94283
G1 X91.603 Y110.077 E2.04284
G1 X91.225 Y108.725 E2.08136
G1 X91.165 Y107.276 E2.12116
G1 X91.174 Y102.190 E2.26072
G1 X91.489 Y102.074 E2.26993
G1 X89.882 Y99.187 E2.36059
G1 X91.696 Y95.954 E2.46232
G1 X93.105 Y92.803 E2.55703
G1 X93.562 Y92.700 E2.56989
G1 X97.190 Y85.716 E2.78585
G1 F2700 E-1.71415
G0 F9000 X98.410 Y98.987
;TYPE:WALL-INNER
G1 F2700 E2.78585
G1 F1200 X98.415 Y98.978 E2.78613
G1 X98.488 Y99.009 E2.78830
G1 X98.501 Y99.038 E2.78918
G1 X98.728 Y99.152 E2.79615
G1 X98.820 Y99.325 E2.80152
G1 X98.426 Y99.471 E2.81305
G1 X98.160 Y99.291 E2.82187
G1 X98.126 Y99.209 E2.82430
G1 X98.207 Y99.033 E2.82962
G1 X98.410 Y98.987 E2.83533
G0 F9000 X98.006 Y98.463
;TYPE:WALL-OUTER
G1 F1200 X98.011 Y98.454 E2.83561
G1 X98.496 Y98.344 E2.84926
G1 X98.927 Y98.558 E2.86246
G1 X98.937 Y98.547 E2.86287
G1 X98.960 Y98.597 E2.86438
G1 X99.168 Y98.702 E2.87078
G1 X99.499 Y99.323 E2.89009
G1 X99.386 Y99.731 E2.90170
G1 X98.377 Y100.130 E2.93148
G1 X98.035 Y99.941 E2.94220
G1 X97.671 Y99.677 E2.95454
G1 X97.560 Y99.411 E2.96245
G1 X97.443 Y99.200 E2.96907
G1 X97.601 Y98.917 E2.97796
G1 X97.781 Y98.514 E2.99007
G1 X98.006 Y98.463 E2.99640
G0 F9000 X98.629 Y99.014
G1 F2700 E-1.50360
G0 F9000 X106.497 Y99.040
;TYPE:WALL-INNER
G1 F2700 E2.99640
G1 F1200 X106.510 Y99.011 E2.99727
G1 X106.579 Y98.976 E2.99940
G1 X106.589 Y98.991 E2.99989
G1 X106.794 Y99.036 E3.00565
G1 X106.874 Y99.209 E3.01088
G1 X106.841 Y99.289 E3.01326
G1 X106.641 Y99.434 E3.02003
G1 X106.573 Y99.471 E3.02216
G1 X106.174 Y99.322 E3.03385
G1 X106.264 Y99.157 E3.03900
G1 X106.497 Y99.040 E3.04616
G0 F9000 X106.039 Y98.599
;TYPE:WALL-OUTER
G1 F1200 X106.061 Y98.550 E3.04763
G1 X106.072 Y98.561 E3.04806
G1 X106.499 Y98.345 E3.06119
G1 X106.986 Y98.451 E3.07487
G1 X106.993 Y98.465 E3.07530
G1 X107.218 Y98.514 E3.08161
G1 X107.398 Y98.916 E3.09370
G1 X107.557 Y99.199 E3.10261
G1 X107.329 Y99.675 E3.11709
G1 X106.961 Y99.943 E3.12958
G1 X106.624 Y100.129 E3.14014
G1 X105.966 Y99.887 E3.15938
G1 X105.615 Y99.731 E3.16992
G1 X105.501 Y99.319 E3.18165
G1 X105.829 Y98.703 E3.20080
G1 X106.039 Y98.599 E3.20723
G0 F9000 X106.748 Y99.002
G1 F2700 E-1.29277
G0 F9000 X106.376 Y107.140
;TYPE:WALL-INNER
G1 F2700 E3.20723
G1 F1200 X106.632 Y107.232 E3.21470
G1 X106.616 Y107.592 E3.22459
G1 X106.571 Y107.756 E3.22925
G1 X106.313 Y107.872 E3.23701
G1 X105.931 Y107.785 E3.24776
G1 X105.919 Y107.658 E3.25127
G1 X106.038 Y107.247 E3.26301
G1 X106.376 Y107.140 E3.27273
G0 F9000 X106.421 Y106.518
;TYPE:WALL-OUTER
G1 F1200 X107.051 Y106.746 E3.29112
G1 X107.068 Y106.725 E3.29186
G1 X107.077 Y106.741 E3.29236
G1 X107.234 Y106.799 E3.29696
G1 X107.236 Y107.138 E3.30626
G1 X107.211 Y107.689 E3.32139
G1 X107.035 Y108.229 E3.33698
G1 X106.726 Y108.337 E3.34596
G1 X106.391 Y108.505 E3.35625
G1 X105.851 Y108.383 E3.37144
G1 X105.392 Y108.269 E3.38441
G1 X105.354 Y108.058 E3.39030
G1 X105.311 Y107.604 E3.40281
G1 X105.455 Y107.093 E3.41738
G1 X105.603 Y106.694 E3.42906
G1 X105.809 Y106.629 E3.43498
G1 X105.840 Y106.680 E3.43662
G1 X106.410 Y106.499 E3.45303
G1 X106.421 Y106.518 E3.45363
G0 F9000 X106.436 Y107.668
G1 F2700 E-1.04637
G0 F9000 X99.081 Y107.659
;TYPE:WALL-INNER
G1 F2700 E3.45363
G1 F1200 X99.069 Y107.784 E3.45708
G1 X98.689 Y107.873 E3.46779
G1 X98.430 Y107.755 E3.47560
G1 X98.384 Y107.591 E3.48027
G1 X98.369 Y107.233 E3.49011
G1 X98.628 Y107.140 E3.49766
G1 X98.961 Y107.246 E3.50725
G1 X98.972 Y107.274 E3.50807
G1 X99.081 Y107.659 E3.51905
G0 F9000 X98.578 Y106.520
;TYPE:WALL-OUTER
G1 F1200 X98.590 Y106.499 E3.51972
G1 X99.158 Y106.679 E3.53606
G1 X99.190 Y106.627 E3.53774
G1 X99.397 Y106.693 E3.54370
G1 X99.542 Y107.087 E3.55522
G1 X99.689 Y107.605 E3.57000
G1 X99.645 Y108.050 E3.58227
G1 X99.607 Y108.270 E3.58839
G1 X98.612 Y108.506 E3.61646
G1 X98.275 Y108.336 E3.62681
G1 X97.965 Y108.229 E3.63581
G1 X97.873 Y107.994 E3.64274
G1 X97.788 Y107.687 E3.65148
G1 X97.765 Y107.140 E3.66650
G1 X97.766 Y106.799 E3.67586
G1 X97.921 Y106.742 E3.68039
G1 X97.930 Y106.726 E3.68089
G1 X97.947 Y106.747 E3.68163
G1 X98.578 Y106.520 E3.70004
G0 F9000 X98.564 Y107.669
;LAYER:1
M106 S127
G1 F2700 E-0.79996
G0 F9000 X98.701 Y99.774 Z0.400
;TYPE:WALL-INNER
G1 F2700 E3.70004
G1 F660 X98.400 Y99.886 E3.70199
G1 X98.002 Y99.665 E3.70477
G1 X97.856 Y99.559 E3.70587
G1 X97.720 Y99.236 E3.70801
G1 X97.952 Y98.798 E3.71103
G1 X98.258 Y98.729 E3.71294
G1 X98.455 Y98.680 E3.71418
G1 X98.661 Y98.783 E3.71558
G1 X98.670 Y98.803 E3.71572
G1 X98.972 Y98.955 E3.71778
G1 X99.205 Y99.380 E3.72074
G1 X99.150 Y99.577 E3.72198
G1 X98.701 Y99.774 E3.72497
G0 F9000 X98.976 Y98.509
;TYPE:WALL-OUTER
G1 F660 X99.262 Y98.653 E3.72692
G1 X99.514 Y99.107 E3.73009
G1 X99.634 Y99.336 E3.73167
G1 X99.484 Y99.867 E3.73503
G1 X98.840 Y100.150 E3.73932
G1 X98.368 Y100.324 E3.74239
G1 X97.783 Y100.001 E3.74646
G1 X97.531 Y99.818 E3.74836
G1 X97.349 Y99.384 E3.75123
G1 X97.264 Y99.233 E3.75229
G1 X97.541 Y98.738 E3.75575
G1 X97.669 Y98.452 E3.75766
G1 X97.990 Y98.380 E3.75967
G1 X98.506 Y98.258 E3.76290
G1 X98.943 Y98.476 E3.76588
G1 X98.955 Y98.463 E3.76598
G1 X98.976 Y98.509 E3.76629
G0 F9000 X98.722 Y98.985
;TYPE:SKIN
G1 F660 X98.130 Y99.576 E3.77139
G0 F9000 X97.882 Y99.258
G1 F660 X98.273 Y98.867 E3.77477
G0 F9000 X98.991 Y99.281
G1 F660 X98.616 Y99.656 E3.77800
G0 F9000 X106.942 Y99.533
;TYPE:FILL
G1 F660 X107.043 Y99.431 E3.77887
G0 F9000 X106.740 Y98.732
;TYPE:WALL-INNER
G1 F660 X107.048 Y98.800 E3.78080
G1 X107.279 Y99.236 E3.78381
G1 X107.143 Y99.559 E3.78594
G1 X107.002 Y99.663 E3.78701
G1 X106.599 Y99.886 E3.78982
G1 X105.851 Y99.576 E3.79476
G1 X105.798 Y99.386 E3.79596
G1 X106.032 Y98.953 E3.79896
G1 X106.328 Y98.804 E3.80098
G1 X106.337 Y98.784 E3.80112
G1 X106.543 Y98.680 E3.80252
G1 X106.735 Y98.722 E3.80372
G1 X106.740 Y98.732 E3.80379
G0 F9000 X107.009 Y98.381
;TYPE:WALL-OUTER
G1 F660 X107.330 Y98.451 E3.80579
G1 X107.458 Y98.737 E3.80770
G1 X107.735 Y99.233 E3.81117
G1 X107.652 Y99.384 E3.81222
G1 X107.469 Y99.817 E3.81509
G1 X107.219 Y99.999 E3.81697
G1 X106.632 Y100.324 E3.82106
G1 X105.517 Y99.866 E3.82841
G1 X105.368 Y99.338 E3.83176
G1 X105.739 Y98.653 E3.83651
G1 X106.023 Y98.510 E3.83845
G1 X106.044 Y98.465 E3.83875
G1 X106.056 Y98.478 E3.83886
G1 X106.489 Y98.260 E3.84181
G1 X107.004 Y98.371 E3.84503
G1 X107.009 Y98.381 E3.84510
G0 F9000 X106.749 Y98.876
;TYPE:SKIN
G1 F660 X106.099 Y99.527 E3.85070
G0 F9000 X106.499 Y99.692
G1 F660 X107.062 Y99.130 E3.85556
G1 F2700 E-0.64444
G0 F9000 X106.392 Y106.808
;TYPE:WALL-INNER
G1 F2700 E3.85556
G1 F660 X106.977 Y107.018 E3.85935
G1 X106.947 Y107.689 E3.86344
G1 X106.909 Y107.830 E3.86433
G1 X106.813 Y108.073 E3.86593
G1 X106.762 Y108.091 E3.86625
G1 X106.343 Y108.300 E3.86911
G1 X105.613 Y108.123 E3.87369
G1 X105.570 Y107.673 E3.87645
G1 X105.640 Y107.420 E3.87805
G1 X105.797 Y106.998 E3.88079
G1 X106.392 Y106.808 E3.88460
G0 F9000 X106.418 Y106.392
;TYPE:WALL-OUTER
G1 F660 X107.079 Y106.630 E3.88889
G1 X107.089 Y106.618 E3.88898
G1 X107.378 Y106.730 E3.89087
G1 X107.379 Y106.959 E3.89227
G1 X107.344 Y107.753 E3.89711
G1 X107.290 Y107.953 E3.89838
G1 X107.119 Y108.389 E3.90123
G1 X106.919 Y108.460 E3.90253
G1 X106.391 Y108.723 E3.90612
G1 X105.255 Y108.449 E3.91325
G1 X105.165 Y107.636 E3.91824
G1 X105.260 Y107.296 E3.92039
G1 X105.508 Y106.628 E3.92474
G1 X105.808 Y106.532 E3.92666
G1 X105.830 Y106.568 E3.92691
G1 X106.412 Y106.381 E3.93064
G1 X106.418 Y106.392 E3.93072
G0 F9000 X106.538 Y107.007
;TYPE:SKIN
G1 F660 X105.725 Y107.821 E3.93773
G0 F9000 X106.031 Y108.080
G1 F660 X106.824 Y107.287 E3.94457
G0 F9000 X99.281 Y107.766
;TYPE:FILL
G1 F660 X98.507 Y106.992 E3.95125
G0 F9000 X99.161 Y107.313
G1 F660 X98.437 Y108.038 E3.95749
G0 F9000 X98.862 Y108.255
;TYPE:WALL-INNER
G1 F660 X98.661 Y108.302 E3.95875
G1 X98.186 Y108.072 E3.96197
G1 X98.052 Y107.686 E3.96446
G1 X98.024 Y107.018 E3.96854
G1 X98.610 Y106.807 E3.97234
G1 X99.202 Y106.997 E3.97613
G1 X99.431 Y107.672 E3.98047
G1 X99.386 Y108.126 E3.98326
G1 X98.862 Y108.255 E3.98655
G0 F9000 X98.082 Y108.458
;TYPE:WALL-OUTER
G1 F660 X97.881 Y108.389 E3.98784
G1 X97.655 Y107.751 E3.99197
G1 X97.622 Y106.969 E3.99674
G1 X97.622 Y106.731 E3.99819
G1 X97.906 Y106.627 E4.00004
G1 X97.919 Y106.631 E4.00012
G1 X98.581 Y106.393 E4.00441
G1 X98.588 Y106.380 E4.00450
G1 X99.168 Y106.566 E4.00822
G1 X99.190 Y106.531 E4.00847
G1 X99.492 Y106.628 E4.01040
G1 X99.742 Y107.303 E4.01479
G1 X99.836 Y107.635 E4.01690
G1 X99.770 Y108.308 E4.02102
G1 X99.745 Y108.450 E4.02190
G1 X98.961 Y108.643 E4.02682
G1 X98.612 Y108.724 E4.02901
G1 X98.082 Y108.458 E4.03262
G0 F9000 X98.279 Y107.912
;TYPE:SKIN
G1 F660 X99.086 Y107.105 E4.03958
G0 F9000 X99.233 Y107.524
G1 F660 X98.627 Y108.130 E4.04481
G0 F9000 X98.182 Y107.444
G1 F660 X98.658 Y106.968 E4.04891
;LAYER:2
M106 S255
G1 F2700 E-0.45109
G0 F9000 X98.442 Y99.957 Z0.500
;TYPE:WALL-INNER
G1 F2700 E4.04891
G1 F720 X98.401 Y99.972 E4.04918
G1 X97.808 Y99.644 E4.05331
G1 X97.796 Y99.635 E4.05340
G1 X97.649 Y99.282 E4.05573
G1 X97.906 Y98.824 E4.05894
G1 X98.311 Y98.734 E4.06147
G1 X98.451 Y98.700 E4.06234
G1 X98.607 Y98.778 E4.06341
G1 X98.612 Y98.788 E4.06348
G1 X98.992 Y98.980 E4.06607
G1 X99.229 Y99.407 E4.06905
G1 X99.161 Y99.641 E4.07054
G1 X98.442 Y99.957 E4.07533
G0 F9000 X98.591 Y100.328
;TYPE:WALL-OUTER
G1 F720 X98.369 Y100.411 E4.07677
G1 X97.590 Y99.980 E4.08220
G1 X97.471 Y99.894 E4.08309
G1 X97.228 Y99.314 E4.08693
G1 X97.200 Y99.264 E4.08728
G1 X97.571 Y98.604 E4.09190
G1 X97.628 Y98.477 E4.09274
G1 X98.043 Y98.384 E4.09534
G1 X98.502 Y98.279 E4.09821
G1 X98.912 Y98.483 E4.10100
G1 X98.917 Y98.494 E4.10108
G1 X99.282 Y98.678 E4.10357
G1 X99.612 Y99.273 E4.10772
G1 X99.659 Y99.362 E4.10833
G1 X99.502 Y99.900 E4.11175
G1 X99.494 Y99.932 E4.11195
G1 X98.591 Y100.328 E4.11796
G0 F9000 X98.392 Y99.806
;TYPE:SKIN
G1 F720 X97.829 Y99.243 E4.12282
G0 F9000 X98.079 Y98.928
G1 F720 X98.798 Y99.646 E4.12901
G0 F9000 X99.002 Y99.284
G1 F720 X98.712 Y98.994 E4.13151
G0 F9000 X106.744 Y99.731
;TYPE:FILL
G1 F720 X107.191 Y99.284 E4.13537
G0 F9000 X106.386 Y98.790
;TYPE:WALL-INNER
G1 F720 X106.391 Y98.779 E4.13544
G1 X106.547 Y98.701 E4.13651
G1 X106.683 Y98.730 E4.13735
G1 X107.094 Y98.825 E4.13993
G1 X107.352 Y99.284 E4.14314
G1 X107.203 Y99.635 E4.14546
G1 X106.615 Y99.963 E4.14957
G1 X105.835 Y99.633 E4.15473
G1 X105.772 Y99.412 E4.15613
G1 X106.009 Y98.980 E4.15914
G1 X106.386 Y98.790 E4.16171
G0 F9000 X106.081 Y98.495
;TYPE:WALL-OUTER
G1 F720 X106.086 Y98.484 E4.16179
G1 X106.494 Y98.280 E4.16457
G1 X106.952 Y98.380 E4.16743
G1 X107.371 Y98.476 E4.17005
G1 X107.428 Y98.603 E4.17090
G1 X107.800 Y99.264 E4.17552
G1 X107.529 Y99.893 E4.17970
G1 X107.412 Y99.978 E4.18058
G1 X106.637 Y100.407 E4.18598
G1 X105.503 Y99.927 E4.19349
G1 X105.342 Y99.364 E4.19706
G1 X105.718 Y98.678 E4.20183
G1 X106.081 Y98.495 E4.20431
G0 F9000 X106.510 Y98.874
;TYPE:SKIN
G1 F720 X107.116 Y99.480 E4.20954
G0 F9000 X106.780 Y99.709
G1 F720 X106.141 Y99.070 E4.21505
G0 F9000 X105.926 Y99.420
G1 F720 X106.097 Y99.592 E4.21652
G1 F2700 E-0.28348
G0 F9000 X106.403 Y106.792
;TYPE:WALL-INNER
G1 F2700 E4.21652
G1 F720 X107.011 Y107.012 E4.22047
G1 X106.980 Y107.712 E4.22474
G1 X106.802 Y108.190 E4.22785
G1 X106.338 Y108.412 E4.23099
G1 X105.575 Y108.226 E4.23578
G1 X105.528 Y107.732 E4.23880
G1 X105.793 Y106.986 E4.24363
G1 X106.403 Y106.792 E4.24753
G0 F9000 X105.777 Y106.572
;TYPE:WALL-OUTER
G1 F720 X106.411 Y106.370 E4.25159
G1 X107.139 Y106.633 E4.25631
G1 X107.421 Y106.731 E4.25813
G1 X107.376 Y107.795 E4.26462
G1 X107.120 Y108.482 E4.26909
G1 X106.381 Y108.835 E4.27409
G1 X105.204 Y108.548 E4.28148
G1 X105.121 Y107.681 E4.28679
G1 X105.490 Y106.644 E4.29350
G1 X105.767 Y106.556 E4.29527
G1 X105.777 Y106.572 E4.29539
G0 F9000 X106.165 Y107.014
;TYPE:SKIN
G1 F720 X106.839 Y107.688 E4.30120
G0 F9000 X106.679 Y108.093
G1 F720 X105.843 Y107.257 E4.30841
G0 F9000 X105.695 Y107.675
G1 F720 X106.270 Y108.250 E4.31337
G0 F9000 X106.865 Y107.147
G1 F720 X106.802 Y107.084 E4.31391
G0 F9000 X99.325 Y107.810
;TYPE:FILL
G1 F720 X98.492 Y106.978 E4.32109
G0 F9000 X99.176 Y107.298
G1 F720 X98.370 Y108.104 E4.32804
G0 F9000 X99.463 Y107.669
;TYPE:WALL-INNER
G1 F720 X99.475 Y107.712 E4.32831
G1 X99.425 Y108.228 E4.33147
G1 X98.672 Y108.413 E4.33620
G1 X98.185 Y108.169 E4.33952
G1 X98.020 Y107.738 E4.34234
G1 X97.990 Y107.012 E4.34677
G1 X98.597 Y106.792 E4.35070
G1 X99.211 Y106.988 E4.35464
G1 X99.463 Y107.669 E4.35906
G0 F9000 X99.220 Y106.571
;TYPE:WALL-OUTER
G1 F720 X99.231 Y106.554 E4.35919
G1 X99.510 Y106.644 E4.36097
G1 X99.844 Y107.547 E4.36684
G1 X99.880 Y107.675 E4.36766
G1 X99.796 Y108.546 E4.37299
G1 X98.751 Y108.806 E4.37956
G1 X98.623 Y108.836 E4.38036
G1 X97.928 Y108.487 E4.38510
G1 X97.872 Y108.468 E4.38546
G1 X97.645 Y107.883 E4.38929
G1 X97.623 Y107.805 E4.38978
G1 X97.580 Y106.778 E4.39605
G1 X97.580 Y106.732 E4.39633
G1 X97.855 Y106.632 E4.39812
G1 X98.591 Y106.370 E4.40288
G1 X99.220 Y106.571 E4.40691
G0 F9000 X98.801 Y107.004
;TYPE:SKIN
G1 F720 X99.224 Y107.427 E4.41055
G0 F9000 X99.301 Y108.069
G1 F720 X98.285 Y107.053 E4.41932
G0 F9000 X98.148 Y107.482
G1 F720 X98.882 Y108.216 E4.42565
;LAYER:3
G1 F2700 E-0.07435
G0 F9000 X98.388 Y100.050 Z0.600
;TYPE:WALL-INNER
G1 F2700 E4.42565
G1 F780 X97.723 Y99.681 E4.43028
G1 X97.577 Y99.330 E4.43260
G1 X97.844 Y98.854 E4.43593
G1 X98.448 Y98.720 E4.43970
G1 X98.554 Y98.773 E4.44042
G1 X99.012 Y99.005 E4.44356
G1 X99.253 Y99.441 E4.44659
G1 X99.177 Y99.703 E4.44826
G1 X98.388 Y100.050 E4.45351
G0 F9000 X98.722 Y98.747
G0 X98.857 Y98.477
;TYPE:WALL-OUTER
G1 F780 X99.302 Y98.703 E4.45656
G1 X99.684 Y99.392 E4.46136
G1 X99.509 Y99.994 E4.46518
G1 X98.367 Y100.495 E4.47279
G1 X97.408 Y99.964 E4.47947
G1 X97.133 Y99.303 E4.48384
G1 X97.583 Y98.502 E4.48944
G1 X98.500 Y98.299 E4.49517
G1 X98.857 Y98.477 E4.49760
G0 F9000 X98.702 Y99.004
;TYPE:SKIN
G1 F780 X98.021 Y99.685 E4.50347
G0 F9000 X97.753 Y99.388
G1 F780 X98.230 Y98.910 E4.50759
G0 F9000 X98.999 Y99.272
G1 F780 X98.384 Y99.888 E4.51290
G0 F9000 X106.592 Y99.883
;TYPE:FILL
G1 F780 X107.221 Y99.253 E4.51833
G0 F9000 X106.638 Y98.739
;TYPE:WALL-INNER
G1 F780 X107.161 Y98.855 E4.52159
G1 X107.426 Y99.332 E4.52492
G1 X107.278 Y99.680 E4.52723
G1 X106.617 Y100.046 E4.53183
G1 X105.823 Y99.700 E4.53711
G1 X105.748 Y99.440 E4.53876
G1 X105.988 Y99.005 E4.54179
G1 X106.439 Y98.780 E4.54487
G1 X106.552 Y98.720 E4.54565
G1 X106.638 Y98.739 E4.54618
G0 F9000 X106.903 Y98.387
;TYPE:WALL-OUTER
G1 F780 X107.423 Y98.503 E4.54943
G1 X107.870 Y99.308 E4.55505
G1 X107.592 Y99.964 E4.55939
G1 X106.638 Y100.492 E4.56604
G1 X105.490 Y99.991 E4.57368
G1 X105.317 Y99.392 E4.57748
G1 X105.698 Y98.703 E4.58228
G1 X106.139 Y98.483 E4.58529
G1 X106.498 Y98.299 E4.58775
G1 X106.903 Y98.387 E4.59027
G0 F9000 X106.725 Y98.900
;TYPE:SKIN
G1 F780 X106.000 Y99.625 E4.59653
G0 F9000 X106.394 Y99.797
G1 F780 X107.120 Y99.072 E4.60278
G1 F2700 E0.10278
G0 F9000 X106.918 Y106.960
;TYPE:WALL-INNER
G1 F2700 E4.60278
