;Generated with Cura_SteamEngine DEV
M109 S210     ;Heatup to 210C
G21           ;metric values
G90           ;absolute positioning
G28           ;Home
G1 Z15.0 F300 ;move the platform down 15mm
G92 E0        ;zero the extruded length
G1 F200 E5    ;extrude 5mm of feed stock
G92 E0        ;zero the extruded length again

;Layer count: 295
;LAYER:0
M107
G0 F9000 X93.726 Y96.200 Z0.300
;TYPE:SKIRT
G1 F1200 X111.274 Y96.200 E0.48152
G1 X111.274 Y112.760 E0.93593
G1 X93.726 Y112.760 E1.41745
G1 X93.726 Y96.200 E1.87186
G1 F2700 E-2.62814
G0 F9000 X100.926 Y103.400
;TYPE:WALL-INNER
G1 F2700 E1.87186
G1 F1200 X101.106 Y103.400 E1.87680
G1 X101.106 Y105.560 E1.93607
G1 X100.926 Y105.560 E1.94101
G1 X100.926 Y103.400 E2.00028
G0 F9000 X100.326 Y102.800
;TYPE:WALL-OUTER
G1 F1200 X101.706 Y102.800 E2.03815
G1 X101.706 Y106.160 E2.13035
G1 X100.326 Y106.160 E2.16821
G1 X100.326 Y102.800 E2.26041
G1 F2700 E-2.23959
G0 F9000 X103.894 Y103.400
;TYPE:WALL-INNER
G1 F2700 E2.26041
G1 F1200 X104.074 Y103.400 E2.26535
G1 X104.074 Y105.560 E2.32462
G1 X103.894 Y105.560 E2.32956
G1 X103.894 Y103.400 E2.38883
G0 F9000 X103.294 Y102.800
;TYPE:WALL-OUTER
G1 F1200 X104.674 Y102.800 E2.42670
G1 X104.674 Y106.160 E2.51890
G1 X103.294 Y106.160 E2.55677
G1 X103.294 Y102.800 E2.64897
;LAYER:1
M106 S127
G0 F9000 X101.506 Y102.910 Z0.400
G0 X101.266 Y104.094
;TYPE:FILL
G1 F540 X100.765 Y103.593 E2.65329
G0 F9000 X101.266 Y105.209
G1 F540 X100.766 Y105.708 E2.65759
G0 F9000 X100.626 Y105.860
;TYPE:WALL-INNER
G1 F540 X100.626 Y103.100 E2.67442
G1 X101.406 Y103.100 E2.67918
G1 X101.406 Y105.860 E2.69601
G1 X100.626 Y105.860 E2.70077
G0 F9000 X100.226 Y106.260
;TYPE:WALL-OUTER
G1 F540 X100.226 Y102.700 E2.72247
G1 X101.806 Y102.700 E2.73211
G1 X101.806 Y106.260 E2.75382
G1 X100.226 Y106.260 E2.76345
G0 F9000 X101.038 Y105.719
;TYPE:SKIN
G1 F540 X101.016 Y105.458 E2.76542
G1 X101.016 Y104.893 E2.76973
G1 X101.016 Y104.327 E2.77403
G1 X101.016 Y103.761 E2.77834
G1 X101.256 Y103.239 E2.78184
G1 F2700 E-1.71816
G0 F9000 X103.594 Y103.100
;TYPE:WALL-INNER
G1 F2700 E2.78184
G1 F540 X104.374 Y103.100 E2.78660
G1 X104.374 Y105.860 E2.80343
G1 X103.594 Y105.860 E2.80818
G1 X103.594 Y103.100 E2.82501
G0 F9000 X103.194 Y102.700
;TYPE:WALL-OUTER
G1 F540 X104.774 Y102.700 E2.83465
G1 X104.774 Y106.260 E2.85636
G1 X103.194 Y106.260 E2.86599
G1 X103.194 Y102.700 E2.88770
G0 F9000 X103.733 Y103.589
;TYPE:SKIN
G1 F540 X104.158 Y103.447 E2.89071
G1 X103.983 Y104.188 E2.89502
G1 X103.983 Y104.754 E2.89932
G1 X103.799 Y105.502 E2.90362
G1 X104.233 Y105.353 E2.90642
;LAYER:2
M106 S255
G1 F2700 E-1.59358
G0 F9000 X101.266 Y105.209 Z0.500
;TYPE:FILL
G1 F2700 E2.90642
G1 F540 X100.766 Y105.708 E2.91073
G0 F9000 X101.266 Y104.094
G1 F540 X100.765 Y103.593 E2.91505
G0 F9000 X100.626 Y103.100
;TYPE:WALL-INNER
G1 F540 X101.406 Y103.100 E2.91980
G1 X101.406 Y105.860 E2.93663
G1 X100.626 Y105.860 E2.94139
G1 X100.626 Y103.100 E2.95822
G0 F9000 X100.226 Y102.700
;TYPE:WALL-OUTER
G1 F540 X101.806 Y102.700 E2.96785
G1 X101.806 Y106.260 E2.98956
G1 X100.226 Y106.260 E2.99920
G1 X100.226 Y102.700 E3.02091
G0 F9000 X100.765 Y103.311
;TYPE:SKIN
G1 F540 X101.015 Y103.843 E3.02522
G1 X101.015 Y104.409 E3.02953
G1 X101.015 Y104.975 E3.03384
G1 X101.088 Y105.613 E3.03815
G1 X100.765 Y105.573 E3.04014
G1 F2700 E-1.45986
G0 F9000 X103.594 Y105.860
;TYPE:WALL-INNER
G1 F2700 E3.04014
G1 F540 X103.594 Y103.100 E3.05697
G1 X104.374 Y103.100 E3.06172
G1 X104.374 Y105.860 E3.07855
G1 X103.594 Y105.860 E3.08331
G0 F9000 X103.194 Y106.260
;TYPE:WALL-OUTER
G1 F540 X103.194 Y102.700 E3.10502
G1 X104.774 Y102.700 E3.11465
G1 X104.774 Y106.260 E3.13636
G1 X103.194 Y106.260 E3.14599
G0 F9000 X104.233 Y105.648
;TYPE:SKIN
G1 F540 X103.983 Y105.114 E3.15031
G1 X103.983 Y104.548 E3.15461
G1 X103.983 Y103.983 E3.15892
G1 X103.910 Y103.345 E3.16323
G1 X104.233 Y103.385 E3.16521
;LAYER:3
G1 F2700 E-1.33479
G0 F9000 X101.266 Y104.094 Z0.600
;TYPE:FILL
G1 F2700 E3.16521
G1 F540 X100.765 Y103.593 E3.16953
G0 F9000 X101.266 Y105.209
G1 F540 X100.766 Y105.708 E3.17384
G0 F9000 X100.626 Y105.860
;TYPE:WALL-INNER
G1 F540 X100.626 Y103.100 E3.19067
G1 X101.406 Y103.100 E3.19543
G1 X101.406 Y105.860 E3.21226
G1 X100.626 Y105.860 E3.21701
G0 F9000 X100.226 Y106.260
;TYPE:WALL-OUTER
G1 F540 X100.226 Y102.700 E3.23872
G1 X101.806 Y102.700 E3.24836
G1 X101.806 Y106.260 E3.27006
G1 X100.226 Y106.260 E3.27970
G0 F9000 X101.038 Y105.719
;TYPE:SKIN
G1 F540 X101.016 Y105.458 E3.28167
G1 X101.016 Y104.893 E3.28597
G1 X101.016 Y104.327 E3.29028
G1 X101.016 Y103.761 E3.29458
G1 X101.256 Y103.239 E3.29809
G1 F2700 E-1.20191
G0 F9000 X103.594 Y103.100
;TYPE:WALL-INNER
G1 F2700 E3.29809
G1 F540 X104.374 Y103.100 E3.30284
G1 X104.374 Y105.860 E3.31967
G1 X103.594 Y105.860 E3.32443
G1 X103.594 Y103.100 E3.34126
G0 F9000 X103.194 Y102.700
;TYPE:WALL-OUTER
G1 F540 X104.774 Y102.700 E3.35090
G1 X104.774 Y106.260 E3.37260
G1 X103.194 Y106.260 E3.38224
G1 X103.194 Y102.700 E3.40395
G0 F9000 X103.733 Y103.589
;TYPE:SKIN
G1 F540 X104.158 Y103.447 E3.40696
G1 X103.983 Y104.188 E3.41126
G1 X103.983 Y104.754 E3.41557
G1 X103.799 Y105.502 E3.41987
G1 X104.233 Y105.353 E3.42267
;LAYER:4
G1 F2700 E-1.07733
G0 F9000 X101.266 Y105.209 Z0.700
;TYPE:FILL
G1 F2700 E3.42267
G1 F600 X100.766 Y105.708 E3.42697
G0 F9000 X101.266 Y104.094
G1 F600 X100.765 Y103.593 E3.43129
G0 F9000 X100.626 Y103.100
;TYPE:WALL-INNER
G1 F600 X101.406 Y103.100 E3.43605
G1 X101.406 Y105.860 E3.45288
G1 X100.626 Y105.860 E3.45764
G1 X100.626 Y103.100 E3.47447
G0 F9000 X100.226 Y102.700
;TYPE:WALL-OUTER
G1 F600 X101.806 Y102.700 E3.48410
G1 X101.806 Y106.260 E3.50581
G1 X100.226 Y106.260 E3.51544
G1 X100.226 Y102.700 E3.53715
G0 F9000 X100.765 Y103.311
;TYPE:SKIN
G1 F600 X101.015 Y103.843 E3.54146
G1 X101.015 Y104.409 E3.54578
G1 X101.015 Y104.975 E3.55009
G1 X101.088 Y105.613 E3.55440
G1 X100.765 Y105.573 E3.55638
G1 F2700 E-0.94362
G0 F9000 X103.594 Y105.860
;TYPE:WALL-INNER
G1 F2700 E3.55638
G1 F600 X103.594 Y103.100 E3.57321
G1 X104.374 Y103.100 E3.57797
G1 X104.374 Y105.860 E3.59480
G1 X103.594 Y105.860 E3.59956
G0 F9000 X103.194 Y106.260
;TYPE:WALL-OUTER
G1 F600 X103.194 Y102.700 E3.62126
G1 X104.774 Y102.700 E3.63090
G1 X104.774 Y106.260 E3.65261
G1 X103.194 Y106.260 E3.66224
G0 F9000 X104.233 Y105.648
;TYPE:SKIN
G1 F600 X103.983 Y105.114 E3.66656
G1 X103.983 Y104.548 E3.67086
G1 X103.983 Y103.983 E3.67517
G1 X103.910 Y103.345 E3.67948
G1 X104.233 Y103.385 E3.68146
;LAYER:5
G1 F2700 E-0.81854
G0 F9000 X101.266 Y104.094 Z0.800
;TYPE:FILL
G1 F2700 E3.68146
G1 F600 X100.765 Y103.593 E3.68578
G0 F9000 X101.266 Y105.209
G1 F600 X100.766 Y105.708 E3.69009
G0 F9000 X100.626 Y105.860
;TYPE:WALL-INNER
G1 F600 X100.626 Y103.100 E3.70692
G1 X101.406 Y103.100 E3.71167
G1 X101.406 Y105.860 E3.72850
G1 X100.626 Y105.860 E3.73326
G0 F9000 X100.226 Y106.260
;TYPE:WALL-OUTER
G1 F600 X100.226 Y102.700 E3.75497
G1 X101.806 Y102.700 E3.76460
G1 X101.806 Y106.260 E3.78631
G1 X100.226 Y106.260 E3.79595
G0 F9000 X101.038 Y105.719
;TYPE:SKIN
G1 F600 X101.016 Y105.458 E3.79791
G1 X101.016 Y104.893 E3.80222
G1 X101.016 Y104.327 E3.80653
G1 X101.016 Y103.761 E3.81083
G1 X101.256 Y103.239 E3.81434
G1 F2700 E-0.68566
G0 F9000 X103.594 Y103.100
;TYPE:WALL-INNER
G1 F2700 E3.81434
G1 F600 X104.374 Y103.100 E3.81909
G1 X104.374 Y105.860 E3.83592
G1 X103.594 Y105.860 E3.84068
G1 X103.594 Y103.100 E3.85751
G0 F9000 X103.194 Y102.700
;TYPE:WALL-OUTER
G1 F600 X104.774 Y102.700 E3.86714
G1 X104.774 Y106.260 E3.88885
G1 X103.194 Y106.260 E3.89849
G1 X103.194 Y102.700 E3.92019
G0 F9000 X103.733 Y103.589
;TYPE:SKIN
G1 F600 X104.158 Y103.447 E3.92321
G1 X103.983 Y104.188 E3.92751
G1 X103.983 Y104.754 E3.93182
G1 X103.799 Y105.502 E3.93612
G1 X104.233 Y105.353 E3.93891
;LAYER:6
G1 F2700 E-0.56109
G0 F9000 X101.266 Y105.209 Z0.900
;TYPE:FILL
G1 F2700 E3.93891
G1 F600 X100.766 Y105.708 E3.94322
G0 F9000 X101.266 Y104.094
G1 F600 X100.765 Y103.593 E3.94754
G0 F9000 X100.626 Y103.100
;TYPE:WALL-INNER
G1 F600 X101.406 Y103.100 E3.95230
G1 X101.406 Y105.860 E3.96913
G1 X100.626 Y105.860 E3.97388
G1 X100.626 Y103.100 E3.99071
G0 F9000 X100.226 Y102.700
;TYPE:WALL-OUTER
G1 F600 X101.806 Y102.700 E4.00035
G1 X101.806 Y106.260 E4.02206
G1 X100.226 Y106.260 E4.03169
G1 X100.226 Y102.700 E4.05340
G0 F9000 X100.765 Y103.311
;TYPE:SKIN
G1 F600 X101.016 Y103.561 E4.05530
G1 X101.126 Y103.954 E4.05719
G1 X100.905 Y104.016 E4.05909
G1 X101.126 Y104.520 E4.06099
G1 X100.905 Y104.582 E4.06289
G1 X101.126 Y105.085 E4.06478
G1 X100.905 Y105.148 E4.06669
G1 X101.088 Y105.613 E4.06858
G1 X100.765 Y105.573 E4.07057
G1 F2700 E-0.42943
G0 F9000 X103.594 Y105.860
;TYPE:WALL-INNER
G1 F2700 E4.07057
G1 F600 X103.594 Y103.100 E4.08740
G1 X104.374 Y103.100 E4.09215
G1 X104.374 Y105.860 E4.10898
G1 X103.594 Y105.860 E4.11374
G0 F9000 X103.194 Y106.260
;TYPE:WALL-OUTER
G1 F600 X103.194 Y102.700 E4.13545
G1 X104.774 Y102.700 E4.14508
G1 X104.774 Y106.260 E4.16679
G1 X103.194 Y106.260 E4.17642
G0 F9000 X104.013 Y105.427
;TYPE:SKIN
G1 F600 X104.093 Y105.508 E4.17833
G1 X103.873 Y105.004 E4.18023
G1 X104.093 Y104.942 E4.18213
G1 X103.873 Y104.438 E4.18402
G1 X104.093 Y104.376 E4.18592
G1 X103.873 Y103.873 E4.18781
G1 X104.093 Y103.811 E4.18971
G1 X103.910 Y103.345 E4.19160
G1 X104.233 Y103.385 E4.19359
;LAYER:7
G1 F2700 E-0.30641
G0 F9000 X101.266 Y104.094 Z1.000
;TYPE:FILL
G1 F2700 E4.19359
G1 F600 X100.765 Y103.593 E4.19791
G0 F9000 X101.266 Y105.209
G1 F600 X100.766 Y105.708 E4.20222
G0 F9000 X100.626 Y105.860
;TYPE:WALL-INNER
G1 F600 X100.626 Y103.100 E4.21905
G1 X101.406 Y103.100 E4.22380
G1 X101.406 Y105.860 E4.24063
G1 X100.626 Y105.860 E4.24539
G0 F9000 X100.226 Y106.260
;TYPE:WALL-OUTER
G1 F600 X100.226 Y102.700 E4.26710
G1 X101.806 Y102.700 E4.27673
G1 X101.806 Y106.260 E4.29844
G1 X100.226 Y106.260 E4.30808
G0 F9000 X101.226 Y105.260
G1 F2700 E-0.19192
G0 F9000 X103.594 Y105.860
;TYPE:WALL-INNER
G1 F2700 E4.30808
G1 F600 X103.594 Y103.100 E4.32490
G1 X104.374 Y103.100 E4.32966
G1 X104.374 Y105.860 E4.34649
G1 X103.594 Y105.860 E4.35125
G0 F9000 X103.194 Y106.260
;TYPE:WALL-OUTER
G1 F600 X103.194 Y102.700 E4.37296
G1 X104.774 Y102.700 E4.38259
G1 X104.774 Y106.260 E4.40430
G1 X103.194 Y106.260 E4.41393
G0 F9000 X104.194 Y105.260
;LAYER:8
G1 F2700 E-0.08607
G0 F9000 X101.266 Y105.209 Z1.100
;TYPE:FILL
G1 F2700 E4.41393
G1 F600 X100.766 Y105.708 E4.41824
G0 F9000 X101.266 Y104.094
G1 F600 X100.765 Y103.593 E4.42256
G0 F9000 X100.626 Y103.100
;TYPE:WALL-INNER
G1 F600 X101.406 Y103.100 E4.42732
G1 X101.406 Y105.860 E4.44415
G1 X100.626 Y105.860 E4.44890
G1 X100.626 Y103.100 E4.46573
G0 F9000 X100.226 Y102.700
;TYPE:WALL-OUTER
G1 F600 X101.806 Y102.700 E4.47537
G1 X101.806 Y106.260 E4.49708
G1 X100.226 Y106.260 E4.50671
G1 X100.226 Y102.700 E4.52842
G0 F9000 X101.226 Y103.700
G1 F2700 E0.02842
G0 F9000 X103.594 Y103.100
;TYPE:WALL-INNER
G1 F2700 E4.52842
G1 F600 X104.374 Y103.100 E4.53318
G1 X104.374 Y105.860 E4.55001
G1 X103.594 Y105.860 E4.55476
G1 X103.594 Y103.100 E4.57159
G0 F9000 X103.194 Y102.700
;TYPE:WALL-OUTER
G1 F600 X104.774 Y102.700 E4.58123
G1 X104.774 Y106.260 E4.60293
G1 X103.194 Y106.260 E4.61257
G1 X103.194 Y102.700 E4.63428
G0 F9000 X104.194 Y103.700
;LAYER:9
G1 F2700 E0.13428
G0 F9000 X101.266 Y104.094 Z1.200
;TYPE:FILL
G1 F2700 E4.63428
G1 F600 X100.765 Y103.593 E4.63860
G0 F9000 X101.266 Y105.209
G1 F600 X100.766 Y105.708 E4.64291
G0 F9000 X100.626 Y105.860
;TYPE:WALL-INNER
G1 F600 X100.626 Y103.100 E4.65974
G1 X101.406 Y103.100 E4.66449
G1 X101.406 Y105.860 E4.68132
G1 X100.626 Y105.860 E4.68608
G0 F9000 X100.226 Y106.260
;TYPE:WALL-OUTER
G1 F600 X100.226 Y102.700 E4.70779
G1 X101.806 Y102.700 E4.71742
G1 X101.806 Y106.260 E4.73913
G1 X100.226 Y106.260 E4.74876
G0 F9000 X101.226 Y105.260
G1 F2700 E0.24876
G0 F9000 X103.594 Y105.860
;TYPE:WALL-INNER
G1 F2700 E4.74876
G1 F600 X103.594 Y103.100 E4.76559
G1 X104.374 Y103.100 E4.77035
G1 X104.374 Y105.860 E4.78718
G1 X103.594 Y105.860 E4.79194
G0 F9000 X103.194 Y106.260
;TYPE:WALL-OUTER
G1 F600 X103.194 Y102.700 E4.81364
G1 X104.774 Y102.700 E4.82328
G1 X104.774 Y106.260 E4.84499
G1 X103.194 Y106.260 E4.85462
G0 F9000 X104.194 Y105.260
;LAYER:10
G1 F2700 E0.35462
G0 F9000 X101.266 Y105.209 Z1.300
;TYPE:FILL
G1 F2700 E4.85462
G1 F600 X100.766 Y105.708 E4.85893
G0 F9000 X101.266 Y104.094
G1 F600 X100.765 Y103.593 E4.86325
G0 F9000 X100.626 Y103.100
;TYPE:WALL-INNER
G1 F600 X101.406 Y103.100 E4.86801
G1 X101.406 Y105.860 E4.88484
G1 X100.626 Y105.860 E4.88959
G1 X100.626 Y103.100 E4.90642
G0 F9000 X100.226 Y102.700
;TYPE:WALL-OUTER
G1 F600 X101.806 Y102.700 E4.91606
G1 X101.806 Y106.260 E4.93776
G1 X100.226 Y106.260 E4.94740
G1 X100.226 Y102.700 E4.96911
G0 F9000 X101.226 Y103.700
G1 F2700 E0.46911
G0 F9000 X103.594 Y103.100
;TYPE:WALL-INNER
G1 F2700 E4.96911
G1 F600 X104.374 Y103.100 E4.97386
G1 X104.374 Y105.860 E4.99069
G1 X103.594 Y105.860 E4.99545
G1 X103.594 Y103.100 E5.01228
G0 F9000 X103.194 Y102.700
;TYPE:WALL-OUTER
G1 F600 X104.774 Y102.700 E5.02191
G1 X104.774 Y106.260 E5.04362
G1 X103.194 Y106.260 E5.05326
G1 X103.194 Y102.700 E5.07497
G0 F9000 X104.194 Y103.700
;LAYER:11
G1 F2700 E0.57497
G0 F9000 X101.266 Y104.094 Z1.400
;TYPE:FILL
G1 F2700 E5.07497
G1 F600 X100.765 Y103.593 E5.07929
G0 F9000 X101.266 Y105.209
G1 F600 X100.766 Y105.708 E5.08359
G0 F9000 X100.626 Y105.860
;TYPE:WALL-INNER
G1 F600 X100.626 Y103.100 E5.10042
G1 X101.406 Y103.100 E5.10518
G1 X101.406 Y105.860 E5.12201
G1 X100.626 Y105.860 E5.12677
G0 F9000 X100.226 Y106.260
;TYPE:WALL-OUTER
G1 F600 X100.226 Y102.700 E5.14847
G1 X101.806 Y102.700 E5.15811
G1 X101.806 Y106.260 E5.17982
G1 X100.226 Y106.260 E5.18945
G0 F9000 X101.226 Y105.260
G1 F2700 E0.68945
G0 F9000 X103.594 Y105.860
;TYPE:WALL-INNER
G1 F2700 E5.18945
G1 F600 X103.594 Y103.100 E5.20628
G1 X104.374 Y103.100 E5.21104
G1 X104.374 Y105.860 E5.22787
G1 X103.594 Y105.860 E5.23262
G0 F9000 X103.194 Y106.260
;TYPE:WALL-OUTER
G1 F600 X103.194 Y102.700 E5.25433
G1 X104.774 Y102.700 E5.26397
G1 X104.774 Y106.260 E5.28568
G1 X103.194 Y106.260 E5.29531
G0 F9000 X104.194 Y105.260
;LAYER:12
G1 F2700 E0.79531
G0 F9000 X101.266 Y105.209 Z1.500
;TYPE:FILL
G1 F2700 E5.29531
G1 F600 X100.766 Y105.708 E5.29962
G0 F9000 X101.266 Y104.094
G1 F600 X100.765 Y103.593 E5.30394
G0 F9000 X100.626 Y103.100
;TYPE:WALL-INNER
G1 F600 X101.406 Y103.100 E5.30869
G1 X101.406 Y105.860 E5.32552
G1 X100.626 Y105.860 E5.33028
G1 X100.626 Y103.100 E5.34711
G0 F9000 X100.226 Y102.700
;TYPE:WALL-OUTER
G1 F600 X101.806 Y102.700 E5.35674
G1 X101.806 Y106.260 E5.37845
G1 X100.226 Y106.260 E5.38809
G1 X100.226 Y102.700 E5.40980
G0 F9000 X100.765 Y103.311
;TYPE:SKIN
G1 F600 X101.015 Y103.843 E5.41411
G1 X101.015 Y104.409 E5.41842
G1 X101.015 Y104.975 E5.42273
G1 X101.088 Y105.613 E5.42704
G1 X100.765 Y105.573 E5.42903
G1 F2700 E0.92903
G0 F9000 X103.594 Y105.860
;TYPE:WALL-INNER
G1 F2700 E5.42903
G1 F600 X103.594 Y103.100 E5.44586
G1 X104.374 Y103.100 E5.45061
G1 X104.374 Y105.860 E5.46744
G1 X103.594 Y105.860 E5.47220
G0 F9000 X103.194 Y106.260
;TYPE:WALL-OUTER
G1 F600 X103.194 Y102.700 E5.49391
G1 X104.774 Y102.700 E5.50354
G1 X104.774 Y106.260 E5.52525
G1 X103.194 Y106.260 E5.53488
G0 F9000 X104.233 Y105.648
;TYPE:SKIN
G1 F600 X103.983 Y105.114 E5.53920
G1 X103.983 Y104.548 E5.54350
G1 X103.983 Y103.983 E5.54781
G1 X103.910 Y103.345 E5.55212
G1 X104.233 Y103.385 E5.55410
;LAYER:13
G1 F2700 E1.05410
G0 F9000 X101.266 Y104.094 Z1.600
;TYPE:FILL
G1 F2700 E5.55410
G1 F600 X100.765 Y103.593 E5.55842
G0 F9000 X101.266 Y105.209
G1 F600 X100.766 Y105.708 E5.56273
G0 F9000 X100.626 Y105.860
;TYPE:WALL-INNER
G1 F600 X100.626 Y103.100 E5.57956
G1 X101.406 Y103.100 E5.58432
G1 X101.406 Y105.860 E5.60115
G1 X100.626 Y105.860 E5.60590
G0 F9000 X100.226 Y106.260
;TYPE:WALL-OUTER
G1 F600 X100.226 Y102.700 E5.62761
G1 X101.806 Y102.700 E5.63725
G1 X101.806 Y106.260 E5.65895
G1 X100.226 Y106.260 E5.66859
G0 F9000 X101.038 Y105.719
;TYPE:SKIN
G1 F600 X101.016 Y105.458 E5.67056
G1 X101.016 Y104.893 E5.67486
G1 X101.016 Y104.327 E5.67917
G1 X101.016 Y103.761 E5.68348
