;Generated with Cura_SteamEngine DEV
M109 S210     ;Heatup to 210C
G21           ;metric values
G90           ;absolute positioning
G28           ;Home
G1 Z15.0 F300 ;move the platform down 15mm
G92 E0        ;zero the extruded length
G1 F200 E5    ;extrude 5mm of feed stock
G92 E0        ;zero the extruded length again

;Layer count: 182
;LAYER:0
M107
G0 F9000 X88.199 Y95.464 Z0.300
G0 X88.239 Y96.157
;TYPE:SKIRT
G1 F1200 X88.199 Y95.464 E0.01905
G1 X91.083 Y94.209 E0.10535
G1 X91.416 Y93.046 E0.13855
G1 X93.682 Y92.914 E0.20083
G1 X93.816 Y92.835 E0.20510
G1 X93.970 Y92.547 E0.21406
G1 X94.744 Y92.617 E0.23539
G1 X96.254 Y91.960 E0.28058
G1 X96.984 Y92.722 E0.30953
G1 X100.340 Y92.527 E0.40178
G1 X100.598 Y93.147 E0.42020
G1 X102.273 Y93.298 E0.46635
G1 X102.488 Y93.967 E0.48563
G1 X102.695 Y93.310 E0.50454
G1 X104.299 Y93.162 E0.54874
G1 X104.529 Y92.571 E0.56614
G1 X108.013 Y92.734 E0.66185
G1 X108.759 Y91.958 E0.69138
G1 X110.252 Y92.610 E0.73609
G1 X111.035 Y92.538 E0.75766
G1 X111.220 Y92.885 E0.76845
G1 X113.573 Y92.995 E0.83309
G1 X113.921 Y94.214 E0.86788
G1 X116.807 Y95.475 E0.95430
G1 X116.769 Y96.122 E0.97208
G1 X118.143 Y96.916 E1.01563
G1 X117.457 Y101.964 E1.15542
G1 X117.240 Y103.259 E1.19145
G1 X116.555 Y104.605 E1.23289
G1 X116.269 Y105.333 E1.25436
G1 X115.032 Y107.056 E1.31256
G1 X113.483 Y109.249 E1.38623
G1 X112.107 Y111.215 E1.45208
G1 X105.133 Y115.112 E1.67130
G1 X102.499 Y110.465 E1.81787
G1 X99.864 Y115.100 E1.96417
G1 X92.910 Y111.227 E2.18259
G1 X91.618 Y109.398 E2.24404
G1 X89.970 Y107.058 E2.32257
G1 X88.739 Y105.345 E2.38046
G1 X88.446 Y104.608 E2.40222
G1 X87.727 Y103.189 E2.44587
G1 X86.833 Y96.994 E2.61762
G1 X88.239 Y96.157 E2.66252
G1 F2700 E-1.83748
G0 F9000 X95.660 Y101.858
;TYPE:WALL-INNER
G1 F2700 E2.66252
G1 F1200 X95.963 Y101.654 E2.67255
G1 X96.055 Y101.624 E2.67520
G1 X96.114 Y101.921 E2.68351
G1 X96.828 Y101.644 E2.70453
G1 X97.136 Y101.789 E2.71387
G1 X97.127 Y102.795 E2.74147
G1 X96.984 Y104.513 E2.78878
G1 X95.819 Y102.859 E2.84429
G1 X95.463 Y102.364 E2.86102
G1 X95.660 Y101.858 E2.87592
G0 F9000 X95.346 Y101.346
;TYPE:WALL-OUTER
G1 F1200 X95.146 Y100.588 E2.89744
G1 X95.099 Y100.310 E2.90517
G1 X95.266 Y100.519 E2.91251
G1 X95.636 Y101.128 E2.93207
G1 X96.278 Y100.913 E2.95065
G1 X96.275 Y100.227 E2.96947
G1 X96.306 Y100.018 E2.97527
G1 X96.406 Y100.319 E2.98397
G1 X96.563 Y101.103 E3.00591
G1 X96.853 Y100.991 E3.01444
G1 X97.182 Y101.147 E3.02443
G1 X97.401 Y100.247 E3.04985
G1 X97.491 Y99.983 E3.05750
G1 X97.652 Y100.504 E3.07247
G1 X97.683 Y101.023 E3.08673
G1 X97.740 Y101.309 E3.09474
G1 X97.727 Y102.824 E3.13631
G1 X97.523 Y105.262 E3.20344
G1 X97.390 Y105.393 E3.20856
G1 X97.335 Y106.053 E3.22674
G1 X95.330 Y103.207 E3.32227
G1 X94.572 Y102.152 E3.35791
G1 X94.472 Y101.900 E3.36535
G1 X94.105 Y101.174 E3.38767
G1 X94.069 Y100.927 E3.39452
G1 X94.397 Y101.194 E3.40613
G1 X95.004 Y101.890 E3.43147
G1 X95.170 Y101.465 E3.44399
G1 X95.346 Y101.346 E3.44982
G0 F9000 X95.776 Y102.140
;TYPE:SKIN
G1 F1200 X96.878 Y103.242 E3.49258
G0 F9000 X96.920 Y102.435
G1 F1200 X96.486 Y102.001 E3.50943
G1 F2700 E-0.99057
G0 F9000 X107.874 Y102.796
;TYPE:WALL-INNER
G1 F2700 E3.50943
G1 F1200 X107.865 Y101.789 E3.53706
G1 X108.167 Y101.646 E3.54623
G1 X108.884 Y101.937 E3.56746
G1 X108.946 Y101.625 E3.57619
G1 X109.032 Y101.650 E3.57865
G1 X109.318 Y101.843 E3.58812
G1 X109.396 Y102.092 E3.59528
G1 X109.688 Y102.153 E3.60346
G1 X109.182 Y102.858 E3.62727
G1 X108.017 Y104.508 E3.68270
G1 X107.874 Y102.796 E3.72984
G0 F9000 X107.274 Y102.825
;TYPE:WALL-OUTER
G1 F1200 X107.260 Y101.308 E3.77147
G1 X107.316 Y101.024 E3.77941
G1 X107.349 Y100.504 E3.79371
G1 X107.510 Y99.992 E3.80844
G1 X107.599 Y100.250 E3.81593
G1 X107.817 Y101.148 E3.84128
G1 X108.148 Y100.991 E3.85134
G1 X108.437 Y101.108 E3.85989
G1 X108.591 Y100.328 E3.88171
G1 X108.699 Y100.050 E3.88989
G1 X108.726 Y100.227 E3.89480
G1 X108.722 Y100.922 E3.91388
G1 X108.988 Y101.004 E3.92151
G1 X109.006 Y101.017 E3.92212
G1 X109.365 Y101.123 E3.93239
G1 X109.736 Y100.515 E3.95194
G1 X109.901 Y100.307 E3.95922
G1 X109.855 Y100.583 E3.96690
G1 X109.653 Y101.346 E3.98856
G1 X109.827 Y101.462 E3.99430
G1 X109.863 Y101.577 E3.99760
G1 X110.207 Y101.649 E4.00725
G1 X110.598 Y101.200 E4.02359
G1 X110.936 Y100.939 E4.03530
G1 X110.897 Y101.172 E4.04179
G1 X110.527 Y101.899 E4.06417
G1 X110.428 Y102.151 E4.07160
G1 X109.671 Y103.206 E4.10723
G1 X108.092 Y105.441 E4.18232
G1 X107.665 Y106.050 E4.20273
G1 X107.611 Y105.394 E4.22079
G1 X107.478 Y105.263 E4.22592
G1 X107.274 Y102.825 E4.29305
G0 F9000 X108.081 Y102.565
;TYPE:SKIN
G1 F1200 X108.521 Y103.430 E4.31693
G1 X108.140 Y103.473 E4.32745
G0 F9000 X109.050 Y102.686
G1 F1200 X108.283 Y101.919 E4.35721
;LAYER:1
M106 S127
G1 F2700 E-0.14279
G0 F9000 X97.410 Y101.589 Z0.400
;TYPE:WALL-INNER
G1 F2700 E4.35721
G1 F1020 X97.429 Y101.511 E4.35770
G1 X97.411 Y103.540 E4.37007
G1 X97.280 Y105.116 E4.37972
G1 X97.142 Y105.250 E4.38089
G1 X95.950 Y103.552 E4.39354
G1 X94.901 Y102.095 E4.40449
G1 X94.851 Y101.968 E4.40532
G1 X95.386 Y101.852 E4.40866
G1 X95.442 Y101.667 E4.40984
G1 X95.714 Y101.484 E4.41184
G1 X95.705 Y101.451 E4.41205
G1 X96.283 Y101.263 E4.41575
G1 X96.335 Y101.517 E4.41733
G1 X96.837 Y101.332 E4.42060
G1 X97.410 Y101.589 E4.42442
G0 F9000 X97.748 Y100.999
;TYPE:WALL-OUTER
G1 F1020 X97.830 Y101.407 E4.42696
G1 X97.811 Y103.563 E4.44011
G1 X97.666 Y105.298 E4.45073
G1 X97.480 Y105.479 E4.45231
G1 X97.437 Y106.001 E4.45550
G1 X97.359 Y106.138 E4.45646
G1 X97.226 Y106.064 E4.45739
G1 X95.624 Y103.784 E4.47438
G1 X94.548 Y102.288 E4.48562
G1 X94.401 Y101.917 E4.48805
G1 X94.110 Y101.340 E4.49199
G1 X94.033 Y100.826 E4.49516
G1 X94.609 Y101.298 E4.49970
G1 X94.840 Y101.561 E4.50184
G1 X95.071 Y101.511 E4.50328
G1 X95.098 Y101.422 E4.50385
G1 X95.106 Y101.411 E4.50393
G1 X95.255 Y101.311 E4.50502
G1 X95.138 Y100.868 E4.50782
G1 X95.027 Y100.202 E4.51194
G1 X95.024 Y100.156 E4.51222
G1 X95.452 Y100.683 E4.51636
G1 X95.668 Y101.042 E4.51891
G1 X96.207 Y100.867 E4.52237
G1 X96.204 Y100.465 E4.52482
G1 X96.300 Y99.833 E4.52872
G1 X96.543 Y100.528 E4.53321
G1 X96.634 Y100.980 E4.53602
G1 X96.849 Y100.901 E4.53741
G1 X97.135 Y101.027 E4.53932
G1 X97.255 Y100.529 E4.54244
G1 X97.479 Y99.877 E4.54665
G1 X97.489 Y99.860 E4.54677
G1 X97.581 Y100.145 E4.54859
G1 X97.726 Y100.639 E4.55173
G1 X97.748 Y100.999 E4.55393
G0 F9000 X97.193 Y101.644
;TYPE:SKIN
G1 F1020 X95.768 Y103.070 E4.56623
G0 F9000 X96.003 Y103.400
G1 F1020 X97.282 Y102.121 E4.57726
G0 F9000 X97.278 Y102.691
G1 F1020 X96.238 Y103.731 E4.58622
G0 F9000 X96.473 Y104.062
G1 F1020 X97.273 Y103.262 E4.59312
G0 F9000 X97.244 Y103.857
G1 F1020 X96.825 Y104.558 E4.59774
G1 X97.192 Y104.474 E4.60004
G0 F9000 X95.533 Y102.739
G1 F1020 X96.767 Y101.505 E4.61068
G0 F9000 X96.191 Y101.515
G1 F1020 X95.298 Y102.408 E4.61838
G1 F2700 E0.11838
G0 F9000 X107.588 Y101.591
;TYPE:WALL-INNER
G1 F2700 E4.61838
G1 F1020 X108.157 Y101.335 E4.62218
G1 X108.663 Y101.537 E4.62551
G1 X108.717 Y101.264 E4.62720
G1 X108.920 Y101.326 E4.62850
G1 X109.293 Y101.452 E4.63090
G1 X109.285 Y101.483 E4.63109
G1 X109.534 Y101.650 E4.63292
G1 X109.564 Y101.819 E4.63397
G1 X110.144 Y101.979 E4.63764
G1 X110.098 Y102.096 E4.63840
G1 X109.051 Y103.551 E4.64934
G1 X107.856 Y105.244 E4.66197
G1 X107.721 Y105.117 E4.66310
G1 X107.590 Y103.540 E4.67275
G1 X107.571 Y101.521 E4.68506
G1 X107.588 Y101.591 E4.68550
G0 F9000 X107.251 Y101.000
;TYPE:WALL-OUTER
G1 F1020 X107.275 Y100.638 E4.68771
G1 X107.419 Y100.145 E4.69085
G1 X107.510 Y99.860 E4.69267
G1 X107.744 Y100.528 E4.69699
G1 X107.864 Y101.028 E4.70012
G1 X108.145 Y100.901 E4.70200
G1 X108.365 Y100.987 E4.70344
G1 X108.456 Y100.530 E4.70628
G1 X108.665 Y99.900 E4.71033
G1 X108.697 Y99.823 E4.71084
G1 X108.797 Y100.465 E4.71480
G1 X108.792 Y100.869 E4.71727
G1 X109.330 Y101.043 E4.72071
G1 X109.549 Y100.682 E4.72329
G1 X109.939 Y100.191 E4.72711
G1 X109.975 Y100.154 E4.72743
G1 X109.972 Y100.203 E4.72773
G1 X109.864 Y100.866 E4.73182
G1 X109.745 Y101.310 E4.73463
G1 X109.897 Y101.414 E4.73575
G1 X109.913 Y101.500 E4.73628
G1 X110.155 Y101.567 E4.73781
G1 X110.390 Y101.299 E4.73999
G1 X110.822 Y100.933 E4.74344
G1 X110.975 Y100.819 E4.74460
G1 X110.892 Y101.337 E4.74780
G1 X110.598 Y101.916 E4.75176
G1 X110.453 Y102.287 E4.75419
G1 X109.377 Y103.783 E4.76543
G1 X108.183 Y105.473 E4.77805
G1 X107.774 Y106.063 E4.78242
G1 X107.641 Y106.137 E4.78335
G1 X107.564 Y106.002 E4.78430
G1 X107.521 Y105.480 E4.78749
G1 X107.335 Y105.299 E4.78908
G1 X107.190 Y103.564 E4.79969
G1 X107.170 Y101.407 E4.81285
G1 X107.251 Y101.000 E4.81538
G0 F9000 X108.051 Y101.534
;TYPE:SKIN
G1 F1020 X107.714 Y101.872 E4.81829
G0 F9000 X107.719 Y102.432
G1 F1020 X108.521 Y101.631 E4.82520
G0 F9000 X109.154 Y101.563
G1 F1020 X107.724 Y102.992 E4.83753
G0 F9000 X107.731 Y103.552
G1 F1020 X109.427 Y101.855 E4.85216
G0 F9000 X109.816 Y102.032
G1 F1020 X107.774 Y104.074 E4.86976
G0 F9000 X107.817 Y104.597
G1 F1020 X108.946 Y103.468 E4.87950
;LAYER:2
M106 S255
G1 F2700 E0.37950
G0 F9000 X97.396 Y104.268 Z0.500
;TYPE:WALL-INNER
G1 F2700 E4.87950
G1 F1020 X97.326 Y105.105 E4.88462
G1 X97.165 Y105.261 E4.88599
G1 X96.325 Y104.071 E4.89487
G1 X95.013 Y102.246 E4.90858
G1 X95.412 Y101.708 E4.91266
G1 X95.700 Y101.503 E4.91482
G1 X95.696 Y101.480 E4.91496
G1 X96.291 Y101.289 E4.91877
G1 X96.310 Y101.375 E4.91931
G1 X96.794 Y101.332 E4.92227
G1 X97.371 Y101.583 E4.92611
G1 X97.405 Y101.485 E4.92674
G1 X97.418 Y101.555 E4.92717
G1 X97.396 Y104.268 E4.94372
G0 F9000 X97.472 Y105.521
;TYPE:WALL-OUTER
G1 F1020 X97.454 Y105.753 E4.94514
G1 X97.320 Y105.989 E4.94679
G1 X97.090 Y105.861 E4.94840
G1 X95.999 Y104.303 E4.95999
G1 X94.611 Y102.372 E4.97450
G1 X94.422 Y101.892 E4.97764
G1 X94.211 Y101.473 E4.98050
G1 X94.119 Y100.941 E4.98379
G1 X94.756 Y101.478 E4.98888
G1 X94.933 Y101.683 E4.99053
G1 X95.129 Y101.418 E4.99254
G1 X95.264 Y101.322 E4.99355
G1 X95.096 Y100.329 E4.99969
G1 X95.552 Y100.902 E5.00415
G1 X95.650 Y101.075 E5.00537
G1 X96.210 Y100.895 E5.00895
G1 X96.338 Y100.028 E5.01430
G1 X96.585 Y100.770 E5.01907
G1 X96.624 Y100.945 E5.02016
G1 X96.859 Y100.924 E5.02160
G1 X97.134 Y101.044 E5.02343
G1 X97.479 Y100.045 E5.02987
G1 X97.703 Y100.796 E5.03465
G1 X97.714 Y100.986 E5.03581
G1 X97.819 Y101.514 E5.03909
G1 X97.796 Y104.292 E5.05603
G1 X97.712 Y105.286 E5.06212
G1 X97.472 Y105.521 E5.06417
G0 F9000 X97.207 Y104.844
;TYPE:SKIN
G1 F1020 X96.624 Y104.261 E5.06919
G0 F9000 X97.251 Y104.322
G1 F1020 X95.214 Y102.285 E5.08676
G0 F9000 X95.421 Y101.927
G1 F1020 X97.260 Y103.765 E5.10261
G0 F9000 X97.265 Y103.205
G1 F1020 X95.721 Y101.660 E5.11593
G0 F9000 X96.117 Y101.491
G1 F1020 X97.269 Y102.643 E5.12587
G0 F9000 X97.274 Y102.082
G1 F1020 X96.674 Y101.483 E5.13104
G1 F2700 E0.63104
G0 F9000 X107.582 Y101.553
;TYPE:WALL-INNER
G1 F2700 E5.13104
G1 F1020 X107.595 Y101.486 E5.13145
G1 X107.623 Y101.568 E5.13198
G1 X108.198 Y101.331 E5.13577
G1 X108.639 Y101.370 E5.13847
G1 X108.669 Y101.279 E5.13906
G1 X109.265 Y101.467 E5.14287
G1 X109.259 Y101.488 E5.14300
G1 X109.597 Y101.718 E5.14549
G1 X109.988 Y102.227 E5.14941
G1 X110.021 Y102.199 E5.14967
G1 X108.676 Y104.070 E5.16372
G1 X107.864 Y105.219 E5.17230
G1 X107.835 Y105.262 E5.17262
G1 X107.675 Y105.106 E5.17398
G1 X107.605 Y104.269 E5.17910
G1 X107.582 Y101.553 E5.19567
G0 F9000 X107.285 Y100.988
;TYPE:WALL-OUTER
G1 F1020 X107.298 Y100.795 E5.19685
G1 X107.503 Y100.097 E5.20128
G1 X107.520 Y100.046 E5.20161
G1 X107.862 Y101.037 E5.20800
G1 X108.137 Y100.923 E5.20982
G1 X108.359 Y100.943 E5.21118
G1 X108.662 Y100.027 E5.21706
G1 X108.767 Y100.708 E5.22126
G1 X108.763 Y100.890 E5.22237
G1 X109.327 Y101.067 E5.22598
G1 X109.904 Y100.329 E5.23169
G1 X109.774 Y101.122 E5.23659
G1 X109.720 Y101.317 E5.23782
G1 X109.874 Y101.421 E5.23896
G1 X110.049 Y101.649 E5.24071
G1 X110.859 Y100.956 E5.24721
G1 X110.871 Y100.947 E5.24730
G1 X110.789 Y101.476 E5.25056
G1 X110.577 Y101.891 E5.25341
G1 X110.389 Y102.372 E5.25655
G1 X109.002 Y104.302 E5.27105
G1 X108.193 Y105.448 E5.27960
G1 X107.911 Y105.860 E5.28265
G1 X107.680 Y105.988 E5.28426
G1 X107.547 Y105.754 E5.28590
G1 X107.529 Y105.522 E5.28732
G1 X107.289 Y105.287 E5.28936
G1 X107.205 Y104.293 E5.29545
G1 X107.181 Y101.514 E5.31239
G1 X107.285 Y100.988 E5.31566
G0 F9000 X107.722 Y101.783
;TYPE:SKIN
G1 F1020 X109.135 Y103.195 E5.32784
G0 F9000 X109.371 Y102.866
G1 F1020 X108.049 Y101.544 E5.33924
G0 F9000 X108.576 Y101.505
G1 F1020 X109.607 Y102.536 E5.34814
G0 F9000 X109.633 Y101.996
G1 F1020 X109.370 Y101.733 E5.35040
G0 F9000 X107.727 Y102.353
G1 F1020 X108.899 Y103.525 E5.36051
G0 F9000 X108.663 Y103.855
G1 F1020 X107.732 Y102.924 E5.36854
G0 F9000 X107.737 Y103.494
G1 F1020 X108.427 Y104.185 E5.37449
G0 F9000 X108.192 Y104.515
G1 F1020 X107.759 Y104.365 E5.37837
G1 X107.956 Y104.844 E5.38153
;LAYER:3
G1 F2700 E0.88153
G0 F9000 X97.380 Y104.997 Z0.600
;TYPE:WALL-INNER
G1 F2700 E5.38153
G1 F900 X97.373 Y105.087 E5.38208
G1 X97.333 Y105.124 E5.38241
G1 X97.180 Y105.207 E5.38347
G1 X97.156 Y105.250 E5.38377
G1 X96.702 Y104.592 E5.38865
G1 X95.029 Y102.265 E5.40612
G1 X95.003 Y102.200 E5.40655
G1 X95.429 Y101.720 E5.41046
G1 X95.691 Y101.501 E5.41255
G1 X96.440 Y101.281 E5.41731
G1 X96.755 Y101.362 E5.41929
G1 X96.795 Y101.359 E5.41954
G1 X97.378 Y101.505 E5.42320
G1 X97.408 Y101.657 E5.42414
G1 X97.380 Y104.997 E5.44451
G0 F9000 X97.471 Y105.504
;TYPE:WALL-OUTER
G1 F900 X97.279 Y105.838 E5.44686
G1 X96.950 Y105.655 E5.44916
G1 X96.375 Y104.823 E5.45532
G1 X94.675 Y102.458 E5.47308
G1 X94.442 Y101.867 E5.47696
G1 X94.312 Y101.613 E5.47870
G1 X94.225 Y101.098 E5.48188
G1 X94.560 Y101.369 E5.48451
G1 X94.908 Y101.705 E5.48746
G1 X95.147 Y101.436 E5.48965
G1 X95.325 Y101.286 E5.49107
G1 X95.174 Y100.521 E5.49583
G1 X95.612 Y101.107 E5.50029
G1 X96.307 Y100.903 E5.50471
G1 X96.343 Y100.427 E5.50762
G1 X96.371 Y100.243 E5.50875
G1 X96.575 Y100.903 E5.51296
G1 X96.793 Y100.959 E5.51434
G1 X96.870 Y100.954 E5.51481
G1 X96.938 Y100.985 E5.51526
G1 X97.213 Y101.053 E5.51699
G1 X97.470 Y100.262 E5.52206
G1 X97.679 Y100.951 E5.52645
G1 X97.680 Y100.973 E5.52659
G1 X97.809 Y101.621 E5.53062
G1 X97.780 Y105.021 E5.55135
G1 X97.759 Y105.273 E5.55289
G1 X97.571 Y105.450 E5.55447
G1 X97.471 Y105.504 E5.55516
G0 F9000 X96.955 Y104.711
;TYPE:SKIN
G1 F900 X96.983 Y104.399 E5.55765
G1 X97.249 Y103.851 E5.56137
G0 F9000 X97.254 Y103.280
G1 F900 X96.485 Y104.050 E5.56800
G0 F9000 X96.248 Y103.721
G1 F900 X97.259 Y102.710 E5.57672
G0 F9000 X97.263 Y102.140
G1 F900 X96.012 Y103.391 E5.58751
G0 F9000 X95.775 Y103.062
G1 F900 X97.227 Y101.610 E5.60003
G0 F9000 X96.773 Y101.499
G1 F900 X95.538 Y102.734 E5.61068
G0 F9000 X95.301 Y102.405
G1 F900 X96.213 Y101.493 E5.61855
G1 F2700 E1.11855
G0 F9000 X107.592 Y101.660
;TYPE:WALL-INNER
G1 F2700 E5.61855
G1 F900 X107.611 Y101.563 E5.61915
G1 X108.178 Y101.359 E5.62282
G1 X108.243 Y101.364 E5.62322
G1 X108.559 Y101.280 E5.62521
G1 X109.310 Y101.501 E5.62999
G1 X109.571 Y101.720 E5.63206
G1 X109.997 Y102.200 E5.63598
G1 X109.972 Y102.264 E5.63640
G1 X108.301 Y104.589 E5.65386
G1 X107.872 Y105.197 E5.65839
G1 X107.842 Y105.243 E5.65873
G1 X107.822 Y105.209 E5.65897
G1 X107.668 Y105.125 E5.66004
G1 X107.628 Y105.087 E5.66038
G1 X107.592 Y101.660 E5.68127
G0 F9000 X108.206 Y100.960
;TYPE:WALL-OUTER
G1 F900 X108.423 Y100.902 E5.68264
G1 X108.630 Y100.255 E5.68679
G1 X108.693 Y100.903 E5.69076
G1 X109.383 Y101.105 E5.69514
G1 X109.824 Y100.532 E5.69955
G1 X109.675 Y101.286 E5.70424
G1 X109.853 Y101.436 E5.70566
G1 X110.092 Y101.705 E5.70785
G1 X110.771 Y101.089 E5.71344
G1 X110.688 Y101.611 E5.71666
G1 X110.558 Y101.865 E5.71840
G1 X110.325 Y102.458 E5.72229
G1 X108.627 Y104.821 E5.74003
G1 X108.202 Y105.423 E5.74452
G1 X108.045 Y105.660 E5.74626
G1 X107.721 Y105.839 E5.74852
G1 X107.531 Y105.506 E5.75085
G1 X107.430 Y105.451 E5.75155
G1 X107.242 Y105.273 E5.75313
G1 X107.191 Y101.621 E5.77540
G1 X107.318 Y100.980 E5.77939
G1 X107.320 Y100.959 E5.77952
G1 X107.530 Y100.244 E5.78406
G1 X107.788 Y101.074 E5.78936
G1 X108.123 Y100.953 E5.79153
