;Generated with Cura_SteamEngine DEV
M109 S210     ;Heatup to 210C
G21           ;metric values
G90           ;absolute positioning
G28           ;Home
G1 Z15.0 F300 ;move the platform down 15mm
G92 E0        ;zero the extruded length
G1 F200 E5    ;extrude 5mm of feed stock
G92 E0        ;zero the extruded length again

;Layer count: 219
;LAYER:0
M107
G0 F9000 X90.208 Y83.673 Z0.300
;TYPE:SKIRT
G1 F1200 X92.952 Y82.055 E0.08741
G1 X94.988 Y81.849 E0.14356
G1 X95.168 Y81.862 E0.14852
G1 X95.180 Y81.860 E0.14885
G1 X95.655 Y81.846 E0.16189
G1 X95.743 Y81.835 E0.16432
G1 X96.478 Y81.795 E0.18452
G1 X96.478 Y81.796 E0.18455
G1 X96.609 Y81.788 E0.18815
G1 X97.099 Y81.763 E0.20161
G1 X97.249 Y81.769 E0.20573
G1 X97.714 Y81.727 E0.21854
G1 X97.798 Y81.727 E0.22085
G1 X97.816 Y81.725 E0.22135
G1 X98.184 Y81.713 E0.23145
G1 X98.327 Y81.700 E0.23539
G1 X98.436 Y81.696 E0.23838
G1 X98.809 Y81.663 E0.24866
G1 X99.291 Y81.646 E0.26189
G1 X99.310 Y81.644 E0.26242
G1 X99.876 Y81.591 E0.27802
G1 X100.075 Y81.587 E0.28348
G1 X100.576 Y81.534 E0.29730
G1 X100.913 Y81.538 E0.30655
G1 X101.247 Y81.520 E0.31573
G1 X102.073 Y81.482 E0.33842
G1 X102.172 Y81.488 E0.34114
G1 X102.632 Y81.463 E0.35378
G1 X102.712 Y81.468 E0.35598
G1 X103.075 Y81.454 E0.36595
G1 X103.193 Y81.457 E0.36919
G1 X103.799 Y81.426 E0.38584
G1 X104.034 Y81.439 E0.39230
G1 X104.039 Y81.439 E0.39243
G1 X104.227 Y81.448 E0.39760
G1 X104.459 Y81.439 E0.40397
G1 X104.792 Y81.426 E0.41311
G1 X104.963 Y81.429 E0.41781
G1 X105.096 Y81.416 E0.42147
G1 X105.212 Y81.410 E0.42466
G1 X105.578 Y81.333 E0.43492
G1 X105.998 Y81.348 E0.44646
G1 X106.378 Y81.297 E0.45698
G1 X106.688 Y81.323 E0.46551
G1 X107.034 Y81.322 E0.47501
G1 X107.286 Y81.291 E0.48197
G1 X108.067 Y81.230 E0.50347
G1 X108.378 Y81.241 E0.51201
G1 X108.831 Y81.232 E0.52444
G1 X110.387 Y81.491 E0.56773
G1 X112.449 Y82.541 E0.63122
G1 X114.411 Y84.877 E0.71493
G1 X114.812 Y87.351 E0.78370
G1 X114.835 Y87.567 E0.78967
G1 X114.876 Y87.965 E0.80064
G1 X114.914 Y88.555 E0.81687
G1 X114.905 Y89.021 E0.82966
G1 X114.913 Y89.251 E0.83597
G1 X114.923 Y89.674 E0.84758
G1 X114.921 Y89.731 E0.84915
G1 X114.926 Y89.914 E0.85417
G1 X114.926 Y89.960 E0.85543
G1 X114.943 Y90.328 E0.86554
G1 X114.942 Y90.379 E0.86694
G1 X114.958 Y90.664 E0.87477
G1 X114.961 Y90.696 E0.87566
G1 X115.030 Y91.236 E0.89059
G1 X115.034 Y91.543 E0.89902
G1 X115.064 Y91.949 E0.91019
G1 X115.093 Y92.602 E0.92813
G1 X115.109 Y92.880 E0.93577
G1 X115.158 Y93.265 E0.94642
G1 X115.173 Y93.506 E0.95304
G1 X115.231 Y94.053 E0.96814
G1 X115.256 Y94.558 E0.98201
G1 X115.254 Y94.669 E0.98506
G1 X115.255 Y94.682 E0.98542
G1 X115.300 Y94.985 E0.99382
G1 X115.303 Y95.485 E1.00754
G1 X115.331 Y95.666 E1.01257
G1 X115.369 Y96.395 E1.03260
G1 X115.411 Y96.910 E1.04678
G1 X115.424 Y97.136 E1.05299
G1 X115.445 Y97.298 E1.05747
G1 X115.477 Y98.030 E1.07758
G1 X115.507 Y98.220 E1.08285
G1 X115.563 Y99.085 E1.10664
G1 X115.584 Y99.537 E1.11906
G1 X115.611 Y99.850 E1.12768
G1 X115.608 Y100.012 E1.13212
G1 X115.622 Y100.244 E1.13850
G1 X115.663 Y100.866 E1.15561
G1 X115.662 Y100.920 E1.15709
G1 X115.681 Y101.167 E1.16389
G1 X115.709 Y101.546 E1.17431
G1 X115.692 Y101.985 E1.18637
G1 X115.692 Y102.036 E1.18777
G1 X115.716 Y102.398 E1.19772
G1 X115.743 Y102.702 E1.20610
G1 X115.741 Y102.953 E1.21299
G1 X115.753 Y103.158 E1.21862
G1 X115.792 Y103.589 E1.23050
G1 X115.793 Y103.589 E1.23052
G1 X115.864 Y104.325 E1.25081
G1 X115.859 Y104.499 E1.25559
G1 X115.909 Y105.180 E1.27433
G1 X115.903 Y105.282 E1.27713
G1 X116.004 Y105.896 E1.29420
G1 X115.997 Y106.365 E1.30708
G1 X116.006 Y106.591 E1.31328
G1 X116.005 Y106.599 E1.31350
G1 X116.014 Y106.746 E1.31754
G1 X116.036 Y107.084 E1.32684
G1 X116.062 Y107.242 E1.33123
G1 X116.107 Y108.119 E1.35533
G1 X116.148 Y108.720 E1.37186
G1 X116.177 Y109.317 E1.38826
G1 X116.176 Y109.317 E1.38829
G1 X116.198 Y109.758 E1.40040
G1 X116.192 Y109.948 E1.40562
G1 X116.221 Y110.266 E1.41438
G1 X116.231 Y110.836 E1.43003
G1 X116.246 Y111.059 E1.43616
G1 X116.275 Y111.584 E1.45059
G1 X116.315 Y112.261 E1.46920
G1 X116.322 Y112.722 E1.48185
G1 X116.315 Y112.873 E1.48600
G1 X116.328 Y113.193 E1.49478
G1 X116.325 Y113.315 E1.49813
G1 X116.351 Y113.676 E1.50806
G1 X116.353 Y113.852 E1.51289
G1 X116.393 Y114.239 E1.52357
G1 X116.424 Y114.939 E1.54280
G1 X116.437 Y115.264 E1.55172
G1 X116.433 Y115.457 E1.55702
G1 X116.451 Y115.861 E1.56812
G1 X116.444 Y116.079 E1.57410
G1 X116.444 Y116.088 E1.57435
G1 X116.474 Y116.600 E1.58842
G1 X116.239 Y118.654 E1.64515
G1 X114.271 Y121.818 E1.74740
G1 X111.189 Y122.862 E1.83669
G1 X109.762 Y122.907 E1.87586
G1 X109.645 Y122.901 E1.87908
G1 X109.616 Y122.902 E1.87987
G1 X109.584 Y122.901 E1.88075
G1 X109.411 Y122.909 E1.88551
G1 X109.376 Y122.909 E1.88647
G1 X109.243 Y122.917 E1.89012
G1 X108.946 Y122.913 E1.89827
G1 X108.804 Y122.928 E1.90219
G1 X108.043 Y122.954 E1.92309
G1 X107.725 Y122.986 E1.93186
G1 X107.416 Y122.984 E1.94033
G1 X107.114 Y122.999 E1.94863
G1 X106.299 Y123.059 E1.97106
G1 X106.107 Y123.046 E1.97634
G1 X105.622 Y123.062 E1.98965
G1 X105.314 Y123.090 E1.99814
G1 X105.040 Y123.080 E2.00566
G1 X104.721 Y123.096 E2.01443
G1 X104.495 Y123.136 E2.02072
G1 X103.706 Y123.179 E2.04241
G1 X103.686 Y123.178 E2.04296
G1 X103.557 Y123.194 E2.04652
G1 X103.248 Y123.200 E2.05500
G1 X103.200 Y123.203 E2.05632
G1 X102.827 Y123.242 E2.06661
G1 X102.630 Y123.263 E2.07205
G1 X102.447 Y123.290 E2.07713
G1 X101.663 Y123.364 E2.09874
G1 X101.117 Y123.395 E2.11374
G1 X100.931 Y123.411 E2.11886
G1 X100.488 Y123.438 E2.13104
G1 X100.440 Y123.437 E2.13236
G1 X100.376 Y123.444 E2.13413
G1 X99.569 Y123.500 E2.15632
G1 X99.124 Y123.506 E2.16854
G1 X98.741 Y123.518 E2.17905
G1 X98.431 Y123.531 E2.18757
G1 X98.046 Y123.560 E2.19816
G1 X97.769 Y123.591 E2.20581
G1 X97.251 Y123.667 E2.22017
G1 X96.725 Y123.787 E2.23498
G1 X94.646 Y123.606 E2.29224
G1 X91.602 Y122.283 E2.38332
G1 X90.033 Y119.193 E2.47841
G1 X89.838 Y117.513 E2.52482
G1 X89.785 Y116.547 E2.55137
G1 X89.790 Y116.384 E2.55584
G1 X89.785 Y116.317 E2.55769
G1 X89.752 Y115.881 E2.56969
G1 X89.729 Y115.514 E2.57978
G1 X89.694 Y115.102 E2.59112
G1 X89.667 Y114.700 E2.60218
G1 X89.662 Y114.586 E2.60531
G1 X89.640 Y113.988 E2.62173
G1 X89.637 Y113.941 E2.62302
G1 X89.574 Y113.002 E2.64885
G1 X89.575 Y112.985 E2.64931
G1 X89.572 Y112.958 E2.65006
G1 X89.542 Y112.258 E2.66928
G1 X89.522 Y111.845 E2.68063
G1 X89.475 Y111.186 E2.69876
G1 X89.455 Y110.734 E2.71117
G1 X89.441 Y110.328 E2.72232
G1 X89.438 Y110.296 E2.72320
G1 X89.434 Y110.187 E2.72620
G1 X89.419 Y110.065 E2.72957
G1 X89.384 Y109.548 E2.74379
G1 X89.364 Y109.221 E2.75278
G1 X89.364 Y109.200 E2.75336
G1 X89.333 Y108.846 E2.76311
G1 X89.298 Y108.233 E2.77995
G1 X89.261 Y107.717 E2.79415
G1 X89.230 Y107.183 E2.80883
G1 X89.237 Y106.928 E2.81583
G1 X89.235 Y106.756 E2.82055
G1 X89.229 Y106.525 E2.82689
G1 X89.235 Y106.274 E2.83378
G1 X89.224 Y105.902 E2.84399
G1 X89.225 Y105.869 E2.84490
G1 X89.209 Y105.757 E2.84800
G1 X89.159 Y104.795 E2.87443
G1 X89.161 Y104.722 E2.87644
G1 X89.145 Y104.352 E2.88660
G1 X89.125 Y103.797 E2.90184
G1 X89.126 Y103.733 E2.90360
G1 X89.120 Y103.578 E2.90785
G1 X89.121 Y103.461 E2.91106
G1 X89.116 Y103.340 E2.91439
G1 X89.123 Y102.914 E2.92608
G1 X89.120 Y102.836 E2.92822
G1 X89.119 Y102.836 E2.92825
G1 X89.096 Y102.316 E2.94253
G1 X89.075 Y101.816 E2.95626
G1 X89.051 Y101.414 E2.96731
G1 X89.023 Y101.065 E2.97692
G1 X89.018 Y101.008 E2.97849
G1 X88.989 Y100.747 E2.98569
G1 X88.945 Y99.930 E3.00815
G1 X88.949 Y99.872 E3.00974
G1 X88.934 Y99.500 E3.01996
G1 X88.935 Y99.393 E3.02289
G1 X88.926 Y99.274 E3.02617
G1 X88.916 Y99.025 E3.03301
G1 X88.906 Y98.732 E3.04105
G1 X88.906 Y98.706 E3.04176
G1 X88.899 Y98.587 E3.04504
G1 X88.899 Y98.478 E3.04803
G1 X88.888 Y98.273 E3.05366
G1 X88.880 Y98.180 E3.05622
G1 X88.843 Y97.808 E3.06648
G1 X88.847 Y97.573 E3.07293
G1 X88.831 Y97.315 E3.08002
G1 X88.850 Y96.767 E3.09507
G1 X88.857 Y96.683 E3.09738
G1 X88.860 Y96.595 E3.09980
G1 X88.860 Y96.544 E3.10120
G1 X88.859 Y96.526 E3.10169
G1 X88.863 Y96.358 E3.10630
G1 X88.850 Y95.908 E3.11866
G1 X88.852 Y95.765 E3.12258
G1 X88.848 Y95.631 E3.12626
G1 X88.856 Y95.397 E3.13268
G1 X88.846 Y95.083 E3.14130
G1 X88.824 Y94.486 E3.15770
G1 X88.813 Y94.313 E3.16245
G1 X88.817 Y94.096 E3.16841
G1 X88.816 Y94.082 E3.16879
G1 X88.778 Y93.506 E3.18463
G1 X88.780 Y93.425 E3.18686
G1 X88.773 Y93.299 E3.19032
G1 X88.776 Y93.181 E3.19356
G1 X88.766 Y92.824 E3.20336
G1 X88.742 Y92.234 E3.21956
G1 X88.742 Y91.983 E3.22645
G1 X88.725 Y91.713 E3.23387
G1 X88.726 Y91.713 E3.23390
G1 X88.710 Y91.479 E3.24034
G1 X88.705 Y91.339 E3.24418
G1 X88.672 Y90.934 E3.25533
G1 X88.667 Y90.800 E3.25901
G1 X88.662 Y90.741 E3.26064
G1 X88.640 Y90.473 E3.26801
G1 X88.616 Y89.878 E3.28435
G1 X88.585 Y89.402 E3.29744
G1 X88.584 Y89.402 E3.29747
G1 X88.527 Y88.582 E3.32003
G1 X88.535 Y88.503 E3.32221
G1 X88.534 Y88.485 E3.32270
G1 X88.656 Y86.466 E3.37820
G1 X90.208 Y83.673 E3.46588
G1 F2700 E-1.03412
G0 F9000 X95.896 Y89.042
;TYPE:WALL-INNER
G1 F2700 E3.46588
G1 F1200 X96.207 Y89.032 E3.47442
G1 X96.994 Y88.978 E3.49606
G1 X97.126 Y88.971 E3.49969
G1 X97.148 Y88.972 E3.50030
G1 X97.310 Y88.970 E3.50474
G1 X97.486 Y88.978 E3.50958
G1 X98.040 Y88.927 E3.52484
G1 X98.329 Y88.912 E3.53278
G1 X98.503 Y88.915 E3.53756
G1 X98.786 Y88.888 E3.54536
G1 X99.636 Y88.838 E3.56872
G1 X100.286 Y88.784 E3.58662
G1 X100.416 Y88.788 E3.59019
G1 X100.921 Y88.739 E3.60411
G1 X101.059 Y88.740 E3.60790
G1 X101.608 Y88.711 E3.62299
G1 X102.036 Y88.691 E3.63474
G1 X102.170 Y88.698 E3.63842
G1 X102.614 Y88.674 E3.65063
G1 X102.722 Y88.681 E3.65360
G1 X103.117 Y88.657 E3.66445
G1 X103.293 Y88.662 E3.66929
G1 X103.780 Y88.637 E3.68267
G1 X103.970 Y88.647 E3.68789
G1 X103.999 Y88.646 E3.68868
G1 X104.192 Y88.655 E3.69399
G1 X104.862 Y88.628 E3.71239
G1 X105.252 Y88.635 E3.72309
G1 X105.725 Y88.592 E3.73612
G1 X105.774 Y88.593 E3.73747
G1 X105.809 Y88.592 E3.73843
G1 X105.887 Y88.594 E3.74057
G1 X106.195 Y88.560 E3.74907
G1 X106.349 Y88.566 E3.75330
G1 X106.555 Y88.538 E3.75900
G1 X106.693 Y88.550 E3.76281
G1 X106.968 Y88.522 E3.77039
G1 X107.068 Y88.521 E3.77314
G1 X107.417 Y88.528 E3.78271
G1 X107.693 Y88.494 E3.79034
G1 X107.709 Y88.711 E3.79632
G1 X107.703 Y89.072 E3.80622
G1 X107.717 Y89.453 E3.81668
G1 X107.720 Y89.652 E3.82215
G1 X107.719 Y89.721 E3.82404
G1 X107.725 Y89.986 E3.83131
G1 X107.724 Y90.093 E3.83425
G1 X107.741 Y90.451 E3.84408
G1 X107.740 Y90.533 E3.84633
G1 X107.773 Y91.126 E3.86263
G1 X107.836 Y91.743 E3.87965
G1 X107.834 Y91.795 E3.88108
G1 X107.876 Y92.381 E3.89720
G1 X107.902 Y92.974 E3.91349
G1 X107.936 Y93.548 E3.92926
G1 X107.998 Y94.125 E3.94519
G1 X108.054 Y94.682 E3.96055
G1 X108.052 Y94.811 E3.96409
G1 X108.084 Y95.407 E3.98047
G1 X108.103 Y95.538 E3.98410
G1 X108.104 Y95.637 E3.98682
G1 X108.090 Y95.951 E3.99544
G1 X108.160 Y96.407 E4.00810
G1 X108.227 Y97.401 E4.03544
G1 X108.266 Y97.922 E4.04977
G1 X108.288 Y98.422 E4.06351
G1 X108.301 Y98.739 E4.07221
G1 X108.344 Y99.011 E4.07977
G1 X108.399 Y100.008 E4.10717
G1 X108.407 Y100.102 E4.10976
G1 X108.406 Y100.164 E4.11146
G1 X108.438 Y100.718 E4.12669
G1 X108.458 Y101.026 E4.13516
G1 X108.456 Y101.128 E4.13796
G1 X108.499 Y101.670 E4.15288
G1 X108.490 Y101.906 E4.15936
G1 X108.496 Y102.331 E4.17102
G1 X108.536 Y102.937 E4.18768
G1 X108.541 Y102.990 E4.18915
G1 X108.540 Y103.117 E4.19263
G1 X108.571 Y103.687 E4.20829
G1 X108.626 Y104.281 E4.22466
G1 X108.655 Y104.579 E4.23288
G1 X108.647 Y104.898 E4.24164
G1 X108.692 Y105.242 E4.25116
G1 X108.689 Y105.300 E4.25275
G1 X108.725 Y106.007 E4.27217
G1 X108.796 Y106.439 E4.28419
G1 X108.798 Y106.509 E4.28611
G1 X108.793 Y106.585 E4.28820
G1 X108.829 Y107.213 E4.30546
G1 X108.842 Y107.412 E4.31093
G1 X108.841 Y107.538 E4.31439
G1 X108.920 Y108.550 E4.34224
G1 X108.959 Y109.130 E4.35819
G1 X108.993 Y109.820 E4.37715
G1 X108.981 Y110.158 E4.38643
G1 X109.026 Y110.654 E4.40010
G1 X109.032 Y110.945 E4.40808
G1 X109.029 Y111.044 E4.41080
G1 X109.087 Y112.007 E4.43728
G1 X109.118 Y112.511 E4.45113
G1 X109.120 Y112.610 E4.45385
G1 X109.108 Y112.852 E4.46050
G1 X109.125 Y113.255 E4.47157
G1 X109.123 Y113.347 E4.47409
G1 X109.124 Y113.468 E4.47741
G1 X109.122 Y113.514 E4.47867
G1 X109.154 Y113.978 E4.49144
G1 X109.157 Y114.158 E4.49638
G1 X109.153 Y114.212 E4.49786
G1 X109.209 Y114.760 E4.51298
G1 X109.234 Y115.327 E4.52855
G1 X109.230 Y115.539 E4.53437
G1 X109.237 Y115.706 E4.53896
G1 X109.071 Y115.714 E4.54352
G1 X108.624 Y115.705 E4.55579
G1 X108.280 Y115.743 E4.56528
G1 X107.935 Y115.755 E4.57475
G1 X107.751 Y115.747 E4.57981
G1 X107.383 Y115.784 E4.58996
G1 X107.257 Y115.783 E4.59341
G1 X106.687 Y115.811 E4.60907
G1 X106.278 Y115.841 E4.62033
G1 X106.137 Y115.831 E4.62421
G1 X105.619 Y115.859 E4.63844
G1 X105.422 Y115.850 E4.64385
G1 X105.109 Y115.879 E4.65248
G1 X104.979 Y115.874 E4.65605
G1 X104.446 Y115.901 E4.67069
G1 X104.143 Y115.888 E4.67901
G1 X103.689 Y115.968 E4.69166
G1 X103.503 Y115.958 E4.69678
G1 X103.046 Y116.002 E4.70937
G1 X102.983 Y116.000 E4.71110
G1 X102.747 Y116.017 E4.71760
G1 X102.708 Y116.015 E4.71867
G1 X102.078 Y116.081 E4.73605
G1 X101.578 Y116.140 E4.74986
G1 X100.828 Y116.199 E4.77051
G1 X100.778 Y116.197 E4.77188
G1 X100.354 Y116.233 E4.78356
G1 X100.218 Y116.231 E4.78729
G1 X99.271 Y116.303 E4.81335
G1 X99.104 Y116.306 E4.81793
G1 X99.073 Y116.304 E4.81879
G1 X98.514 Y116.322 E4.83413
G1 X97.994 Y116.343 E4.84841
G1 X97.383 Y116.390 E4.86523
G1 X96.992 Y116.433 E4.87602
G1 X96.998 Y116.225 E4.88173
G1 X96.934 Y115.378 E4.90504
G1 X96.919 Y115.131 E4.91183
G1 X96.921 Y115.105 E4.91255
G1 X96.873 Y114.546 E4.92794
G1 X96.837 Y113.799 E4.94846
G1 X96.839 Y113.766 E4.94937
G1 X96.781 Y112.864 E4.97417
G1 X96.784 Y112.746 E4.97741
G1 X96.735 Y111.948 E4.99935
G1 X96.709 Y111.402 E5.01435
G1 X96.663 Y110.752 E5.03223
G1 X96.636 Y110.069 E5.05099
G1 X96.606 Y109.522 E5.06602
G1 X96.562 Y108.973 E5.08113
G1 X96.561 Y108.847 E5.08459
G1 X96.514 Y108.313 E5.09930
G1 X96.446 Y107.251 E5.12850
G1 X96.436 Y107.069 E5.13350
G1 X96.438 Y106.976 E5.13606
G1 X96.437 Y106.908 E5.13792
G1 X96.440 Y106.860 E5.13924
G1 X96.432 Y106.521 E5.14855
G1 X96.437 Y106.272 E5.15538
G1 X96.427 Y105.886 E5.16598
G1 X96.429 Y105.772 E5.16910
G1 X96.404 Y105.219 E5.18429
G1 X96.364 Y104.690 E5.19885
G1 X96.339 Y104.068 E5.21593
G1 X96.327 Y103.744 E5.22483
G1 X96.328 Y103.649 E5.22744
G1 X96.321 Y103.474 E5.23224
G1 X96.322 Y103.345 E5.23578
G1 X96.318 Y103.255 E5.23825
G1 X96.324 Y102.855 E5.24923
G1 X96.289 Y102.002 E5.27266
G1 X96.267 Y101.466 E5.28738
G1 X96.236 Y100.945 E5.30170
G1 X96.194 Y100.421 E5.31612
G1 X96.152 Y99.793 E5.33340
G1 X96.135 Y99.386 E5.34457
G1 X96.136 Y99.271 E5.34773
G1 X96.111 Y98.753 E5.36196
G1 X96.095 Y98.239 E5.37607
G1 X96.052 Y97.540 E5.39529
G1 X96.039 Y97.204 E5.40451
G1 X96.055 Y96.918 E5.41238
G1 X96.054 Y96.872 E5.41364
G1 X96.068 Y96.560 E5.42221
G1 X96.064 Y96.462 E5.42490
G1 X96.066 Y96.354 E5.42786
G1 X96.051 Y95.828 E5.44230
G1 X96.053 Y95.694 E5.44598
G1 X96.051 Y95.627 E5.44782
G1 X96.059 Y95.401 E5.45402
G1 X96.041 Y94.817 E5.47006
G1 X96.016 Y94.146 E5.48848
G1 X96.017 Y94.098 E5.48980
G1 X96.016 Y94.040 E5.49139
G1 X96.017 Y93.860 E5.49633
G1 X95.984 Y93.358 E5.51014
G1 X95.985 Y93.317 E5.51126
G1 X95.964 Y92.622 E5.53034
G1 X95.942 Y92.095 E5.54481
G1 X95.911 Y91.259 E5.56777
G1 X95.860 Y90.499 E5.58867
G1 X95.808 Y89.528 E5.61535
G1 X95.777 Y89.062 E5.62817
G1 X95.896 Y89.042 E5.63148
G0 F9000 X95.449 Y88.492
;TYPE:WALL-OUTER
G1 F1200 X95.842 Y88.443 E5.64235
G1 X96.161 Y88.433 E5.65111
G1 X96.324 Y88.414 E5.65561
G1 X97.123 Y88.371 E5.67756
G1 X97.158 Y88.372 E5.67853
G1 X97.311 Y88.370 E5.68272
G1 X97.471 Y88.377 E5.68712
G1 X98.017 Y88.327 E5.70216
G1 X98.327 Y88.312 E5.71068
G1 X98.480 Y88.314 E5.71488
G1 X99.221 Y88.253 E5.73528
G1 X99.851 Y88.223 E5.75259
G1 X100.331 Y88.183 E5.76581
G1 X100.406 Y88.187 E5.76787
G1 X100.885 Y88.138 E5.78108
G1 X101.046 Y88.140 E5.78550
G1 X101.576 Y88.112 E5.80006
G1 X102.041 Y88.091 E5.81283
G1 X102.170 Y88.097 E5.81638
