;Generated with Cura_SteamEngine DEV
M109 S210     ;Heatup to 210C
G21           ;metric values
G90           ;absolute positioning
G28           ;Home
G1 Z15.0 F300 ;move the platform down 15mm
G92 E0        ;zero the extruded length
G1 F200 E5    ;extrude 5mm of feed stock
G92 E0        ;zero the extruded length again

;Layer count: 298
;LAYER:0
M107
G0 F9000 X92.300 Y97.061 Z0.300
;TYPE:SKIRT
G1 F1200 X94.797 Y95.096 E0.08719
G1 X95.446 Y94.613 E0.10939
G1 X95.568 Y94.522 E0.11357
G1 X96.390 Y93.938 E0.14123
G1 X96.995 Y93.523 E0.16137
G1 X99.127 Y92.116 E0.23146
G1 X101.717 Y92.394 E0.30294
G1 X102.520 Y92.515 E0.32522
G1 X102.601 Y92.527 E0.32747
G1 X103.149 Y92.611 E0.34268
G1 X103.917 Y92.733 E0.36402
G1 X104.369 Y92.797 E0.37655
G1 X105.293 Y92.928 E0.40215
G1 X107.802 Y93.834 E0.47535
G1 X109.280 Y95.682 E0.54029
G1 X109.658 Y96.162 E0.55705
G1 X110.023 Y96.647 E0.57371
G1 X110.322 Y97.026 E0.58695
G1 X110.693 Y97.513 E0.60375
G1 X111.098 Y98.058 E0.62239
G1 X112.428 Y100.227 E0.69220
G1 X112.143 Y102.954 E0.76744
G1 X111.979 Y104.228 E0.80269
G1 X111.847 Y105.095 E0.82675
G1 X111.640 Y106.148 E0.85620
G1 X111.586 Y106.400 E0.86327
G1 X111.585 Y106.400 E0.86330
G1 X111.280 Y107.829 E0.90339
G1 X110.133 Y109.797 E0.96590
G1 X108.637 Y111.026 E1.01902
G1 X108.074 Y111.472 E1.03873
G1 X107.590 Y111.846 E1.05552
G1 X106.963 Y112.325 E1.07717
G1 X104.397 Y114.056 E1.16210
G1 X101.318 Y113.701 E1.24715
G1 X100.663 Y113.594 E1.26536
G1 X100.005 Y113.502 E1.28359
G1 X99.239 Y113.390 E1.30484
G1 X98.520 Y113.272 E1.32483
G1 X95.902 Y112.725 E1.39822
G1 X94.184 Y110.340 E1.47888
G1 X93.899 Y109.963 E1.49184
G1 X93.476 Y109.393 E1.51132
G1 X93.104 Y108.869 E1.52896
G1 X92.610 Y108.160 E1.55267
G1 X91.188 Y105.935 E1.62513
G1 X91.445 Y102.705 E1.71404
G1 X91.533 Y101.891 E1.73650
G1 X91.619 Y101.124 E1.75768
G1 X91.707 Y100.429 E1.77691
G1 X91.798 Y99.753 E1.79562
G1 X92.300 Y97.061 E1.87076
G1 F2700 E-2.62924
G0 F9000 X98.846 Y101.368
;TYPE:WALL-INNER
G1 F2700 E1.87076
G1 F1200 X98.891 Y101.037 E1.87993
G1 X99.184 Y100.806 E1.89017
G1 X99.765 Y100.374 E1.91004
G1 X100.517 Y99.838 E1.93538
G1 X100.927 Y99.557 E1.94902
G1 X101.450 Y99.635 E1.96353
G1 X102.040 Y99.725 E1.97990
G1 X102.857 Y99.855 E2.00260
G1 X103.363 Y99.926 E2.01662
G1 X103.466 Y99.941 E2.01948
G1 X103.960 Y100.564 E2.04130
G1 X104.306 Y101.024 E2.05709
G1 X104.624 Y101.427 E2.07118
G1 X104.935 Y101.836 E2.08528
G1 X105.010 Y101.937 E2.08873
G1 X104.850 Y103.214 E2.12404
G1 X104.751 Y103.864 E2.14209
G1 X104.588 Y104.693 E2.16527
G1 X104.499 Y105.108 E2.17692
G1 X104.124 Y105.417 E2.19025
G1 X103.634 Y105.803 E2.20737
G1 X103.202 Y106.137 E2.22235
G1 X102.752 Y106.482 E2.23791
G1 X102.578 Y106.599 E2.24366
G1 X101.719 Y106.471 E2.26749
G1 X101.026 Y106.375 E2.28669
G1 X100.335 Y106.273 E2.30586
G1 X100.100 Y106.235 E2.31239
G1 X99.662 Y105.647 E2.33251
G1 X99.297 Y105.155 E2.34932
G1 X98.991 Y104.724 E2.36382
G1 X98.591 Y104.149 E2.38304
G1 X98.557 Y104.095 E2.38480
G1 X98.613 Y103.390 E2.40420
G1 X98.690 Y102.677 E2.42388
G1 X98.766 Y101.988 E2.44290
G1 X98.846 Y101.368 E2.46006
G0 F9000 X98.252 Y101.286
;TYPE:WALL-OUTER
G1 F1200 X98.333 Y100.713 E2.47594
G1 X98.813 Y100.335 E2.49270
G1 X99.406 Y99.893 E2.51300
G1 X100.170 Y99.349 E2.53873
G1 X100.682 Y98.997 E2.55578
G1 X100.781 Y98.931 E2.55905
G1 X101.537 Y99.042 E2.58001
G1 X102.131 Y99.132 E2.59650
G1 X102.946 Y99.262 E2.61914
G1 X103.692 Y99.367 E2.63982
G1 X103.810 Y99.410 E2.64326
G1 X104.111 Y99.785 E2.65646
G1 X104.431 Y100.193 E2.67069
G1 X104.781 Y100.658 E2.68666
G1 X105.102 Y101.064 E2.70086
G1 X105.416 Y101.478 E2.71512
G1 X105.631 Y101.769 E2.72504
G1 X105.588 Y102.186 E2.73655
G1 X105.443 Y103.305 E2.76751
G1 X105.342 Y103.966 E2.78586
G1 X105.175 Y104.818 E2.80968
G1 X105.047 Y105.417 E2.82649
G1 X105.028 Y105.449 E2.82751
G1 X104.496 Y105.887 E2.84642
G1 X104.010 Y106.272 E2.86343
G1 X103.567 Y106.614 E2.87879
G1 X103.116 Y106.959 E2.89437
G1 X102.729 Y107.220 E2.90718
G1 X102.231 Y107.163 E2.92094
G1 X101.629 Y107.064 E2.93768
G1 X100.939 Y106.968 E2.95679
G1 X100.248 Y106.867 E2.97595
G1 X99.758 Y106.787 E2.98958
G1 X99.183 Y106.008 E3.01615
G1 X98.815 Y105.512 E3.03309
G1 X98.502 Y105.071 E3.04793
G1 X98.104 Y104.501 E3.06701
G1 X97.943 Y104.248 E3.07524
G1 X98.016 Y103.325 E3.10065
G1 X98.093 Y102.613 E3.12030
G1 X98.171 Y101.912 E3.13965
G1 X98.252 Y101.286 E3.15697
G0 F9000 X99.079 Y101.201
;TYPE:SKIN
G1 F1200 X103.511 Y105.632 E3.32894
G0 F9000 X103.984 Y105.257
G1 F1200 X99.534 Y100.807 E3.50163
G0 F9000 X98.980 Y101.949
G1 F1200 X103.032 Y106.002 E3.65889
G0 F9000 X102.547 Y106.365
G1 F1200 X98.896 Y102.715 E3.80055
G0 F9000 X98.815 Y103.482
G1 F1200 X101.572 Y106.239 E3.90754
G0 F9000 X100.580 Y106.095
G1 F1200 X99.349 Y104.865 E3.95529
G0 F9000 X100.023 Y100.447
G1 F1200 X104.355 Y104.779 E4.12340
G0 F9000 X104.496 Y104.071
G1 F1200 X100.518 Y100.094 E4.27775
G0 F9000 X101.063 Y99.790
G1 F1200 X104.617 Y103.344 E4.41567
G0 F9000 X104.715 Y102.594
G1 F1200 X102.061 Y99.940 E4.51866
G0 F9000 X103.066 Y100.096
G1 F1200 X104.201 Y101.231 E4.56271
;LAYER:1
M106 S127
G0 F9000 X104.724 Y101.072 Z0.400
;TYPE:WALL-INNER
G1 F1620 X105.073 Y101.530 E4.56622
G1 X105.317 Y101.869 E4.56877
G1 X105.263 Y102.392 E4.57197
G1 X105.177 Y103.052 E4.57603
G1 X105.084 Y103.664 E4.57981
G1 X104.925 Y104.478 E4.58486
G1 X104.798 Y105.058 E4.58848
G1 X104.749 Y105.295 E4.58996
G1 X103.516 Y106.275 E4.59956
G1 X102.902 Y106.745 E4.60428
G1 X102.669 Y106.913 E4.60603
G1 X101.692 Y106.782 E4.61204
G1 X101.141 Y106.702 E4.61544
G1 X99.930 Y106.515 E4.62291
G1 X99.349 Y105.736 E4.62884
G1 X98.971 Y105.206 E4.63281
G1 X98.685 Y104.793 E4.63587
G1 X98.358 Y104.334 E4.63930
G1 X98.252 Y104.172 E4.64049
G1 X98.310 Y103.460 E4.64484
G1 X98.371 Y102.860 E4.64852
G1 X98.481 Y101.882 E4.65452
G1 X98.547 Y101.385 E4.65758
G1 X98.612 Y100.879 E4.66069
G1 X99.544 Y100.169 E4.66783
G1 X99.949 Y99.875 E4.67088
G1 X100.376 Y99.574 E4.67407
G1 X100.798 Y99.281 E4.67720
G1 X100.846 Y99.249 E4.67755
G1 X101.466 Y99.332 E4.68137
G1 X101.986 Y99.408 E4.68457
G1 X102.528 Y99.505 E4.68793
G1 X103.233 Y99.607 E4.69227
G1 X103.547 Y99.649 E4.69421
G1 X103.652 Y99.687 E4.69489
G1 X104.374 Y100.612 E4.70204
G1 X104.724 Y101.072 E4.70557
G0 F9000 X104.693 Y100.370
;TYPE:WALL-OUTER
G1 F1620 X105.388 Y101.283 E4.71256
G1 X105.730 Y101.760 E4.71614
G1 X105.660 Y102.444 E4.72034
G1 X105.573 Y103.112 E4.72444
G1 X105.475 Y103.749 E4.72837
G1 X105.316 Y104.563 E4.73343
G1 X105.189 Y105.141 E4.73704
G1 X105.112 Y105.514 E4.73936
G1 X103.759 Y106.592 E4.74991
G1 X103.131 Y107.073 E4.75473
G1 X102.764 Y107.325 E4.75745
G1 X102.169 Y107.260 E4.76110
G1 X101.633 Y107.177 E4.76441
G1 X100.701 Y107.042 E4.77015
G1 X99.852 Y106.908 E4.77539
G1 X99.700 Y106.880 E4.77633
G1 X99.400 Y106.464 E4.77946
G1 X99.030 Y105.978 E4.78318
G1 X98.644 Y105.436 E4.78724
G1 X98.358 Y105.023 E4.79031
G1 X98.032 Y104.566 E4.79373
G1 X97.842 Y104.276 E4.79584
G1 X97.912 Y103.419 E4.80109
G1 X97.974 Y102.815 E4.80479
G1 X98.085 Y101.825 E4.81086
G1 X98.223 Y100.762 E4.81740
G1 X98.252 Y100.655 E4.81808
G1 X98.722 Y100.279 E4.82175
G1 X99.311 Y99.844 E4.82621
G1 X99.720 Y99.547 E4.82929
G1 X100.148 Y99.245 E4.83249
G1 X100.576 Y98.948 E4.83566
G1 X100.750 Y98.832 E4.83694
G1 X101.524 Y98.936 E4.84170
G1 X102.056 Y99.014 E4.84498
G1 X102.592 Y99.110 E4.84830
G1 X103.288 Y99.211 E4.85259
G1 X103.643 Y99.258 E4.85477
G1 X103.893 Y99.349 E4.85639
G1 X104.693 Y100.370 E4.86430
G0 F9000 X104.301 Y100.759
;TYPE:SKIN
G1 F1620 X99.441 Y105.619 E4.90621
G0 F9000 X99.681 Y105.945
G1 F1620 X104.547 Y101.078 E4.94818
G0 F9000 X104.793 Y101.398
G1 F1620 X99.922 Y106.269 E4.99019
G0 F9000 X99.206 Y105.288
G1 F1620 X104.055 Y100.440 E5.03200
G0 F9000 X103.808 Y100.120
G1 F1620 X98.971 Y104.957 E5.07371
G0 F9000 X98.737 Y104.626
G1 F1620 X103.560 Y99.803 E5.11530
G0 F9000 X103.074 Y99.723
G1 F1620 X98.502 Y104.295 E5.15473
G0 F9000 X98.422 Y103.810
G1 F1620 X102.579 Y99.652 E5.19058
G0 F9000 X102.097 Y99.569
G1 F1620 X98.480 Y103.186 E5.22177
G0 F9000 X98.548 Y102.552
G1 F1620 X101.604 Y99.496 E5.24813
G0 F9000 X101.109 Y99.426
G1 F1620 X98.617 Y101.918 E5.26962
G0 F9000 X98.701 Y101.268
G1 F1620 X99.844 Y100.125 E5.27948
G0 F9000 X105.037 Y101.720
G1 F1620 X100.324 Y106.433 E5.32012
G0 F9000 X100.814 Y106.509
G1 F1620 X105.143 Y102.180 E5.35745
G0 F9000 X105.065 Y102.823
G1 F1620 X101.306 Y106.582 E5.38987
G0 F9000 X101.803 Y106.651
G1 F1620 X104.967 Y103.487 E5.41715
G0 F9000 X104.839 Y104.180
G1 F1620 X102.299 Y106.720 E5.43906
G0 F9000 X103.400 Y106.185
G1 F1620 X104.689 Y104.897 E5.45017
;LAYER:2
M106 S255
G0 F9000 X104.754 Y104.824 Z0.500
;TYPE:WALL-INNER
G1 F1680 X104.723 Y104.953 E5.45098
G1 X104.624 Y105.145 E5.45229
G1 X104.286 Y105.476 E5.45518
G1 X103.197 Y106.325 E5.46360
G1 X102.638 Y106.692 E5.46768
G1 X102.339 Y106.699 E5.46950
G1 X102.094 Y106.731 E5.47101
G1 X101.788 Y106.713 E5.47287
G1 X100.522 Y106.500 E5.48070
G1 X100.435 Y106.495 E5.48123
G1 X100.066 Y106.383 E5.48359
G1 X99.910 Y106.286 E5.48471
G1 X99.874 Y106.225 E5.48514
G1 X99.700 Y106.084 E5.48650
G1 X99.631 Y105.991 E5.48721
G1 X99.413 Y105.777 E5.48907
G1 X99.079 Y105.334 E5.49246
G1 X98.641 Y104.712 E5.49709
G1 X98.254 Y104.171 E5.50115
G1 X98.339 Y103.194 E5.50713
G1 X98.398 Y102.610 E5.51071
G1 X98.585 Y101.099 E5.51999
G1 X98.629 Y100.874 E5.52139
G1 X99.125 Y100.485 E5.52524
G1 X99.582 Y100.147 E5.52870
G1 X100.704 Y99.345 E5.53711
G1 X100.844 Y99.251 E5.53814
G1 X101.677 Y99.362 E5.54326
G1 X102.091 Y99.439 E5.54583
G1 X102.170 Y99.446 E5.54632
G1 X102.779 Y99.567 E5.55010
G1 X103.199 Y99.694 E5.55278
G1 X103.233 Y99.695 E5.55299
G1 X103.740 Y99.990 E5.55656
G1 X104.000 Y100.278 E5.55893
G1 X104.273 Y100.672 E5.56185
G1 X104.405 Y100.933 E5.56363
G1 X104.685 Y101.354 E5.56672
G1 X104.966 Y101.725 E5.56956
G1 X105.124 Y102.097 E5.57202
G1 X105.224 Y102.272 E5.57325
G1 X105.215 Y102.421 E5.57416
G1 X105.138 Y102.730 E5.57610
G1 X105.071 Y103.303 E5.57962
G1 X105.079 Y103.520 E5.58094
G1 X105.064 Y103.674 E5.58189
G1 X104.754 Y104.824 E5.58915
G0 F9000 X104.795 Y105.532
;TYPE:WALL-OUTER
G1 F1680 X104.743 Y105.596 E5.58965
G1 X104.161 Y106.091 E5.59431
G1 X103.438 Y106.644 E5.59986
G1 X102.761 Y107.089 E5.60480
G1 X102.370 Y107.098 E5.60719
G1 X102.111 Y107.132 E5.60878
G1 X101.734 Y107.110 E5.61108
G1 X100.477 Y106.898 E5.61886
G1 X100.363 Y106.891 E5.61955
G1 X99.902 Y106.751 E5.62249
G1 X99.615 Y106.572 E5.62455
G1 X99.566 Y106.490 E5.62513
G1 X99.408 Y106.360 E5.62638
G1 X99.329 Y106.255 E5.62718
G1 X99.110 Y106.040 E5.62906
G1 X98.760 Y105.575 E5.63260
G1 X98.315 Y104.944 E5.63731
G1 X97.915 Y104.385 E5.64150
G1 X97.843 Y104.276 E5.64230
G1 X97.894 Y103.672 E5.64600
G1 X97.941 Y103.154 E5.64917
G1 X98.000 Y102.570 E5.65275
G1 X98.189 Y101.045 E5.66212
G1 X98.271 Y100.648 E5.66459
G1 X98.887 Y100.164 E5.66937
G1 X99.349 Y99.822 E5.67287
G1 X100.486 Y99.009 E5.68140
G1 X100.747 Y98.834 E5.68331
G1 X101.729 Y98.965 E5.68935
G1 X102.148 Y99.042 E5.69195
G1 X102.226 Y99.049 E5.69243
G1 X102.877 Y99.178 E5.69647
G1 X103.262 Y99.295 E5.69893
G1 X103.345 Y99.297 E5.69943
G1 X103.996 Y99.677 E5.70403
G1 X104.315 Y100.030 E5.70693
G1 X104.618 Y100.467 E5.71018
G1 X104.751 Y100.731 E5.71198
G1 X105.011 Y101.122 E5.71484
G1 X105.317 Y101.524 E5.71792
G1 X105.478 Y101.910 E5.72047
G1 X105.614 Y102.149 E5.72215
G1 X105.627 Y102.230 E5.72265
G1 X105.612 Y102.483 E5.72419
G1 X105.533 Y102.797 E5.72617
G1 X105.472 Y103.328 E5.72943
G1 X105.480 Y103.532 E5.73067
G1 X105.459 Y103.742 E5.73196
G1 X105.326 Y104.258 E5.73521
G1 X105.141 Y104.924 E5.73942
G1 X105.101 Y105.094 E5.74049
G1 X104.947 Y105.391 E5.74253
G1 X104.795 Y105.532 E5.74379
G0 F9000 X104.359 Y105.207
;TYPE:SKIN
G1 F1680 X99.521 Y100.370 E5.78551
G0 F9000 X99.193 Y100.607
G1 F1680 X104.059 Y105.473 E5.82747
G0 F9000 X103.741 Y105.721
G1 F1680 X98.876 Y100.856 E5.86943
G0 F9000 X98.706 Y101.252
G1 F1680 X103.423 Y105.969 E5.91010
G0 F9000 X103.105 Y106.216
G1 F1680 X98.643 Y101.754 E5.94858
G0 F9000 X98.581 Y102.258
G1 F1680 X102.763 Y106.440 E5.98465
G0 F9000 X102.316 Y106.558
G1 F1680 X98.522 Y102.765 E6.01736
G0 F9000 X98.475 Y103.283
G1 F1680 X101.756 Y106.565 E6.04566
G0 F9000 X101.076 Y106.450
G1 F1680 X98.427 Y103.801 E6.06850
G0 F9000 X98.900 Y104.839
G1 F1680 X100.396 Y106.336 E6.08141
G0 F9000 X104.596 Y104.879
G1 F1680 X99.850 Y100.133 E6.12234
G0 F9000 X100.179 Y99.896
G1 F1680 X104.714 Y104.431 E6.16144
G0 F9000 X104.834 Y103.986
G1 F1680 X100.507 Y99.658 E6.19876
G0 F9000 X100.837 Y99.423
G1 F1680 X104.938 Y103.523 E6.23412
G0 F9000 X104.967 Y102.987
G1 F1680 X101.454 Y99.474 E6.26442
G0 F9000 X102.128 Y99.583
G1 F1680 X105.049 Y102.504 E6.28961
G0 F9000 X104.644 Y101.533
G1 F1680 X102.845 Y99.733 E6.30513
;LAYER:3
G0 F9000 X102.880 Y99.638 Z0.600
;TYPE:WALL-INNER
G1 F1560 X103.027 Y99.678 E6.30605
G1 X103.507 Y99.888 E6.30925
G1 X103.721 Y100.017 E6.31077
G1 X103.889 Y100.199 E6.31228
G1 X104.161 Y100.567 E6.31507
G1 X104.387 Y101.022 E6.31817
G1 X104.631 Y101.410 E6.32097
G1 X104.907 Y101.766 E6.32371
G1 X105.060 Y102.080 E6.32584
G1 X105.111 Y102.226 E6.32679
G1 X105.115 Y102.374 E6.32769
G1 X105.105 Y102.477 E6.32832
G1 X105.012 Y102.876 E6.33082
G1 X104.990 Y103.101 E6.33220
G1 X105.001 Y103.430 E6.33420
G1 X104.926 Y103.996 E6.33769
G1 X104.892 Y104.072 E6.33819
G1 X104.618 Y104.935 E6.34372
G1 X104.511 Y105.169 E6.34528
G1 X104.410 Y105.300 E6.34629
G1 X103.641 Y105.956 E6.35246
G1 X103.152 Y106.324 E6.35619
G1 X102.665 Y106.644 E6.35974
G1 X102.420 Y106.650 E6.36124
G1 X102.188 Y106.688 E6.36267
G1 X102.138 Y106.690 E6.36297
G1 X101.241 Y106.571 E6.36849
G1 X100.834 Y106.511 E6.37100
G1 X100.647 Y106.465 E6.37218
G1 X100.223 Y106.314 E6.37492
G1 X99.966 Y106.163 E6.37674
G1 X99.630 Y105.915 E6.37928
G1 X99.345 Y105.570 E6.38201
G1 X99.018 Y105.065 E6.38568
G1 X98.723 Y104.588 E6.38910
G1 X98.474 Y104.190 E6.39196
G1 X98.467 Y104.171 E6.39209
G1 X98.441 Y103.872 E6.39392
G1 X98.475 Y103.321 E6.39728
G1 X98.473 Y103.276 E6.39756
G1 X98.485 Y102.947 E6.39957
G1 X98.484 Y102.936 E6.39963
G1 X98.554 Y102.187 E6.40422
G1 X98.616 Y101.766 E6.40682
G1 X98.743 Y101.271 E6.40993
G1 X98.782 Y101.044 E6.41134
G1 X98.887 Y100.873 E6.41256
G1 X99.176 Y100.543 E6.41523
G1 X99.308 Y100.443 E6.41624
G1 X99.476 Y100.277 E6.41768
G1 X99.943 Y99.960 E6.42113
G1 X100.216 Y99.770 E6.42315
G1 X100.657 Y99.566 E6.42612
G1 X100.954 Y99.505 E6.42797
G1 X101.375 Y99.494 E6.43053
G1 X101.655 Y99.507 E6.43224
G1 X102.029 Y99.486 E6.43453
G1 X102.294 Y99.505 E6.43615
G1 X102.880 Y99.638 E6.43981
G0 F9000 X102.974 Y99.249
;TYPE:WALL-OUTER
G1 F1560 X103.166 Y99.302 E6.44103
G1 X103.693 Y99.532 E6.44453
G1 X103.975 Y99.702 E6.44654
G1 X104.207 Y99.954 E6.44863
G1 X104.297 Y100.095 E6.44965
G1 X104.503 Y100.356 E6.45168
G1 X104.736 Y100.826 E6.45488
G1 X104.959 Y101.180 E6.45743
G1 X105.249 Y101.553 E6.46031
G1 X105.429 Y101.926 E6.46283
G1 X105.509 Y102.153 E6.46430
G1 X105.516 Y102.386 E6.46572
G1 X105.500 Y102.539 E6.46666
G1 X105.407 Y102.941 E6.46918
G1 X105.391 Y103.113 E6.47023
G1 X105.403 Y103.447 E6.47227
G1 X105.371 Y103.702 E6.47384
G1 X105.364 Y103.846 E6.47471
G1 X105.311 Y104.116 E6.47639
G1 X105.268 Y104.211 E6.47703
G1 X105.210 Y104.413 E6.47831
G1 X105.120 Y104.634 E6.47976
G1 X104.996 Y105.071 E6.48253
G1 X104.860 Y105.365 E6.48451
G1 X104.806 Y105.448 E6.48511
G1 X104.699 Y105.579 E6.48615
G1 X103.893 Y106.268 E6.49261
G1 X103.383 Y106.651 E6.49650
G1 X102.880 Y106.981 E6.50017
G1 X102.747 Y107.054 E6.50109
G1 X102.660 Y107.046 E6.50163
G1 X102.456 Y107.049 E6.50287
G1 X102.227 Y107.087 E6.50429
G1 X102.128 Y107.091 E6.50489
G1 X100.758 Y106.904 E6.51332
G1 X100.535 Y106.850 E6.51472
G1 X100.052 Y106.678 E6.51785
G1 X99.749 Y106.500 E6.51999
G1 X99.353 Y106.207 E6.52299
G1 X99.023 Y105.808 E6.52615
G1 X98.682 Y105.282 E6.52997
G1 X98.112 Y104.365 E6.53656
G1 X98.073 Y104.253 E6.53728
G1 X98.040 Y103.881 E6.53956
G1 X98.074 Y103.318 E6.54300
G1 X98.072 Y103.271 E6.54328
G1 X98.084 Y102.956 E6.54521
