;Generated with Cura_SteamEngine DEV
M109 S210     ;Heatup to 210C
G21           ;metric values
G90           ;absolute positioning
G28           ;Home
G1 Z15.0 F300 ;move the platform down 15mm
G92 E0        ;zero the extruded length
G1 F200 E5    ;extrude 5mm of feed stock
G92 E0        ;zero the extruded length again

;Layer count: 198
;LAYER:0
M107
G0 F9000 X93.888 Y97.704 Z0.300
;TYPE:SKIRT
G1 F1200 X94.889 Y96.788 E0.03723
G1 X95.874 Y96.058 E0.07087
G1 X97.238 Y95.350 E0.11304
G1 X98.416 Y95.022 E0.14660
G1 X99.652 Y94.797 E0.18107
G1 X100.688 Y94.694 E0.20964
G1 X101.475 Y94.650 E0.23127
G1 X102.078 Y94.571 E0.24796
G1 X103.157 Y94.541 E0.27758
G1 X104.213 Y94.585 E0.30658
G1 X105.363 Y94.717 E0.33834
G1 X106.168 Y94.868 E0.36082
G1 X106.640 Y94.946 E0.37394
G1 X107.947 Y95.402 E0.41193
G1 X108.948 Y95.916 E0.44281
G1 X109.821 Y96.508 E0.47175
G1 X110.749 Y97.297 E0.50517
G1 X110.788 Y97.341 E0.50679
G1 X110.868 Y97.404 E0.50958
G1 X111.750 Y98.377 E0.54562
G1 X112.936 Y100.467 E0.61156
G1 X112.936 Y101.691 E0.64514
G1 X113.242 Y103.744 E0.70210
G1 X112.276 Y105.194 E0.74991
G1 X112.275 Y105.196 E0.74997
G1 X112.214 Y105.360 E0.75477
G1 X111.461 Y106.588 E0.79430
G1 X110.661 Y107.469 E0.82696
G1 X109.854 Y108.174 E0.85636
G1 X108.986 Y108.826 E0.88615
G1 X108.374 Y109.198 E0.90580
G1 X108.044 Y109.409 E0.91655
G1 X107.190 Y109.875 E0.94324
G1 X106.202 Y110.324 E0.97302
G1 X105.412 Y110.629 E0.99626
G1 X104.431 Y110.955 E1.02463
G1 X103.527 Y111.220 E1.05048
G1 X102.432 Y111.436 E1.08110
G1 X101.748 Y111.516 E1.10000
G1 X101.422 Y111.566 E1.10905
G1 X100.611 Y111.597 E1.13132
G1 X100.231 Y111.616 E1.14176
G1 X99.226 Y111.565 E1.16937
G1 X98.358 Y111.477 E1.19331
G1 X97.145 Y111.249 E1.22718
G1 X95.971 Y110.821 E1.26147
G1 X94.585 Y110.025 E1.30533
G1 X93.219 Y108.659 E1.35834
G1 X92.368 Y107.100 E1.40708
G1 X91.977 Y105.655 E1.44815
G1 X91.868 Y104.429 E1.48193
G1 X91.866 Y104.325 E1.48478
G1 X91.857 Y104.198 E1.48827
G1 X91.799 Y103.753 E1.50059
G1 X91.826 Y102.675 E1.53018
G1 X91.942 Y101.628 E1.55908
G1 X92.273 Y100.482 E1.59182
G1 X92.647 Y99.565 E1.61899
G1 X93.180 Y98.678 E1.64739
G1 X93.888 Y97.704 E1.68043
G1 F2700 E-2.81957
G0 F9000 X99.286 Y102.524
;TYPE:WALL-INNER
G1 F2700 E1.68043
G1 F1200 X99.700 Y102.185 E1.69511
G1 X99.893 Y102.085 E1.70108
G1 X100.642 Y101.934 E1.72204
G1 X101.241 Y101.875 E1.73856
G1 X102.146 Y101.824 E1.76343
G1 X102.640 Y101.759 E1.77710
G1 X103.118 Y101.746 E1.79022
G1 X103.652 Y101.768 E1.80489
G1 X104.280 Y101.840 E1.82224
G1 X104.842 Y101.945 E1.83792
G1 X105.103 Y102.036 E1.84551
G1 X105.267 Y102.120 E1.85056
G1 X105.456 Y102.248 E1.85683
G1 X105.576 Y102.350 E1.86115
G1 X105.322 Y102.573 E1.87042
G1 X104.938 Y102.862 E1.88361
G1 X104.374 Y103.209 E1.90178
G1 X103.971 Y103.429 E1.91438
G1 X103.419 Y103.680 E1.93102
G1 X102.974 Y103.852 E1.94411
G1 X102.271 Y104.085 E1.96444
G1 X101.816 Y104.219 E1.97745
G1 X101.319 Y104.317 E1.99135
G1 X100.785 Y104.379 E2.00610
G1 X100.251 Y104.406 E2.02077
G1 X100.234 Y104.407 E2.02124
G1 X99.386 Y104.345 E2.04457
G1 X99.083 Y104.288 E2.05303
G1 X99.022 Y103.467 E2.07562
G1 X99.011 Y103.379 E2.07806
G1 X99.029 Y103.037 E2.08745
G1 X99.104 Y102.799 E2.09430
G1 X99.286 Y102.524 E2.10335
G0 F9000 X98.681 Y102.336
;TYPE:WALL-OUTER
G1 F1200 X98.838 Y102.120 E2.11068
G1 X99.087 Y101.893 E2.11992
G1 X99.385 Y101.671 E2.13012
G1 X99.668 Y101.524 E2.13887
G1 X100.563 Y101.339 E2.16395
G1 X101.196 Y101.277 E2.18140
G1 X102.090 Y101.226 E2.20597
G1 X102.593 Y101.160 E2.21989
G1 X103.111 Y101.145 E2.23411
G1 X103.705 Y101.170 E2.25043
G1 X104.374 Y101.247 E2.26891
G1 X104.997 Y101.363 E2.28630
G1 X105.340 Y101.483 E2.29627
G1 X105.576 Y101.604 E2.30355
G1 X105.818 Y101.768 E2.31157
G1 X106.129 Y102.033 E2.32278
G1 X106.243 Y102.160 E2.32746
G1 X106.338 Y102.235 E2.33078
G1 X106.331 Y102.259 E2.33147
G1 X106.322 Y102.267 E2.33180
G1 X106.251 Y102.457 E2.33737
G1 X106.157 Y102.611 E2.34232
G1 X106.028 Y102.753 E2.34758
G1 X105.697 Y103.042 E2.35964
G1 X105.280 Y103.355 E2.37395
G1 X104.673 Y103.730 E2.39352
G1 X104.239 Y103.967 E2.40709
G1 X103.650 Y104.235 E2.42485
G1 X102.457 Y104.655 E2.45955
G1 X101.948 Y104.805 E2.47412
G1 X101.416 Y104.910 E2.48900
G1 X100.866 Y104.974 E2.50419
G1 X100.278 Y105.005 E2.52035
G1 X100.232 Y105.007 E2.52161
G1 X99.719 Y104.981 E2.53571
G1 X99.309 Y104.940 E2.54701
G1 X98.899 Y104.863 E2.55846
G1 X98.761 Y104.813 E2.56249
G1 X98.631 Y104.738 E2.56660
G1 X98.558 Y104.665 E2.56944
G1 X98.536 Y104.625 E2.57069
G1 X98.500 Y104.491 E2.57450
G1 X98.463 Y104.076 E2.58593
G1 X98.462 Y104.023 E2.58739
G1 X98.410 Y103.408 E2.60432
G1 X98.417 Y103.118 E2.61228
G1 X98.439 Y102.916 E2.61786
G1 X98.569 Y102.524 E2.62919
G1 X98.681 Y102.336 E2.63519
G0 F9000 X99.241 Y103.060
;TYPE:SKIN
G1 F1200 X100.369 Y104.187 E2.67895
G0 F9000 X101.153 Y104.123
G1 F1200 X99.582 Y102.552 E2.73991
G0 F9000 X99.266 Y103.933
G1 F1200 X99.471 Y104.138 E2.74787
G0 F9000 X100.129 Y102.250
G1 F1200 X101.862 Y103.983 E2.81512
G0 F9000 X102.509 Y103.782
G1 F1200 X100.851 Y102.124 E2.87946
G0 F9000 X101.638 Y102.063
G1 F1200 X103.137 Y103.562 E2.93763
G0 F9000 X103.731 Y103.306
G1 F1200 X102.423 Y101.999 E2.98837
G0 F9000 X103.234 Y101.961
G1 F1200 X104.287 Y103.014 E3.02923
G0 F9000 X104.812 Y102.690
G1 F1200 X104.158 Y102.037 E3.05459
;LAYER:1
M106 S127
G0 F9000 X104.346 Y101.517 Z0.400
;TYPE:WALL-INNER
G1 F900 X104.938 Y101.627 E3.05826
G1 X105.202 Y101.717 E3.05997
G1 X105.392 Y101.812 E3.06126
G1 X105.601 Y101.953 E3.06280
G1 X105.881 Y102.192 E3.06504
G1 X106.016 Y102.348 E3.06630
G1 X106.011 Y102.388 E3.06655
G1 X105.953 Y102.508 E3.06736
G1 X105.185 Y103.118 E3.07334
G1 X104.733 Y103.380 E3.07653
G1 X104.124 Y103.723 E3.08079
G1 X103.612 Y103.959 E3.08423
G1 X103.166 Y104.140 E3.08716
G1 X102.640 Y104.301 E3.09052
G1 X101.852 Y104.548 E3.09555
G1 X101.592 Y104.605 E3.09717
G1 X100.852 Y104.706 E3.10173
G1 X100.270 Y104.730 E3.10528
G1 X100.250 Y104.731 E3.10540
G1 X99.452 Y104.684 E3.11028
G1 X98.976 Y104.591 E3.11323
G1 X98.911 Y104.566 E3.11366
G1 X98.839 Y104.520 E3.11418
G1 X98.820 Y104.453 E3.11460
G1 X98.758 Y103.594 E3.11986
G1 X98.735 Y103.409 E3.12099
G1 X98.752 Y102.928 E3.12393
G1 X98.774 Y102.837 E3.12450
G1 X98.850 Y102.648 E3.12574
G1 X98.986 Y102.417 E3.12738
G1 X99.059 Y102.321 E3.12811
G1 X99.499 Y101.942 E3.13165
G1 X99.535 Y101.916 E3.13192
G1 X99.821 Y101.773 E3.13387
G1 X99.986 Y101.720 E3.13493
G1 X100.620 Y101.612 E3.13885
G1 X101.251 Y101.547 E3.14272
G1 X102.256 Y101.487 E3.14886
G1 X102.584 Y101.443 E3.15088
G1 X103.135 Y101.424 E3.15424
G1 X103.693 Y101.445 E3.15764
G1 X104.346 Y101.517 E3.16165
G0 F9000 X104.409 Y101.122
;TYPE:WALL-OUTER
G1 F900 X105.030 Y101.237 E3.16550
G1 X105.356 Y101.347 E3.16760
G1 X105.591 Y101.464 E3.16920
G1 X105.845 Y101.636 E3.17107
G1 X106.165 Y101.909 E3.17363
G1 X106.394 Y102.162 E3.17572
G1 X106.429 Y102.230 E3.17618
G1 X106.430 Y102.259 E3.17636
G1 X106.401 Y102.500 E3.17784
G1 X106.283 Y102.742 E3.17948
G1 X106.200 Y102.826 E3.18020
G1 X105.817 Y103.140 E3.18322
G1 X105.414 Y103.446 E3.18631
G1 X104.940 Y103.723 E3.18965
G1 X104.308 Y104.078 E3.19407
G1 X103.764 Y104.329 E3.19773
G1 X103.303 Y104.517 E3.20076
G1 X102.758 Y104.683 E3.20424
G1 X101.947 Y104.937 E3.20942
G1 X101.668 Y104.998 E3.21116
G1 X100.891 Y105.104 E3.21594
G1 X100.252 Y105.131 E3.21984
G1 X99.853 Y105.114 E3.22228
G1 X99.814 Y105.115 E3.22252
G1 X99.396 Y105.081 E3.22507
G1 X98.866 Y104.978 E3.22837
G1 X98.731 Y104.925 E3.22925
G1 X98.564 Y104.818 E3.23046
G1 X98.503 Y104.756 E3.23099
G1 X98.474 Y104.697 E3.23139
G1 X98.427 Y104.531 E3.23244
G1 X98.359 Y103.631 E3.23795
G1 X98.333 Y103.425 E3.23921
G1 X98.353 Y102.872 E3.24259
G1 X98.391 Y102.715 E3.24357
G1 X98.491 Y102.469 E3.24519
G1 X98.651 Y102.197 E3.24712
G1 X98.764 Y102.047 E3.24826
G1 X99.254 Y101.625 E3.25220
G1 X99.323 Y101.576 E3.25272
G1 X99.674 Y101.400 E3.25511
G1 X99.888 Y101.331 E3.25649
G1 X100.573 Y101.214 E3.26072
G1 X101.214 Y101.149 E3.26465
G1 X102.217 Y101.088 E3.27078
G1 X102.547 Y101.044 E3.27281
G1 X103.136 Y101.023 E3.27640
G1 X103.711 Y101.045 E3.27991
G1 X104.409 Y101.122 E3.28419
G0 F9000 X104.502 Y101.689
;TYPE:SKIN
G1 F900 X101.769 Y104.422 E3.30776
G0 F9000 X101.095 Y104.531
G1 F900 X104.005 Y101.621 E3.33286
G0 F9000 X103.483 Y101.577
G1 F900 X100.479 Y104.581 E3.35876
G0 F9000 X99.924 Y104.570
G1 F900 X102.924 Y101.570 E3.38463
G0 F9000 X102.309 Y101.619
G1 F900 X99.398 Y104.530 E3.40974
G0 F9000 X98.957 Y104.406
G1 F900 X101.704 Y101.659 E3.43343
G0 F9000 X101.095 Y101.702
G1 F900 X98.919 Y103.878 E3.45219
G0 F9000 X98.877 Y103.354
G1 F900 X100.450 Y101.782 E3.46575
G0 F9000 X102.583 Y104.174
G1 F900 X104.971 Y101.786 E3.48634
G0 F9000 X105.362 Y101.961
G1 F900 X103.449 Y103.874 E3.50284
G0 F9000 X104.597 Y103.292
G1 F900 X105.682 Y102.207 E3.51220
G0 F9000 X99.655 Y102.011
G1 F900 X98.999 Y102.667 E3.51786
;LAYER:2
M106 S255
G0 F9000 X98.762 Y103.127 Z0.500
;TYPE:WALL-INNER
G1 F900 X98.756 Y103.030 E3.51845
G1 X98.774 Y102.855 E3.51952
G1 X98.856 Y102.645 E3.52090
G1 X99.077 Y102.293 E3.52343
G1 X99.278 Y102.105 E3.52511
G1 X99.557 Y101.888 E3.52726
G1 X99.829 Y101.740 E3.52915
G1 X99.994 Y101.691 E3.53020
G1 X100.636 Y101.587 E3.53417
G1 X101.284 Y101.519 E3.53814
G1 X102.393 Y101.447 E3.54492
G1 X102.552 Y101.427 E3.54589
G1 X103.148 Y101.401 E3.54953
G1 X103.688 Y101.420 E3.55283
G1 X104.386 Y101.495 E3.55711
G1 X104.929 Y101.593 E3.56047
G1 X105.197 Y101.681 E3.56219
G1 X105.361 Y101.762 E3.56331
G1 X105.571 Y101.903 E3.56485
G1 X105.841 Y102.134 E3.56702
G1 X105.991 Y102.315 E3.56845
G1 X106.027 Y102.385 E3.56893
G1 X106.029 Y102.430 E3.56920
G1 X106.019 Y102.532 E3.56983
G1 X106.005 Y102.558 E3.57001
G1 X105.756 Y102.776 E3.57203
G1 X105.338 Y103.071 E3.57515
G1 X104.854 Y103.351 E3.57856
G1 X104.376 Y103.624 E3.58191
G1 X103.682 Y103.966 E3.58663
G1 X103.250 Y104.149 E3.58949
G1 X102.535 Y104.367 E3.59405
G1 X101.769 Y104.599 E3.59893
G1 X101.334 Y104.684 E3.60163
G1 X100.872 Y104.733 E3.60447
G1 X100.279 Y104.752 E3.60808
G1 X99.765 Y104.729 E3.61122
G1 X99.433 Y104.705 E3.61325
G1 X98.957 Y104.603 E3.61622
G1 X98.869 Y104.558 E3.61682
G1 X98.846 Y104.477 E3.61734
G1 X98.793 Y103.690 E3.62215
G1 X98.758 Y103.406 E3.62389
G1 X98.762 Y103.127 E3.62559
G0 F9000 X98.362 Y103.136
;TYPE:WALL-OUTER
G1 F900 X98.356 Y103.025 E3.62627
G1 X98.369 Y102.830 E3.62746
G1 X98.392 Y102.732 E3.62808
G1 X98.496 Y102.469 E3.62980
G1 X98.683 Y102.152 E3.63204
G1 X98.779 Y102.025 E3.63302
G1 X99.026 Y101.793 E3.63508
G1 X99.332 Y101.556 E3.63744
G1 X99.676 Y101.369 E3.63983
G1 X99.906 Y101.300 E3.64129
G1 X100.588 Y101.190 E3.64551
G1 X101.243 Y101.121 E3.64952
G1 X102.354 Y101.049 E3.65631
G1 X102.507 Y101.029 E3.65725
G1 X103.158 Y101.001 E3.66123
G1 X103.717 Y101.021 E3.66464
G1 X104.430 Y101.097 E3.66901
G1 X105.032 Y101.206 E3.67274
G1 X105.350 Y101.310 E3.67478
G1 X105.560 Y101.413 E3.67621
G1 X105.813 Y101.584 E3.67807
G1 X106.126 Y101.852 E3.68058
G1 X106.341 Y102.110 E3.68263
G1 X106.421 Y102.277 E3.68376
G1 X106.430 Y102.444 E3.68478
G1 X106.409 Y102.650 E3.68604
G1 X106.326 Y102.808 E3.68713
G1 X105.998 Y103.094 E3.68978
G1 X105.556 Y103.407 E3.69308
G1 X105.053 Y103.698 E3.69663
G1 X104.565 Y103.977 E3.70006
G1 X103.856 Y104.326 E3.70487
G1 X103.380 Y104.528 E3.70803
G1 X102.660 Y104.747 E3.71262
G1 X101.850 Y104.991 E3.71777
G1 X101.396 Y105.079 E3.72059
G1 X100.899 Y105.132 E3.72364
G1 X100.273 Y105.153 E3.72746
G1 X99.743 Y105.128 E3.73070
G1 X99.379 Y105.103 E3.73292
G1 X98.894 Y104.999 E3.73595
G1 X98.833 Y104.986 E3.73633
G1 X98.631 Y104.885 E3.73770
G1 X98.524 Y104.777 E3.73863
G1 X98.499 Y104.722 E3.73900
G1 X98.452 Y104.553 E3.74007
G1 X98.394 Y103.724 E3.74514
G1 X98.357 Y103.428 E3.74696
G1 X98.362 Y103.136 E3.74874
G0 F9000 X98.900 Y103.143
;TYPE:SKIN
G1 F900 X100.365 Y104.607 E3.76137
G0 F9000 X100.909 Y104.586
G1 F900 X98.999 Y102.676 E3.77784
G0 F9000 X99.230 Y102.341
G1 F900 X101.413 Y104.524 E3.79666
G0 F9000 X101.874 Y104.419
G1 F900 X99.536 Y102.082 E3.81682
G0 F9000 X99.888 Y101.868
G1 F900 X102.307 Y104.287 E3.83768
G0 F9000 X102.741 Y104.156
G1 F900 X100.358 Y101.773 E3.85823
G0 F9000 X100.856 Y101.705
G1 F900 X103.176 Y104.024 E3.87823
G0 F9000 X103.575 Y103.858
G1 F900 X101.370 Y101.653 E3.89725
G0 F9000 X101.901 Y101.619
G1 F900 X103.956 Y103.673 E3.91497
G0 F9000 X104.333 Y103.485
G1 F900 X102.431 Y101.582 E3.93137
G0 F9000 X102.963 Y101.549
G1 F900 X104.693 Y103.279 E3.94629
G0 F9000 X105.052 Y103.072
G1 F900 X103.535 Y101.555 E3.95937
G0 F9000 X104.157 Y101.611
G1 F900 X105.400 Y102.855 E3.97010
G0 F9000 X105.726 Y102.615
G1 F900 X104.829 Y101.718 E3.97783
G0 F9000 X99.780 Y104.588
G1 F900 X98.936 Y103.744 E3.98511
G0 F9000 X98.977 Y104.351
G1 F900 X99.118 Y104.492 E3.98633
;LAYER:3
G0 F9000 X98.829 Y103.786 Z0.600
;TYPE:WALL-INNER
G1 F900 X98.783 Y103.404 E3.98867
G1 X98.785 Y103.239 E3.98968
G1 X98.772 Y103.007 E3.99110
G1 X98.789 Y102.831 E3.99217
G1 X98.860 Y102.648 E3.99337
G1 X99.087 Y102.277 E3.99602
G1 X99.579 Y101.854 E3.99998
G1 X99.802 Y101.719 E4.00157
G1 X99.995 Y101.664 E4.00279
G1 X100.532 Y101.587 E4.00610
G1 X101.301 Y101.492 E4.01083
G1 X102.471 Y101.413 E4.01798
G1 X103.176 Y101.379 E4.02228
G1 X103.709 Y101.396 E4.02553
G1 X104.188 Y101.440 E4.02847
G1 X104.741 Y101.528 E4.03188
G1 X104.957 Y101.568 E4.03322
G1 X105.184 Y101.642 E4.03467
G1 X105.350 Y101.724 E4.03580
G1 X105.536 Y101.850 E4.03717
G1 X105.814 Y102.089 E4.03941
G1 X105.973 Y102.288 E4.04096
G1 X106.022 Y102.414 E4.04179
G1 X106.039 Y102.587 E4.04285
G1 X106.033 Y102.633 E4.04313
G1 X106.022 Y102.649 E4.04325
G1 X105.596 Y102.945 E4.04641
G1 X105.471 Y103.037 E4.04736
G1 X104.693 Y103.489 E4.05284
G1 X104.248 Y103.733 E4.05594
G1 X103.781 Y103.957 E4.05910
G1 X103.276 Y104.168 E4.06243
G1 X102.447 Y104.428 E4.06773
G1 X101.803 Y104.615 E4.07182
G1 X101.678 Y104.651 E4.07262
G1 X101.333 Y104.715 E4.07475
G1 X100.814 Y104.763 E4.07793
G1 X100.312 Y104.775 E4.08100
G1 X99.779 Y104.755 E4.08425
G1 X99.190 Y104.690 E4.08786
G1 X99.009 Y104.644 E4.08900
G1 X98.900 Y104.594 E4.08973
G1 X98.846 Y104.299 E4.09156
G1 X98.829 Y103.786 E4.09469
G0 F9000 X98.430 Y103.817
;TYPE:WALL-OUTER
G1 F900 X98.382 Y103.425 E4.09710
G1 X98.385 Y103.247 E4.09818
G1 X98.372 Y102.996 E4.09972
G1 X98.396 Y102.740 E4.10128
G1 X98.500 Y102.470 E4.10305
G1 X98.791 Y102.007 E4.10638
G1 X99.021 Y101.786 E4.10833
G1 X99.352 Y101.524 E4.11090
G1 X99.592 Y101.375 E4.11262
G1 X99.670 Y101.340 E4.11315
G1 X99.909 Y101.272 E4.11466
G1 X100.475 Y101.191 E4.11815
G1 X101.270 Y101.092 E4.12303
G1 X102.444 Y101.014 E4.13021
G1 X103.182 Y100.979 E4.13471
G1 X103.726 Y100.996 E4.13803
G1 X104.246 Y101.044 E4.14122
G1 X104.804 Y101.133 E4.14466
G1 X105.059 Y101.180 E4.14624
G1 X105.333 Y101.270 E4.14800
G1 X105.553 Y101.378 E4.14950
G1 X105.777 Y101.530 E4.15115
G1 X106.095 Y101.804 E4.15371
G1 X106.273 Y102.008 E4.15536
G1 X106.335 Y102.114 E4.15611
G1 X106.414 Y102.319 E4.15745
G1 X106.442 Y102.597 E4.15915
G1 X106.422 Y102.744 E4.16005
G1 X106.394 Y102.817 E4.16053
G1 X106.303 Y102.940 E4.16146
G1 X105.829 Y103.270 E4.16499
G1 X105.687 Y103.374 E4.16606
G1 X104.859 Y103.855 E4.17190
G1 X104.427 Y104.091 E4.17490
G1 X103.942 Y104.324 E4.17818
G1 X103.410 Y104.545 E4.18169
G1 X102.566 Y104.810 E4.18709
G1 X101.772 Y105.040 E4.19213
G1 X101.391 Y105.112 E4.19449
G1 X100.832 Y105.163 E4.19792
G1 X100.306 Y105.175 E4.20112
G1 X99.764 Y105.155 E4.20443
G1 X99.345 Y105.123 E4.20699
G1 X99.118 Y105.085 E4.20840
G1 X98.870 Y105.021 E4.20996
G1 X98.665 Y104.919 E4.21136
G1 X98.592 Y104.855 E4.21195
G1 X98.539 Y104.778 E4.21252
G1 X98.489 Y104.623 E4.21351
G1 X98.447 Y104.336 E4.21528
G1 X98.430 Y103.817 E4.21845
G0 F9000 X98.970 Y103.827
;TYPE:SKIN
G1 F900 X101.147 Y101.650 E4.23722
G0 F9000 X101.763 Y101.600
G1 F900 X99.000 Y104.363 E4.26105
G0 F9000 X99.362 Y104.566
G1 F900 X102.369 Y101.559 E4.28698
G0 F9000 X102.966 Y101.529
G1 F900 X99.877 Y104.617 E4.31361
G0 F9000 X98.924 Y103.307
G1 F900 X100.499 Y101.732 E4.32719
