;Generated with Cura_SteamEngine DEV
M109 S210     ;Heatup to 210C
G21           ;metric values
G90           ;absolute positioning
G28           ;Home
G1 Z15.0 F300 ;move the platform down 15mm
G92 E0        ;zero the extruded length
G1 F200 E5    ;extrude 5mm of feed stock
G92 E0        ;zero the extruded length again

;Layer count: 298
;LAYER:0
M107
G0 F9000 X90.821 Y105.473 Z0.300
;TYPE:SKIRT
G1 F1200 X97.743 Y105.362 E0.18997
G1 X98.244 Y105.356 E0.20371
G1 X98.244 Y105.355 E0.20374
G1 X98.808 Y105.344 E0.21922
G1 X99.489 Y105.335 E0.23791
G1 X99.744 Y105.337 E0.24491
G1 X100.370 Y105.326 E0.26209
G1 X101.243 Y105.316 E0.28604
G1 X101.729 Y105.312 E0.29938
G1 X102.211 Y105.306 E0.31261
G1 X103.066 Y105.289 E0.33607
G1 X103.758 Y105.283 E0.35506
G1 X104.356 Y105.277 E0.37147
G1 X104.356 Y105.278 E0.37150
G1 X105.069 Y105.268 E0.39107
G1 X105.756 Y105.258 E0.40992
G1 X105.762 Y105.258 E0.41008
G1 X106.152 Y105.251 E0.42079
G1 X106.800 Y105.242 E0.43857
G1 X113.900 Y105.192 E0.63340
G1 X114.178 Y111.897 E0.81755
G1 X114.178 Y111.903 E0.81771
G1 X114.195 Y112.186 E0.82549
G1 X114.223 Y113.009 E0.84809
G1 X114.080 Y114.918 E0.90062
G1 X113.959 Y115.230 E0.90980
G1 X113.924 Y115.444 E0.91575
G1 X113.006 Y117.561 E0.97907
G1 X111.171 Y119.156 E1.04578
G1 X109.675 Y119.806 E1.09054
G1 X108.566 Y120.074 E1.12185
G1 X107.591 Y120.180 E1.14876
G1 X107.174 Y120.173 E1.16020
G1 X106.848 Y120.187 E1.16916
G1 X105.902 Y120.166 E1.19512
G1 X105.577 Y120.140 E1.20407
G1 X105.248 Y120.134 E1.21310
G1 X104.738 Y120.152 E1.22710
G1 X103.989 Y120.139 E1.24766
G1 X103.164 Y120.131 E1.27030
G1 X103.039 Y120.123 E1.27373
G1 X102.647 Y120.129 E1.28449
G1 X102.071 Y120.144 E1.30030
G1 X102.051 Y120.144 E1.30085
G1 X101.678 Y120.167 E1.31110
G1 X101.178 Y120.149 E1.32483
G1 X100.971 Y120.150 E1.33051
G1 X100.522 Y120.137 E1.34284
G1 X99.930 Y120.152 E1.35909
G1 X99.484 Y120.148 E1.37133
G1 X99.163 Y120.155 E1.38014
G1 X98.946 Y120.165 E1.38610
G1 X98.092 Y120.145 E1.40954
G1 X97.256 Y120.170 E1.43249
G1 X94.910 Y120.069 E1.49692
G1 X92.003 Y117.942 E1.59577
G1 X90.912 Y115.651 E1.66540
G1 X90.640 Y114.111 E1.70831
G1 X90.631 Y113.410 E1.72754
G1 X90.647 Y112.611 E1.74947
G1 X90.658 Y112.012 E1.76591
G1 X90.660 Y111.915 E1.76857
G1 X90.654 Y111.823 E1.77110
G1 X90.821 Y105.473 E1.94541
G1 F2700 E-2.55459
G0 F9000 X98.387 Y112.554
;TYPE:WALL-INNER
G1 F2700 E1.94541
G1 F1200 X98.932 Y112.543 E1.96037
G1 X99.512 Y112.535 E1.97628
G1 X99.772 Y112.537 E1.98342
G1 X100.474 Y112.525 E2.00269
G1 X101.312 Y112.516 E2.02568
G1 X101.813 Y112.512 E2.03943
G1 X102.324 Y112.506 E2.05345
G1 X103.176 Y112.488 E2.07684
G1 X103.829 Y112.483 E2.09476
G1 X104.430 Y112.477 E2.11125
G1 X105.656 Y112.460 E2.14489
G1 X105.675 Y112.461 E2.14542
G1 X106.271 Y112.450 E2.16177
G1 X106.876 Y112.442 E2.17837
G1 X106.998 Y112.441 E2.18172
G1 X107.013 Y112.860 E2.19323
G1 X107.005 Y112.973 E2.19634
G1 X106.769 Y112.983 E2.20282
G1 X106.272 Y112.973 E2.21646
G1 X105.932 Y112.945 E2.22582
G1 X105.187 Y112.933 E2.24627
G1 X104.692 Y112.950 E2.25986
G1 X104.058 Y112.939 E2.27726
G1 X103.413 Y112.933 E2.29496
G1 X103.215 Y112.921 E2.30040
G1 X102.460 Y112.931 E2.32112
G1 X102.019 Y112.943 E2.33322
G1 X101.872 Y112.941 E2.33726
G1 X101.576 Y112.959 E2.34539
G1 X101.286 Y112.949 E2.35336
G1 X101.070 Y112.950 E2.35928
G1 X100.530 Y112.935 E2.37411
G1 X99.869 Y112.951 E2.39225
G1 X99.454 Y112.947 E2.40364
G1 X98.906 Y112.959 E2.41868
G1 X98.863 Y112.961 E2.41986
G1 X98.211 Y112.946 E2.43776
G1 X98.035 Y112.944 E2.44259
G1 X97.842 Y112.950 E2.44789
G1 X97.849 Y112.561 E2.45856
G1 X98.387 Y112.554 E2.47333
G0 F9000 X98.377 Y111.954
;TYPE:WALL-OUTER
G1 F1200 X98.920 Y111.943 E2.48823
G1 X99.509 Y111.935 E2.50439
G1 X99.769 Y111.937 E2.51153
G1 X100.463 Y111.925 E2.53057
G1 X102.314 Y111.906 E2.58137
G1 X103.163 Y111.888 E2.60467
G1 X104.422 Y111.877 E2.63922
G1 X105.655 Y111.860 E2.67305
G1 X105.682 Y111.861 E2.67380
G1 X106.260 Y111.850 E2.68966
G1 X106.868 Y111.842 E2.70634
G1 X107.562 Y111.837 E2.72539
G1 X107.561 Y111.848 E2.72569
G1 X107.602 Y112.498 E2.74356
G1 X107.615 Y112.876 E2.75394
G1 X107.572 Y113.441 E2.76949
G1 X107.554 Y113.489 E2.77090
G1 X107.548 Y113.529 E2.77201
G1 X107.293 Y113.574 E2.77911
G1 X107.081 Y113.570 E2.78493
G1 X106.768 Y113.584 E2.79353
G1 X106.244 Y113.572 E2.80791
G1 X105.903 Y113.544 E2.81730
G1 X105.192 Y113.533 E2.83681
G1 X104.682 Y113.550 E2.85081
G1 X104.050 Y113.539 E2.86816
G1 X103.390 Y113.533 E2.88627
G1 X103.200 Y113.521 E2.89149
G1 X102.472 Y113.531 E2.91147
G1 X102.028 Y113.543 E2.92366
G1 X101.887 Y113.541 E2.92753
G1 X101.591 Y113.560 E2.93567
G1 X101.277 Y113.549 E2.94429
G1 X101.056 Y113.550 E2.95035
G1 X100.529 Y113.535 E2.96482
G1 X99.878 Y113.551 E2.98269
G1 X99.458 Y113.547 E2.99422
G1 X98.927 Y113.559 E3.00879
G1 X98.866 Y113.562 E3.01047
G1 X98.200 Y113.546 E3.02875
G1 X98.040 Y113.544 E3.03314
G1 X97.302 Y113.566 E3.05340
G1 X97.245 Y113.563 E3.05496
G1 X97.233 Y113.496 E3.05683
G1 X97.232 Y113.442 E3.05831
G1 X97.257 Y112.130 E3.09432
G1 X97.259 Y111.971 E3.09868
G1 X98.377 Y111.954 E3.12937
G0 F9000 X98.422 Y112.451
;LAYER:1
M106 S127
G0 X97.971 Y113.269 Z0.400
;TYPE:WALL-INNER
G1 F1080 X97.529 Y113.274 E3.13206
G1 X97.555 Y111.767 E3.14125
G1 X97.565 Y111.343 E3.14384
G1 X98.725 Y111.326 E3.15091
G1 X99.258 Y111.321 E3.15416
G1 X101.671 Y111.287 E3.16888
G1 X102.632 Y111.278 E3.17474
G1 X102.650 Y111.279 E3.17485
G1 X103.380 Y111.269 E3.17930
G1 X104.103 Y111.261 E3.18371
G1 X104.794 Y111.247 E3.18792
G1 X105.433 Y111.238 E3.19182
G1 X106.063 Y111.234 E3.19566
G1 X106.930 Y111.223 E3.20095
G1 X107.254 Y111.217 E3.20293
G1 X107.252 Y111.374 E3.20388
G1 X107.269 Y111.774 E3.20632
G1 X107.264 Y111.823 E3.20662
G1 X107.308 Y112.545 E3.21104
G1 X107.320 Y112.875 E3.21305
G1 X107.301 Y113.288 E3.21557
G1 X107.066 Y113.283 E3.21700
G1 X106.470 Y113.294 E3.22064
G1 X105.965 Y113.264 E3.22372
G1 X105.384 Y113.256 E3.22727
G1 X105.199 Y113.253 E3.22839
G1 X104.679 Y113.270 E3.23157
G1 X104.560 Y113.271 E3.23229
G1 X103.734 Y113.258 E3.23733
G1 X103.193 Y113.241 E3.24063
G1 X102.479 Y113.249 E3.24498
G1 X102.142 Y113.259 E3.24704
G1 X101.801 Y113.256 E3.24912
G1 X101.568 Y113.269 E3.25054
G1 X101.325 Y113.262 E3.25203
G1 X100.923 Y113.265 E3.25448
G1 X100.566 Y113.255 E3.25665
G1 X99.802 Y113.269 E3.26131
G1 X99.510 Y113.266 E3.26309
G1 X98.891 Y113.282 E3.26687
G1 X97.971 Y113.269 E3.27248
G0 F9000 X97.970 Y113.669
;TYPE:WALL-OUTER
G1 F1080 X97.225 Y113.677 E3.27702
G1 X97.159 Y113.675 E3.27743
G1 X97.125 Y113.501 E3.27851
G1 X97.155 Y111.757 E3.28914
G1 X97.174 Y110.949 E3.29407
G1 X98.052 Y110.939 E3.29943
G1 X98.717 Y110.926 E3.30348
G1 X99.764 Y110.914 E3.30987
G1 X101.666 Y110.887 E3.32147
G1 X102.630 Y110.878 E3.32735
G1 X102.656 Y110.879 E3.32750
G1 X104.096 Y110.861 E3.33629
G1 X104.786 Y110.847 E3.34049
G1 X105.428 Y110.838 E3.34441
G1 X106.059 Y110.834 E3.34826
G1 X106.924 Y110.823 E3.35353
G1 X107.538 Y110.812 E3.35728
G1 X107.652 Y110.811 E3.35797
G1 X107.654 Y111.236 E3.36056
G1 X107.652 Y111.369 E3.36137
G1 X107.669 Y111.790 E3.36394
G1 X107.665 Y111.831 E3.36419
G1 X107.708 Y112.530 E3.36847
G1 X107.721 Y112.877 E3.37058
G1 X107.706 Y113.279 E3.37304
G1 X107.653 Y113.642 E3.37527
G1 X107.358 Y113.690 E3.37710
G1 X107.065 Y113.683 E3.37888
G1 X106.467 Y113.694 E3.38253
G1 X105.950 Y113.664 E3.38569
G1 X105.202 Y113.653 E3.39025
G1 X104.692 Y113.670 E3.39336
G1 X104.557 Y113.671 E3.39418
G1 X103.721 Y113.658 E3.39928
G1 X103.189 Y113.641 E3.40253
G1 X102.487 Y113.649 E3.40681
G1 X102.151 Y113.659 E3.40886
G1 X101.811 Y113.656 E3.41093
G1 X101.567 Y113.670 E3.41242
G1 X101.320 Y113.662 E3.41393
G1 X100.915 Y113.665 E3.41640
G1 X100.564 Y113.655 E3.41854
G1 X99.805 Y113.669 E3.42317
G1 X99.513 Y113.666 E3.42495
G1 X98.897 Y113.682 E3.42871
G1 X97.970 Y113.669 E3.43436
G0 F9000 X98.152 Y113.131
;TYPE:SKIN
G1 F1080 X99.830 Y111.452 E3.44884
G0 F9000 X100.403 Y111.445
G1 F1080 X98.709 Y113.139 E3.46344
G0 F9000 X99.283 Y113.131
G1 F1080 X100.976 Y111.437 E3.47805
G0 F9000 X101.549 Y111.430
G1 F1080 X99.852 Y113.127 E3.49268
G0 F9000 X99.257 Y111.459
G1 F1080 X97.674 Y113.043 E3.50634
G0 F9000 X97.683 Y112.468
G1 F1080 X98.684 Y111.467 E3.51497
G0 F9000 X98.111 Y111.474
G1 F1080 X97.694 Y111.891 E3.51857
G0 F9000 X100.428 Y113.117
G1 F1080 X102.122 Y111.423 E3.53317
G0 F9000 X102.693 Y111.418
G1 F1080 X100.987 Y113.124 E3.54789
G0 F9000 X101.549 Y113.127
G1 F1080 X103.267 Y111.410 E3.56270
G0 F9000 X103.840 Y111.402
G1 F1080 X102.124 Y113.118 E3.57750
G0 F9000 X102.703 Y113.105
G1 F1080 X104.414 Y111.394 E3.59225
G0 F9000 X104.987 Y111.386
G1 F1080 X103.272 Y113.102 E3.60704
G0 F9000 X103.825 Y113.114
G1 F1080 X105.560 Y111.379 E3.62201
G0 F9000 X106.133 Y111.372
G1 F1080 X104.379 Y113.126 E3.63713
G0 F9000 X104.950 Y113.120
G1 F1080 X106.707 Y111.364 E3.65228
G0 F9000 X107.118 Y111.519
G1 F1080 X105.520 Y113.117 E3.66606
G0 F9000 X106.073 Y113.130
G1 F1080 X107.137 Y112.065 E3.67524
G0 F9000 X107.169 Y112.598
G1 F1080 X106.617 Y113.151 E3.68000
;LAYER:2
M106 S255
G0 F9000 X107.036 Y113.298 Z0.500
;TYPE:WALL-INNER
G1 F1380 X106.849 Y113.305 E3.68115
G1 X105.477 Y113.276 E3.68951
G1 X105.210 Y113.273 E3.69114
G1 X104.647 Y113.286 E3.69458
G1 X104.368 Y113.291 E3.69628
G1 X103.600 Y113.280 E3.70096
G1 X103.193 Y113.261 E3.70345
G1 X102.493 Y113.268 E3.70771
G1 X102.266 Y113.274 E3.70910
G1 X101.723 Y113.270 E3.71241
G1 X101.550 Y113.280 E3.71347
G1 X101.372 Y113.275 E3.71455
G1 X100.784 Y113.280 E3.71814
G1 X100.604 Y113.275 E3.71924
G1 X99.729 Y113.286 E3.72457
G1 X99.569 Y113.285 E3.72555
G1 X98.740 Y113.297 E3.73060
G1 X97.955 Y113.283 E3.73539
G1 X97.524 Y113.284 E3.73802
G1 X97.549 Y111.886 E3.74655
G1 X97.568 Y111.039 E3.75171
G1 X97.579 Y110.417 E3.75550
G1 X98.662 Y110.405 E3.76211
G1 X99.920 Y110.392 E3.76978
G1 X100.595 Y110.382 E3.77390
G1 X101.416 Y110.374 E3.77890
G1 X101.957 Y110.363 E3.78220
G1 X103.024 Y110.348 E3.78871
G1 X103.696 Y110.343 E3.79281
G1 X104.313 Y110.329 E3.79657
G1 X104.593 Y110.330 E3.79828
G1 X104.911 Y110.327 E3.80022
G1 X105.108 Y110.328 E3.80142
G1 X105.639 Y110.315 E3.80466
G1 X106.167 Y110.309 E3.80788
G1 X106.776 Y110.299 E3.81159
G1 X107.248 Y110.298 E3.81447
G1 X107.256 Y111.159 E3.81972
G1 X107.255 Y111.394 E3.82115
G1 X107.309 Y112.486 E3.82782
G1 X107.322 Y112.887 E3.83027
G1 X107.300 Y113.301 E3.83280
G1 X107.036 Y113.298 E3.83441
G0 F9000 X107.042 Y113.698
;TYPE:WALL-OUTER
G1 F1380 X106.864 Y113.705 E3.83549
G1 X106.358 Y113.704 E3.83858
G1 X105.468 Y113.676 E3.84401
G1 X105.212 Y113.673 E3.84557
G1 X104.656 Y113.686 E3.84896
G1 X104.370 Y113.691 E3.85070
G1 X103.601 Y113.680 E3.85539
G1 X103.186 Y113.661 E3.85793
G1 X102.500 Y113.668 E3.86211
G1 X102.274 Y113.674 E3.86349
G1 X101.734 Y113.670 E3.86678
G1 X101.550 Y113.681 E3.86791
G1 X101.367 Y113.675 E3.86902
G1 X100.776 Y113.680 E3.87263
G1 X100.601 Y113.675 E3.87369
G1 X99.731 Y113.686 E3.87900
G1 X99.570 Y113.685 E3.87998
G1 X98.739 Y113.697 E3.88505
G1 X97.952 Y113.683 E3.88985
G1 X97.399 Y113.684 E3.89322
G1 X97.157 Y113.687 E3.89470
G1 X97.122 Y113.510 E3.89580
G1 X97.127 Y112.994 E3.89894
G1 X97.185 Y110.026 E3.91704
G1 X99.914 Y109.992 E3.93369
G1 X100.589 Y109.982 E3.93780
G1 X101.410 Y109.974 E3.94281
G1 X101.949 Y109.963 E3.94610
G1 X103.019 Y109.948 E3.95262
G1 X103.690 Y109.943 E3.95671
G1 X104.305 Y109.929 E3.96047
G1 X104.592 Y109.930 E3.96222
G1 X104.909 Y109.927 E3.96415
G1 X105.104 Y109.928 E3.96534
G1 X105.629 Y109.915 E3.96854
G1 X106.162 Y109.909 E3.97179
G1 X106.769 Y109.899 E3.97549
G1 X107.397 Y109.898 E3.97932
G1 X107.636 Y109.893 E3.98078
G1 X107.656 Y111.161 E3.98851
G1 X107.655 Y111.385 E3.98988
G1 X107.708 Y112.472 E3.99651
G1 X107.723 Y112.883 E3.99902
G1 X107.691 Y113.489 E4.00272
G1 X107.659 Y113.664 E4.00381
G1 X107.414 Y113.702 E4.00532
G1 X107.042 Y113.698 E4.00759
G0 F9000 X107.169 Y113.109
;TYPE:SKIN
G1 F1380 X104.530 Y110.469 E4.03035
G0 F9000 X105.088 Y110.462
G1 F1380 X107.166 Y112.540 E4.04827
G0 F9000 X107.140 Y111.948
G1 F1380 X105.647 Y110.455 E4.06114
G0 F9000 X106.206 Y110.448
G1 F1380 X107.114 Y111.357 E4.06898
G0 F9000 X107.111 Y110.788
G1 F1380 X106.764 Y110.441 E4.07197
G0 F9000 X106.655 Y113.160
G1 F1380 X103.971 Y110.476 E4.09512
G0 F9000 X103.412 Y110.484
G1 F1380 X106.078 Y113.149 E4.11810
G0 F9000 X105.501 Y113.138
G1 F1380 X102.854 Y110.491 E4.14093
G0 F9000 X102.295 Y110.498
G1 F1380 X104.936 Y113.138 E4.16370
G0 F9000 X104.381 Y113.149
G1 F1380 X101.737 Y110.505 E4.18650
G0 F9000 X101.178 Y110.512
G1 F1380 X103.808 Y113.142 E4.20918
G0 F9000 X103.221 Y113.120
G1 F1380 X100.619 Y110.519 E4.23162
G0 F9000 X100.061 Y110.526
G1 F1380 X102.662 Y113.127 E4.25405
G0 F9000 X102.100 Y113.131
G1 F1380 X99.502 Y110.533 E4.27645
G0 F9000 X98.944 Y110.540
G1 F1380 X101.541 Y113.138 E4.29885
G0 F9000 X100.974 Y113.137
G1 F1380 X98.385 Y110.547 E4.32118
G0 F9000 X97.826 Y110.554
G1 F1380 X100.409 Y113.137 E4.34346
G0 F9000 X99.849 Y113.143
G1 F1380 X97.707 Y111.000 E4.36193
G0 F9000 X97.696 Y111.555
G1 F1380 X99.288 Y113.147 E4.37566
G0 F9000 X98.730 Y113.155
G1 F1380 X97.686 Y112.111 E4.38466
G0 F9000 X97.675 Y112.666
G1 F1380 X98.154 Y113.145 E4.38879
;LAYER:3
G0 F9000 X97.885 Y113.297 Z0.600
;TYPE:WALL-INNER
G1 F1680 X97.518 Y113.298 E4.39103
G1 X97.544 Y112.004 E4.39893
G1 X97.551 Y111.472 E4.40217
G1 X97.572 Y110.609 E4.40743
G1 X97.588 Y109.679 E4.41311
G1 X97.592 Y109.499 E4.41420
G1 X99.425 Y109.477 E4.42538
G1 X99.488 Y109.478 E4.42577
G1 X100.003 Y109.465 E4.42891
G1 X100.313 Y109.462 E4.43080
G1 X100.467 Y109.463 E4.43174
G1 X101.732 Y109.444 E4.43945
G1 X102.531 Y109.434 E4.44432
G1 X103.051 Y109.426 E4.44749
G1 X104.376 Y109.413 E4.45557
G1 X106.537 Y109.386 E4.46875
G1 X107.129 Y109.376 E4.47236
G1 X107.216 Y109.375 E4.47289
G1 X107.245 Y110.117 E4.47742
G1 X107.259 Y111.062 E4.48319
G1 X107.258 Y111.116 E4.48351
G1 X107.272 Y111.792 E4.48764
G1 X107.306 Y112.428 E4.49152
G1 X107.324 Y112.916 E4.49450
G1 X107.302 Y113.312 E4.49692
G1 X107.211 Y113.313 E4.49747
G1 X107.027 Y113.311 E4.49859
G1 X106.255 Y113.315 E4.50330
G1 X105.302 Y113.293 E4.50911
G1 X104.184 Y113.310 E4.51593
G1 X103.468 Y113.301 E4.52030
G1 X103.425 Y113.302 E4.52056
G1 X103.204 Y113.280 E4.52192
G1 X102.631 Y113.284 E4.52541
G1 X102.391 Y113.290 E4.52687
G1 X101.644 Y113.284 E4.53143
G1 X101.528 Y113.291 E4.53214
G1 X101.418 Y113.288 E4.53281
G1 X98.685 Y113.313 E4.54947
G1 X97.885 Y113.297 E4.55435
G0 F9000 X97.882 Y113.697
;TYPE:WALL-OUTER
G1 F1680 X97.195 Y113.699 E4.55854
G1 X97.144 Y113.695 E4.55886
G1 X97.119 Y113.518 E4.55995
G1 X97.118 Y113.117 E4.56239
G1 X97.144 Y111.997 E4.56922
G1 X97.151 Y111.462 E4.57248
G1 X97.172 Y110.601 E4.57774
G1 X97.199 Y109.157 E4.58654
G1 X97.202 Y109.102 E4.58688
G1 X97.992 Y109.096 E4.59170
G1 X99.426 Y109.077 E4.60044
G1 X99.486 Y109.078 E4.60081
G1 X99.992 Y109.065 E4.60389
G1 X100.312 Y109.062 E4.60585
G1 X100.465 Y109.063 E4.60678
G1 X103.045 Y109.026 E4.62251
G1 X106.531 Y108.986 E4.64377
G1 X107.122 Y108.976 E4.64737
G1 X107.601 Y108.972 E4.65030
G1 X107.645 Y110.097 E4.65716
G1 X107.659 Y111.072 E4.66311
G1 X107.658 Y111.117 E4.66338
G1 X107.672 Y111.777 E4.66741
G1 X107.706 Y112.413 E4.67129
G1 X107.725 Y112.913 E4.67434
G1 X107.688 Y113.572 E4.67837
G1 X107.667 Y113.685 E4.67907
G1 X107.655 Y113.690 E4.67915
G1 X107.458 Y113.711 E4.68035
G1 X107.209 Y113.713 E4.68187
G1 X107.026 Y113.711 E4.68299
G1 X106.248 Y113.715 E4.68773
G1 X105.300 Y113.693 E4.69352
G1 X104.185 Y113.710 E4.70032
G1 X103.469 Y113.701 E4.70468
G1 X103.409 Y113.702 E4.70505
G1 X103.186 Y113.680 E4.70641
G1 X102.638 Y113.684 E4.70976
G1 X102.398 Y113.690 E4.71122
G1 X101.655 Y113.684 E4.71575
G1 X101.531 Y113.692 E4.71651
G1 X101.413 Y113.688 E4.71723
G1 X98.680 Y113.713 E4.73389
G1 X97.882 Y113.697 E4.73876
G0 F9000 X98.122 Y113.161
;TYPE:SKIN
G1 F1680 X101.697 Y109.585 E4.76960
G0 F9000 X102.270 Y109.578
G1 F1680 X98.676 Y113.172 E4.80059
G0 F9000 X99.247 Y113.167
G1 F1680 X102.843 Y109.571 E4.83160
G0 F9000 X103.417 Y109.563
