;Generated with Cura_SteamEngine DEV
M109 S210     ;Heatup to 210C
G21           ;metric values
G90           ;absolute positioning
G28           ;Home
G1 Z15.0 F300 ;move the platform down 15mm
G92 E0        ;zero the extruded length
G1 F200 E5    ;extrude 5mm of feed stock
G92 E0        ;zero the extruded length again

;Layer count: 190
;LAYER:0
M107
G0 F9000 X92.314 Y89.297 Z0.300
;TYPE:SKIRT
G1 F1200 X95.335 Y88.816 E0.08394
G1 X96.104 Y88.773 E0.10508
G1 X97.066 Y88.839 E0.13153
G1 X97.842 Y88.888 E0.15287
G1 X98.443 Y88.945 E0.16944
G1 X99.398 Y89.011 E0.19570
G1 X100.214 Y89.086 E0.21819
G1 X100.979 Y89.157 E0.23927
G1 X101.735 Y89.214 E0.26008
G1 X102.391 Y89.257 E0.27811
G1 X103.299 Y89.338 E0.30313
G1 X103.379 Y89.355 E0.30537
G1 X103.913 Y89.396 E0.32007
G1 X104.592 Y89.455 E0.33877
G1 X105.057 Y89.480 E0.35155
G1 X105.639 Y89.495 E0.36753
G1 X106.323 Y89.538 E0.38633
G1 X106.917 Y89.626 E0.40281
G1 X106.925 Y89.627 E0.40303
G1 X106.971 Y89.624 E0.40430
G1 X107.903 Y89.670 E0.42990
G1 X108.359 Y89.697 E0.44244
G1 X109.786 Y89.691 E0.48159
G1 X113.928 Y91.629 E0.60708
G1 X114.856 Y95.751 E0.72302
G1 X114.682 Y97.324 E0.76644
G1 X114.669 Y97.400 E0.76856
G1 X114.645 Y97.662 E0.77578
G1 X114.567 Y98.513 E0.79923
G1 X114.496 Y99.454 E0.82512
G1 X114.421 Y100.084 E0.84253
G1 X114.401 Y100.269 E0.84764
G1 X114.341 Y100.980 E0.86722
G1 X114.317 Y101.399 E0.87873
G1 X114.284 Y102.273 E0.90273
G1 X114.241 Y103.242 E0.92935
G1 X114.170 Y104.316 E0.95888
G1 X114.102 Y105.114 E0.98086
G1 X114.029 Y105.782 E0.99930
G1 X114.030 Y105.782 E0.99933
G1 X113.979 Y106.257 E1.01243
G1 X113.954 Y106.681 E1.02409
G1 X113.898 Y107.363 E1.04287
G1 X113.877 Y107.986 E1.05997
G1 X113.753 Y109.289 E1.09589
G1 X113.064 Y111.195 E1.15150
G1 X112.089 Y112.453 E1.19518
G1 X111.532 Y112.995 E1.21650
G1 X110.537 Y113.828 E1.25211
G1 X109.005 Y114.439 E1.29737
G1 X107.849 Y114.712 E1.32996
G1 X106.699 Y114.778 E1.36157
G1 X105.723 Y114.719 E1.38840
G1 X105.050 Y114.672 E1.40691
G1 X104.812 Y114.653 E1.41346
G1 X104.501 Y114.656 E1.42200
G1 X103.732 Y114.624 E1.44312
G1 X102.981 Y114.567 E1.46378
G1 X102.083 Y114.478 E1.48855
G1 X101.539 Y114.414 E1.50358
G1 X101.030 Y114.380 E1.51757
G1 X100.336 Y114.328 E1.53667
G1 X99.621 Y114.267 E1.55636
G1 X99.060 Y114.220 E1.57181
G1 X98.963 Y114.215 E1.57448
G1 X98.443 Y114.210 E1.58875
G1 X98.255 Y114.216 E1.59391
G1 X97.054 Y114.141 E1.62693
G1 X96.378 Y114.082 E1.64555
G1 X95.679 Y113.999 E1.66486
G1 X95.168 Y113.923 E1.67904
G1 X95.168 Y113.922 E1.67907
G1 X94.609 Y113.843 E1.69456
G1 X93.571 Y113.630 E1.72363
G1 X92.417 Y113.198 E1.75745
G1 X90.776 Y112.182 E1.81041
G1 X89.255 Y110.089 E1.88140
G1 X88.550 Y107.334 E1.95944
G1 X88.595 Y106.435 E1.98414
G1 X88.569 Y106.057 E1.99453
G1 X88.789 Y104.696 E2.03236
G1 X88.852 Y104.175 E2.04676
G1 X88.908 Y103.679 E2.06046
G1 X89.089 Y102.826 E2.08439
G1 X89.111 Y102.572 E2.09138
G1 X89.210 Y101.600 E2.11819
G1 X89.230 Y101.488 E2.12132
G1 X89.173 Y101.000 E2.13480
G1 X89.208 Y99.542 E2.17482
G1 X89.310 Y98.920 E2.19211
G1 X89.323 Y98.788 E2.19575
G1 X89.339 Y98.570 E2.20175
G1 X89.341 Y98.462 E2.20471
G1 X89.335 Y98.290 E2.20944
G1 X89.217 Y97.340 E2.23571
G1 X89.287 Y96.597 E2.25618
G1 X89.307 Y95.766 E2.27899
G1 X89.581 Y94.850 E2.30523
G1 X89.816 Y92.822 E2.36125
G1 X92.314 Y89.297 E2.47980
G1 F2700 E-2.02020
G0 F9000 X96.645 Y96.356
;TYPE:WALL-INNER
G1 F2700 E2.47980
G1 F1200 X96.690 Y96.030 E2.48883
G1 X97.265 Y96.065 E2.50464
G1 X97.858 Y96.122 E2.52099
G1 X98.832 Y96.189 E2.54778
G1 X99.551 Y96.255 E2.56759
G1 X100.363 Y96.331 E2.58997
G1 X101.262 Y96.399 E2.61471
G1 X101.849 Y96.437 E2.63085
G1 X102.348 Y96.497 E2.64464
G1 X103.320 Y96.571 E2.67139
G1 X104.095 Y96.639 E2.69274
G1 X104.783 Y96.675 E2.71164
G1 X105.335 Y96.690 E2.72679
G1 X105.569 Y96.705 E2.73323
G1 X106.140 Y96.789 E2.74906
G1 X106.887 Y96.841 E2.76961
G1 X107.002 Y96.835 E2.77277
G1 X107.489 Y96.859 E2.78615
G1 X107.393 Y97.900 E2.81484
G1 X107.330 Y98.739 E2.83793
G1 X107.271 Y99.241 E2.85179
G1 X107.159 Y100.454 E2.88522
G1 X107.122 Y101.121 E2.90355
G1 X107.090 Y101.975 E2.92700
G1 X107.052 Y102.837 E2.95068
G1 X106.991 Y103.764 E2.97617
G1 X106.936 Y104.410 E2.99396
G1 X106.802 Y105.656 E3.02835
G1 X106.772 Y106.166 E3.04237
G1 X106.707 Y106.958 E3.06417
G1 X106.688 Y107.532 E3.07993
G1 X106.685 Y107.564 E3.08081
G1 X106.196 Y107.535 E3.09426
G1 X105.579 Y107.491 E3.11123
G1 X105.063 Y107.451 E3.12543
G1 X104.613 Y107.455 E3.13778
G1 X103.622 Y107.396 E3.16502
G1 X102.852 Y107.318 E3.18626
G1 X102.185 Y107.240 E3.20469
G1 X101.531 Y107.198 E3.22267
G1 X100.917 Y107.152 E3.23956
G1 X100.223 Y107.092 E3.25868
G1 X99.552 Y107.036 E3.27716
G1 X99.457 Y107.020 E3.27980
G1 X98.384 Y107.009 E3.30924
G1 X98.371 Y107.009 E3.30960
G1 X97.604 Y106.961 E3.33069
G1 X96.623 Y106.860 E3.35775
G1 X95.845 Y106.747 E3.37932
G1 X95.831 Y106.744 E3.37971
G1 X95.796 Y106.605 E3.38365
G1 X95.806 Y106.404 E3.38917
G1 X95.921 Y105.694 E3.40891
G1 X96.001 Y105.032 E3.42720
G1 X96.023 Y104.831 E3.43275
G1 X96.168 Y104.152 E3.45180
G1 X96.200 Y104.002 E3.45601
G1 X96.200 Y103.976 E3.45673
G1 X96.281 Y103.236 E3.47715
G1 X96.345 Y102.595 E3.49483
G1 X96.461 Y101.990 E3.51173
G1 X96.471 Y101.612 E3.52211
G1 X96.423 Y101.015 E3.53854
G1 X96.383 Y100.674 E3.54797
G1 X96.395 Y100.210 E3.56070
G1 X96.507 Y99.296 E3.58597
G1 X96.542 Y98.399 E3.61060
G1 X96.521 Y97.729 E3.62900
G1 X96.459 Y97.232 E3.64274
G1 X96.482 Y96.902 E3.65182
G1 X96.645 Y96.356 E3.66745
G0 F9000 X96.057 Y96.229
;TYPE:WALL-OUTER
G1 F1200 X96.141 Y95.623 E3.68424
G1 X96.140 Y95.579 E3.68545
G1 X96.162 Y95.392 E3.69062
G1 X97.318 Y95.467 E3.72240
G1 X97.907 Y95.524 E3.73864
G1 X98.867 Y95.590 E3.76505
G1 X100.414 Y95.733 E3.80768
G1 X101.304 Y95.800 E3.83217
G1 X101.882 Y95.838 E3.84806
G1 X102.318 Y95.877 E3.86007
G1 X102.434 Y95.902 E3.86333
G1 X103.372 Y95.974 E3.88914
G1 X104.137 Y96.040 E3.91021
G1 X104.806 Y96.076 E3.92860
G1 X105.352 Y96.090 E3.94359
G1 X105.624 Y96.107 E3.95106
G1 X106.205 Y96.192 E3.96718
G1 X106.890 Y96.240 E3.98602
G1 X106.998 Y96.234 E3.98899
G1 X107.545 Y96.261 E4.00401
G1 X108.096 Y96.293 E4.01916
G1 X108.155 Y96.298 E4.02078
G1 X107.991 Y97.950 E4.06634
G1 X107.926 Y98.810 E4.09000
G1 X107.867 Y99.309 E4.10379
G1 X107.758 Y100.496 E4.13650
G1 X107.721 Y101.149 E4.15445
G1 X107.689 Y102.002 E4.17787
G1 X107.650 Y102.883 E4.20207
G1 X107.589 Y103.815 E4.22770
G1 X107.533 Y104.475 E4.24587
G1 X107.400 Y105.706 E4.27985
G1 X107.370 Y106.215 E4.29384
G1 X107.306 Y106.993 E4.31526
G1 X107.287 Y107.561 E4.33086
G1 X107.261 Y107.832 E4.33833
G1 X107.210 Y107.974 E4.34247
G1 X107.110 Y108.089 E4.34665
G1 X107.011 Y108.128 E4.34957
G1 X106.897 Y108.155 E4.35278
G1 X106.703 Y108.166 E4.35812
G1 X106.154 Y108.133 E4.37321
G1 X105.539 Y108.090 E4.39012
G1 X105.042 Y108.051 E4.40380
G1 X104.613 Y108.055 E4.41558
G1 X103.562 Y107.993 E4.44447
G1 X102.792 Y107.915 E4.46570
G1 X102.130 Y107.838 E4.48399
G1 X101.496 Y107.797 E4.50142
G1 X100.866 Y107.749 E4.51876
G1 X99.487 Y107.633 E4.55674
G1 X99.403 Y107.619 E4.55907
G1 X98.390 Y107.609 E4.58687
G1 X98.359 Y107.610 E4.58772
G1 X97.551 Y107.559 E4.60994
G1 X97.051 Y107.515 E4.62371
G1 X96.144 Y107.395 E4.64882
G1 X95.403 Y107.269 E4.66944
G1 X95.350 Y107.249 E4.67099
G1 X95.337 Y107.231 E4.67160
G1 X95.192 Y106.666 E4.68761
G1 X95.207 Y106.373 E4.69566
G1 X95.206 Y106.359 E4.69605
G1 X95.327 Y105.610 E4.71686
G1 X95.405 Y104.963 E4.73475
G1 X95.431 Y104.732 E4.74113
G1 X95.600 Y103.939 E4.76337
G1 X95.600 Y103.920 E4.76390
G1 X95.637 Y103.723 E4.76940
G1 X95.683 Y103.185 E4.78421
G1 X95.751 Y102.510 E4.80283
G1 X95.862 Y101.935 E4.81890
G1 X95.870 Y101.629 E4.82730
G1 X95.826 Y101.074 E4.84257
G1 X95.782 Y100.700 E4.85291
G1 X95.796 Y100.156 E4.86784
G1 X95.859 Y99.771 E4.87855
G1 X95.907 Y99.267 E4.89244
G1 X95.907 Y99.244 E4.89307
G1 X95.935 Y98.868 E4.90342
G1 X95.942 Y98.404 E4.91615
G1 X95.922 Y97.776 E4.93339
G1 X95.856 Y97.241 E4.94818
G1 X95.880 Y96.987 E4.95518
G1 X95.884 Y96.807 E4.96012
G1 X96.057 Y96.229 E4.97668
G0 F9000 X96.843 Y96.419
;TYPE:SKIN
G1 F1200 X106.563 Y106.138 E5.35386
G0 F9000 X106.499 Y106.923
G1 F1200 X96.677 Y97.102 E5.73499
G0 F9000 X96.739 Y98.012
G1 F1200 X106.037 Y107.310 E6.09581
G0 F9000 X105.123 Y107.244
G1 F1200 X96.733 Y98.854 E6.42140
G0 F9000 X96.675 Y99.645
G1 F1200 X104.252 Y107.222 E6.71543
G0 F9000 X103.337 Y107.155
G1 F1200 X96.599 Y100.418 E6.97689
G0 F9000 X96.657 Y101.324
G1 F1200 X102.383 Y107.050 E7.19909
G0 F9000 X101.466 Y106.981
G1 F1200 X96.642 Y102.157 E7.38630
G0 F9000 X96.525 Y102.889
G1 F1200 X100.541 Y106.905 E7.54214
G0 F9000 X106.623 Y105.350
G1 F1200 X97.579 Y96.306 E7.89311
G0 F9000 X98.498 Y96.377
G1 F1200 X106.705 Y104.584 E8.21159
G0 F9000 X106.775 Y103.806
G1 F1200 X99.424 Y96.455 E8.49685
G0 F9000 X100.359 Y96.541
G1 F1200 X106.829 Y103.011 E8.74793
G0 F9000 X106.867 Y102.200
G1 F1200 X101.273 Y96.606 E8.96501
G0 F9000 X102.208 Y96.692
G1 F1200 X106.901 Y101.385 E9.14713
G0 F9000 X106.942 Y100.578
G1 F1200 X103.130 Y96.766 E9.29506
G0 F9000 X104.058 Y96.846
G1 F1200 X107.009 Y99.796 E9.40956
G0 F9000 X107.084 Y99.023
G1 F1200 X104.950 Y96.889 E9.49237
G0 F9000 X105.871 Y96.962
G1 F1200 X107.156 Y98.246 E9.54222
G0 F9000 X107.221 Y97.463
G1 F1200 X106.804 Y97.046 E9.55840
G0 F9000 X99.616 Y106.828
G1 F1200 X96.444 Y103.656 E9.68149
G0 F9000 X96.331 Y104.392
G1 F1200 X98.741 Y106.802 E9.77502
G0 F9000 X97.855 Y106.765
G1 F1200 X96.201 Y105.110 E9.83922
G0 F9000 X96.105 Y105.863
G1 F1200 X96.919 Y106.677 E9.87081
;LAYER:1
M106 S127
G0 F9000 X96.615 Y107.173 Z0.400
;TYPE:WALL-INNER
G1 F1620 X95.912 Y107.063 E9.87515
G1 X95.625 Y106.999 E9.87694
G1 X95.540 Y106.633 E9.87923
G1 X95.551 Y106.355 E9.88093
G1 X95.655 Y105.692 E9.88502
G1 X95.726 Y105.108 E9.88861
G1 X95.769 Y104.725 E9.89096
G1 X95.920 Y103.953 E9.89576
G1 X95.989 Y103.407 E9.89911
G1 X96.034 Y102.783 E9.90293
G1 X96.167 Y101.983 E9.90787
G1 X96.180 Y101.534 E9.91061
G1 X96.139 Y100.951 E9.91417
G1 X96.112 Y100.719 E9.91560
G1 X96.121 Y100.210 E9.91870
G1 X96.180 Y99.706 E9.92180
G1 X96.246 Y98.938 E9.92650
G1 X96.251 Y98.433 E9.92958
G1 X96.230 Y97.820 E9.93332
G1 X96.180 Y97.273 E9.93667
G1 X96.190 Y96.858 E9.93920
G1 X96.211 Y96.755 E9.93984
G1 X96.296 Y96.483 E9.94158
G1 X96.395 Y95.967 E9.94478
G1 X96.420 Y95.711 E9.94635
G1 X97.443 Y95.775 E9.95260
G1 X97.999 Y95.822 E9.95600
G1 X98.950 Y95.890 E9.96182
G1 X99.680 Y95.956 E9.96629
G1 X100.453 Y96.031 E9.97102
G1 X101.748 Y96.122 E9.97894
G1 X102.400 Y96.180 E9.98293
G1 X102.471 Y96.195 E9.98337
G1 X103.220 Y96.247 E9.98795
G1 X104.095 Y96.330 E9.99331
G1 X105.061 Y96.372 E9.99921
G1 X105.182 Y96.370 E9.99994
G1 X105.561 Y96.389 E10.00226
G1 X106.164 Y96.477 E10.00597
G1 X106.878 Y96.525 E10.01034
G1 X106.951 Y96.521 E10.01078
G1 X107.411 Y96.543 E10.01359
G1 X107.832 Y96.572 E10.01616
G1 X107.737 Y97.510 E10.02191
G1 X107.691 Y98.039 E10.02515
G1 X107.653 Y98.576 E10.02843
G1 X107.551 Y99.468 E10.03391
G1 X107.494 Y100.121 E10.03791
G1 X107.437 Y100.752 E10.04177
G1 X107.418 Y101.278 E10.04498
G1 X107.398 Y102.016 E10.04948
G1 X107.361 Y102.904 E10.05490
G1 X107.299 Y103.863 E10.06076
G1 X107.205 Y104.729 E10.06607
G1 X107.125 Y105.396 E10.07017
G1 X107.084 Y106.001 E10.07387
G1 X107.047 Y106.595 E10.07749
G1 X107.000 Y107.271 E10.08163
G1 X106.971 Y107.760 E10.08461
G1 X106.949 Y107.827 E10.08504
G1 X106.938 Y107.839 E10.08514
G1 X106.918 Y107.849 E10.08528
G1 X106.856 Y107.863 E10.08567
G1 X106.729 Y107.871 E10.08644
G1 X106.221 Y107.841 E10.08955
G1 X105.451 Y107.779 E10.09426
G1 X104.928 Y107.760 E10.09745
G1 X104.597 Y107.765 E10.09947
G1 X103.536 Y107.701 E10.10595
G1 X103.486 Y107.699 E10.10625
G1 X102.721 Y107.608 E10.11095
G1 X101.856 Y107.528 E10.11625
G1 X101.301 Y107.484 E10.11964
G1 X100.050 Y107.388 E10.12729
G1 X99.468 Y107.340 E10.13085
G1 X98.917 Y107.332 E10.13421
G1 X98.409 Y107.328 E10.13731
G1 X97.899 Y107.296 E10.14043
G1 X97.373 Y107.257 E10.14364
G1 X96.615 Y107.173 E10.14830
G0 F9000 X96.557 Y107.568
;TYPE:WALL-OUTER
G1 F1620 X95.851 Y107.458 E10.15265
G1 X95.491 Y107.378 E10.15490
G1 X95.341 Y107.307 E10.15591
G1 X95.325 Y107.293 E10.15604
G1 X95.280 Y107.222 E10.15656
G1 X95.225 Y107.071 E10.15754
G1 X95.138 Y106.668 E10.16005
G1 X95.151 Y106.319 E10.16218
G1 X95.259 Y105.637 E10.16639
G1 X95.329 Y105.061 E10.16993
G1 X95.375 Y104.651 E10.17244
G1 X95.525 Y103.889 E10.17718
G1 X95.591 Y103.368 E10.18038
G1 X95.636 Y102.737 E10.18424
G1 X95.768 Y101.945 E10.18914
G1 X95.779 Y101.542 E10.19159
G1 X95.740 Y100.988 E10.19498
G1 X95.711 Y100.735 E10.19653
G1 X95.722 Y100.187 E10.19988
G1 X95.782 Y99.666 E10.20307
G1 X95.846 Y98.919 E10.20764
G1 X95.851 Y98.438 E10.21058
G1 X95.831 Y97.845 E10.21420
G1 X95.781 Y97.297 E10.21755
G1 X95.779 Y97.287 E10.21761
G1 X95.791 Y96.813 E10.22051
G1 X95.907 Y96.386 E10.22320
G1 X95.998 Y95.910 E10.22616
G1 X96.050 Y95.373 E10.22945
G1 X96.053 Y95.336 E10.22967
G1 X96.063 Y95.287 E10.22998
G1 X96.076 Y95.286 E10.23006
G1 X96.797 Y95.336 E10.23447
G1 X97.478 Y95.377 E10.23863
G1 X98.030 Y95.423 E10.24200
G1 X98.985 Y95.492 E10.24784
G1 X99.714 Y95.557 E10.25231
G1 X100.486 Y95.632 E10.25704
G1 X101.783 Y95.724 E10.26496
G1 X102.453 Y95.782 E10.26906
G1 X103.247 Y95.848 E10.27392
G1 X104.123 Y95.931 E10.27929
G1 X105.066 Y95.972 E10.28504
G1 X105.180 Y95.970 E10.28574
G1 X105.608 Y95.992 E10.28835
G1 X106.207 Y96.079 E10.29204
G1 X106.883 Y96.124 E10.29617
G1 X106.950 Y96.121 E10.29658
G1 X107.999 Y96.183 E10.30299
G1 X108.270 Y96.194 E10.30465
G1 X108.135 Y97.547 E10.31294
G1 X108.090 Y98.070 E10.31614
G1 X108.053 Y98.595 E10.31935
G1 X107.949 Y99.508 E10.32495
G1 X107.836 Y100.778 E10.33273
G1 X107.818 Y101.291 E10.33586
G1 X107.798 Y102.023 E10.34032
G1 X107.759 Y102.929 E10.34585
G1 X107.699 Y103.879 E10.35165
G1 X107.601 Y104.776 E10.35716
G1 X107.524 Y105.433 E10.36119
G1 X107.483 Y106.027 E10.36482
G1 X107.446 Y106.623 E10.36846
G1 X107.399 Y107.297 E10.37258
G1 X107.366 Y107.831 E10.37585
G1 X107.305 Y108.014 E10.37702
G1 X107.251 Y108.098 E10.37763
G1 X107.158 Y108.176 E10.37837
G1 X107.053 Y108.228 E10.37909
G1 X106.913 Y108.260 E10.37996
G1 X106.731 Y108.271 E10.38107
G1 X106.196 Y108.240 E10.38434
G1 X105.428 Y108.178 E10.38904
G1 X104.924 Y108.160 E10.39211
G1 X104.604 Y108.165 E10.39407
G1 X104.101 Y108.144 E10.39714
G1 X103.513 Y108.100 E10.40073
G1 X103.450 Y108.097 E10.40112
G1 X102.679 Y108.006 E10.40585
G1 X101.821 Y107.927 E10.41110
G1 X99.448 Y107.740 E10.42562
G1 X98.912 Y107.732 E10.42889
G1 X98.398 Y107.728 E10.43202
G1 X97.874 Y107.695 E10.43522
G1 X97.341 Y107.656 E10.43848
G1 X96.557 Y107.568 E10.44329
G0 F9000 X96.870 Y107.059
;TYPE:SKIN
G1 F1620 X107.253 Y96.675 E10.53284
G0 F9000 X107.664 Y96.830
G1 F1620 X97.377 Y107.117 E10.62155
G0 F9000 X97.904 Y107.156
G1 F1620 X107.605 Y97.455 E10.70521
G0 F9000 X107.546 Y98.079
G1 F1620 X98.439 Y107.187 E10.78374
G0 F9000 X98.998 Y107.193
G1 F1620 X107.497 Y98.694 E10.85704
G0 F9000 X107.425 Y99.332
G1 F1620 X99.551 Y107.206 E10.92494
G0 F9000 X96.371 Y106.992
G1 F1620 X106.710 Y96.653 E11.01410
G0 F9000 X106.179 Y96.618
G1 F1620 X95.885 Y106.913 E11.10287
G0 F9000 X95.683 Y106.548
G1 F1620 X105.684 Y96.548 E11.18912
G0 F9000 X105.156 Y96.510
G1 F1620 X95.764 Y105.902 E11.27011
G0 F9000 X95.847 Y105.253
G1 F1620 X104.609 Y96.491 E11.34567
G0 F9000 X104.067 Y96.467
G1 F1620 X95.936 Y104.599 E11.41579
G0 F9000 X96.067 Y103.902
G1 F1620 X103.551 Y96.418 E11.48033
G0 F9000 X103.029 Y96.374
G1 F1620 X96.138 Y103.265 E11.53976
G0 F9000 X96.199 Y102.639
G1 F1620 X102.501 Y96.336 E11.59411
G0 F9000 X101.989 Y96.283
G1 F1620 X96.307 Y101.964 E11.64310
G0 F9000 X96.310 Y101.396
G1 F1620 X101.466 Y96.240 E11.68756
G0 F9000 X100.943 Y96.197
G1 F1620 X96.271 Y100.870 E11.72786
G0 F9000 X96.259 Y100.315
G1 F1620 X100.420 Y96.155 E11.76374
G0 F9000 X107.366 Y99.957
G1 F1620 X100.073 Y107.249 E11.82662
G0 F9000 X100.596 Y107.292
G1 F1620 X107.310 Y100.578 E11.88452
G0 F9000 X107.280 Y101.174
G1 F1620 X101.119 Y107.335 E11.93765
