;Generated with Cura_SteamEngine DEV
M109 S210     ;Heatup to 210C
G21           ;metric values
G90           ;absolute positioning
G28           ;Home
G1 Z15.0 F300 ;move the platform down 15mm
G92 E0        ;zero the extruded length
G1 F200 E5    ;extrude 5mm of feed stock
G92 E0        ;zero the extruded length again

;Layer count: 298
;LAYER:0
M107
;LAYER:1
M106 S127
G1 F2700 E-4.50000
G0 F9000 X98.332 Y98.103 Z0.400
;TYPE:WALL-OUTER
G1 F2700 E0.00000
G1 F540 X98.323 Y98.364 E0.00159
G1 X98.280 Y98.584 E0.00296
G1 X98.166 Y98.794 E0.00442
G1 X98.037 Y98.971 E0.00575
G1 X98.117 Y98.520 E0.00855
G1 X98.249 Y98.233 E0.01047
G1 X98.332 Y98.103 E0.01141
G0 F9000 X99.265 Y99.074
G1 F540 X99.551 Y98.661 E0.01448
G1 X99.982 Y98.166 E0.01848
G1 X100.182 Y98.197 E0.01971
G1 X99.405 Y99.466 E0.02878
G1 X99.336 Y99.581 E0.02960
G1 X98.522 Y100.182 E0.03577
G1 X98.585 Y99.993 E0.03699
G1 X99.265 Y99.074 E0.04396
;LAYER:2
M106 S255
G0 F9000 X98.279 Y98.773 Z0.500
;TYPE:WALL-OUTER
G1 F540 X98.022 Y99.111 E0.04655
G1 X98.112 Y98.524 E0.05017
G1 X98.227 Y98.272 E0.05186
G1 X98.401 Y98.000 E0.05383
G1 X98.407 Y98.075 E0.05429
G1 X98.395 Y98.459 E0.05663
G1 X98.363 Y98.618 E0.05762
G1 X98.279 Y98.773 E0.05869
G0 F9000 X99.073 Y99.152
G1 F540 X99.478 Y98.566 E0.06304
G1 X99.868 Y98.116 E0.06667
G1 X99.901 Y98.095 E0.06691
G1 X100.196 Y98.141 E0.06873
G1 X99.344 Y99.546 E0.07875
G1 X98.455 Y100.215 E0.08553
G1 X98.446 Y100.190 E0.08569
G1 X98.496 Y99.939 E0.08725
G1 X99.073 Y99.152 E0.09320
;LAYER:3
G0 F9000 X98.277 Y98.918 Z0.600
;TYPE:WALL-OUTER
G1 F540 X98.023 Y99.231 E0.09566
G1 X98.028 Y99.064 E0.09668
G1 X98.111 Y98.520 E0.10004
G1 X98.203 Y98.318 E0.10139
G1 X98.407 Y97.999 E0.10370
G1 X98.439 Y97.958 E0.10402
G1 X98.456 Y97.961 E0.10412
G1 X98.473 Y98.294 E0.10615
G1 X98.465 Y98.557 E0.10776
G1 X98.448 Y98.646 E0.10831
G1 X98.277 Y98.918 E0.11027
G0 F9000 X98.880 Y99.231
G1 F540 X99.414 Y98.459 E0.11599
G1 X99.746 Y98.076 E0.11909
G1 X99.823 Y98.026 E0.11965
G1 X100.218 Y98.088 E0.12208
G1 X99.619 Y99.067 E0.12908
G1 X99.353 Y99.510 E0.13223
G1 X99.145 Y99.691 E0.13391
G1 X98.472 Y100.183 E0.13900
G1 X98.410 Y99.995 E0.14020
G1 X98.444 Y99.826 E0.14126
G1 X98.880 Y99.231 E0.14575
;LAYER:4
G0 F9000 X98.045 Y99.311 Z0.700
;TYPE:WALL-OUTER
G1 F600 X98.029 Y99.329 E0.14590
G1 X98.038 Y98.971 E0.14808
G1 X98.106 Y98.525 E0.15084
G1 X98.179 Y98.365 E0.15191
G1 X98.353 Y98.093 E0.15388
G1 X98.492 Y97.918 E0.15524
G1 X98.508 Y97.921 E0.15534
G1 X98.540 Y98.515 E0.15897
G1 X98.529 Y98.687 E0.16002
G1 X98.509 Y98.724 E0.16027
G1 X98.045 Y99.311 E0.16484
G0 F9000 X98.688 Y99.309
G1 F600 X99.345 Y98.358 E0.17188
G1 X99.623 Y98.038 E0.17447
G1 X99.747 Y97.957 E0.17537
G1 X100.168 Y98.023 E0.17797
G1 X100.292 Y97.951 E0.17885
G1 X99.726 Y98.868 E0.18542
G1 X99.362 Y99.474 E0.18973
G1 X99.059 Y99.738 E0.19218
G1 X98.562 Y100.101 E0.19593
G1 X98.490 Y100.150 E0.19646
G1 X98.374 Y99.801 E0.19870
G1 X98.391 Y99.712 E0.19926
G1 X98.688 Y99.309 E0.20231
G0 F9000 X98.690 Y99.539
;TYPE:SKIN
G1 F600 X99.014 Y99.580 E0.20377
G1 X99.041 Y99.041 E0.20587
G1 X99.516 Y98.950 E0.20804
G1 X99.514 Y98.383 E0.21006
G1 X99.837 Y98.423 E0.21205
;LAYER:5
G1 F2700 E-4.28795
G0 F9000 X98.156 Y98.408 Z0.800
;TYPE:WALL-OUTER
G1 F2700 E0.21205
G1 F600 X98.544 Y97.878 E0.21605
G1 X98.556 Y97.880 E0.21613
G1 X98.596 Y98.531 E0.22011
G1 X98.034 Y99.336 E0.22609
G1 X98.049 Y98.871 E0.22893
G1 X98.098 Y98.534 E0.23101
G1 X98.156 Y98.408 E0.23185
G0 F9000 X98.996 Y98.868
G1 F600 X99.009 Y98.728 E0.23271
G1 X99.004 Y98.646 E0.23321
G1 X99.271 Y98.263 E0.23606
G1 X99.500 Y97.999 E0.23819
G1 X99.670 Y97.887 E0.23943
G1 X100.039 Y97.944 E0.24171
G1 X100.416 Y97.726 E0.24436
G1 X99.832 Y98.669 E0.25113
G1 X99.370 Y99.439 E0.25660
G1 X98.989 Y99.771 E0.25968
G1 X98.505 Y100.110 E0.26329
G1 X98.343 Y99.622 E0.26642
G1 X98.817 Y99.101 E0.27072
G1 X98.996 Y98.868 E0.27251
G0 F9000 X99.781 Y98.491
;TYPE:SKIN
G1 F600 X98.531 Y99.741 E0.28329
G0 F9000 X98.683 Y99.692
G0 X99.649 Y98.284
G0 X99.528 Y98.178
G1 F600 X99.621 Y98.085 E0.28409
;LAYER:6
G0 F9000 X97.343 Y99.390 Z0.900
;TYPE:WALL-OUTER
G1 F600 X97.542 Y99.482 E0.28543
G1 X97.218 Y99.698 E0.28780
G1 X97.343 Y99.390 E0.28983
G0 F9000 X98.074 Y98.632
G1 F600 X98.094 Y98.535 E0.29043
G1 X98.133 Y98.449 E0.29101
G1 X98.229 Y98.300 E0.29209
G1 X98.571 Y97.870 E0.29544
G1 X98.592 Y97.877 E0.29557
G1 X98.620 Y98.300 E0.29816
G1 X98.049 Y99.126 E0.30428
G1 X98.074 Y98.632 E0.30730
G0 F9000 X98.896 Y99.059
G1 F600 X99.043 Y98.610 E0.31018
G1 X99.030 Y98.410 E0.31140
G1 X99.202 Y98.162 E0.31324
G1 X99.375 Y97.962 E0.31485
G1 X99.594 Y97.819 E0.31645
G1 X99.911 Y97.867 E0.31840
G1 X100.542 Y97.500 E0.32286
G1 X100.212 Y98.025 E0.32664
G1 X99.939 Y98.470 E0.32982
G1 X99.378 Y99.403 E0.33646
G1 X98.910 Y99.811 E0.34024
G1 X98.523 Y100.077 E0.34311
G1 X98.376 Y99.635 E0.34595
G1 X98.896 Y99.059 E0.35068
G0 F9000 X98.937 Y99.220
;TYPE:SKIN
G1 F600 X98.988 Y99.554 E0.35242
G1 X98.668 Y99.517 E0.35439
G0 F9000 X99.115 Y98.833
G1 F600 X99.498 Y98.932 E0.35676
G1 X99.349 Y98.218 E0.36005
G1 X99.818 Y98.403 E0.36312
;LAYER:7
G1 F2700 E-4.13688
G0 F9000 X97.257 Y99.269 Z1.000
;TYPE:WALL-OUTER
G1 F2700 E0.36312
G1 F600 X97.307 Y98.874 E0.36555
G1 X97.668 Y99.037 E0.36796
G1 X97.702 Y99.414 E0.37027
G1 X97.114 Y99.806 E0.37458
G1 X97.070 Y99.730 E0.37512
G1 X97.257 Y99.269 E0.37815
G0 F9000 X98.079 Y98.593
G1 F600 X98.090 Y98.537 E0.37850
G1 X98.166 Y98.404 E0.37943
G1 X98.611 Y97.876 E0.38364
G1 X98.629 Y97.882 E0.38376
G1 X98.642 Y98.067 E0.38489
G1 X98.156 Y98.772 E0.39011
G1 X98.071 Y98.745 E0.39066
G1 X98.079 Y98.593 E0.39158
G0 F9000 X99.461 Y98.320
;TYPE:WALL-INNER
G1 F600 X99.459 Y98.295 E0.39174
G1 X99.517 Y98.229 E0.39227
G1 X99.609 Y98.168 E0.39295
G1 X99.639 Y98.173 E0.39313
G1 X99.357 Y98.641 E0.39646
G1 X99.461 Y98.320 E0.39852
G0 F9000 X99.783 Y97.791
;TYPE:WALL-OUTER
G1 F600 X100.652 Y97.286 E0.40465
G1 X100.186 Y98.043 E0.41007
G1 X99.609 Y98.997 E0.41687
G1 X99.390 Y99.387 E0.41960
G1 X98.913 Y99.779 E0.42336
G1 X98.541 Y100.047 E0.42616
G1 X98.408 Y99.644 E0.42874
G1 X98.723 Y99.296 E0.43161
G1 X99.057 Y98.269 E0.43819
G1 X99.051 Y98.179 E0.43874
G1 X99.254 Y97.923 E0.44073
G1 X99.517 Y97.749 E0.44266
G1 X99.783 Y97.791 E0.44430
;LAYER:8
G0 F9000 X97.673 Y98.718 Z1.100
;TYPE:WALL-OUTER
G1 F600 X97.740 Y99.427 E0.44864
G1 X97.201 Y99.785 E0.45259
G1 X97.033 Y99.489 E0.45466
G1 X97.165 Y99.162 E0.45681
G1 X97.269 Y98.337 E0.46188
G1 X97.692 Y98.472 E0.46459
G1 X97.673 Y98.718 E0.46610
G0 F9000 X98.367 Y98.266
G1 F600 X98.325 Y98.253 E0.46636
G1 X98.577 Y97.961 E0.46872
G1 X98.367 Y98.266 E0.47097
G0 F9000 X99.410 Y98.178
;TYPE:WALL-INNER
G1 F600 X99.533 Y98.098 E0.47187
G1 X99.666 Y98.119 E0.47269
G1 X99.102 Y99.125 E0.47972
G1 X99.410 Y98.178 E0.48579
G0 F9000 X99.655 Y97.712
;TYPE:WALL-OUTER
G1 F600 X100.764 Y97.068 E0.49361
G1 X100.626 Y97.321 E0.49537
G1 X100.160 Y98.060 E0.50070
G1 X99.429 Y99.359 E0.50979
G1 X99.412 Y99.391 E0.51001
G1 X98.868 Y99.840 E0.51431
G1 X98.850 Y99.855 E0.51445
G1 X98.743 Y99.887 E0.51513
G1 X98.559 Y100.011 E0.51649
G1 X98.440 Y99.654 E0.51878
G1 X98.549 Y99.533 E0.51978
G1 X99.059 Y97.968 E0.52981
G1 X99.130 Y97.884 E0.53048
G1 X99.441 Y97.680 E0.53275
G1 X99.655 Y97.712 E0.53407
;LAYER:9
G0 F9000 X99.605 Y98.052 Z1.200
;TYPE:WALL-INNER
G1 F600 X99.757 Y97.964 E0.53514
G1 X99.123 Y99.130 E0.54323
G1 X98.873 Y99.339 E0.54522
G1 X99.187 Y98.288 E0.55191
G1 X99.296 Y98.134 E0.55306
G1 X99.456 Y98.029 E0.55423
G1 X99.605 Y98.052 E0.55515
G0 F9000 X99.526 Y97.635
;TYPE:WALL-OUTER
G1 F600 X100.875 Y96.852 E0.56466
G1 X100.669 Y97.230 E0.56728
G1 X100.257 Y97.882 E0.57199
G1 X99.476 Y99.317 E0.58195
G1 X99.436 Y99.394 E0.58248
G1 X98.921 Y99.818 E0.58655
G1 X98.851 Y99.880 E0.58712
G1 X98.615 Y99.951 E0.58862
G1 X98.576 Y99.977 E0.58890
G1 X98.527 Y99.831 E0.58984
G1 X98.379 Y99.595 E0.59154
G1 X98.824 Y98.110 E0.60100
G1 X99.012 Y97.842 E0.60299
G1 X99.364 Y97.611 E0.60556
G1 X99.526 Y97.635 E0.60656
G1 F2700 E-3.89344
G0 F9000 X97.681 Y98.417
G1 F2700 E0.60656
G1 F600 X97.777 Y99.440 E0.61282
G1 X97.278 Y99.771 E0.61647
G1 X96.994 Y99.253 E0.62008
G1 X97.073 Y99.055 E0.62138
G1 X97.177 Y98.228 E0.62646
G1 X97.283 Y97.872 E0.62872
G1 X97.971 Y97.988 E0.63298
G1 X98.040 Y98.010 E0.63342
G1 X97.681 Y98.417 E0.63673
;LAYER:10
G0 F9000 X97.676 Y99.063 Z1.300
;TYPE:WALL-INNER
G1 F600 X97.512 Y99.172 E0.63793
G1 X97.385 Y98.951 E0.63948
G1 X97.426 Y98.619 E0.64152
G1 X97.623 Y97.940 E0.64584
G1 X97.939 Y97.993 E0.64779
G1 X98.939 Y98.252 E0.65409
G1 X99.378 Y97.960 E0.65730
G1 X99.475 Y97.976 E0.65790
G1 X99.908 Y97.724 E0.66096
G1 X99.172 Y99.084 E0.67039
G1 X99.144 Y99.137 E0.67075
G1 X98.742 Y99.470 E0.67394
G1 X98.459 Y99.019 E0.67718
G1 X97.676 Y99.063 E0.68196
G0 F9000 X97.807 Y99.456
;TYPE:WALL-OUTER
G1 F600 X97.377 Y99.743 E0.68512
G1 X96.958 Y99.009 E0.69027
G1 X96.982 Y98.947 E0.69068
G1 X97.033 Y98.541 E0.69317
G1 X97.278 Y97.696 E0.69854
G1 X97.343 Y97.488 E0.69987
G1 X98.014 Y97.599 E0.70401
G1 X98.866 Y97.820 E0.70938
G1 X99.287 Y97.541 E0.71246
G1 X99.398 Y97.559 E0.71315
G1 X100.489 Y96.925 E0.72084
G1 X101.038 Y96.541 E0.72493
G1 X100.711 Y97.140 E0.72909
G1 X100.360 Y97.696 E0.73310
G1 X100.167 Y98.124 E0.73596
G1 X99.524 Y99.274 E0.74399
G1 X99.462 Y99.395 E0.74482
G1 X98.976 Y99.795 E0.74866
G1 X98.853 Y99.904 E0.74966
G1 X98.592 Y99.982 E0.75132
G1 X98.246 Y99.432 E0.75529
G1 X97.807 Y99.456 E0.75797
G0 F9000 X98.435 Y98.718
;TYPE:SKIN
G1 F600 X98.984 Y98.984 E0.76170
G1 X98.863 Y98.297 E0.76610
G1 X99.331 Y98.483 E0.76917
;LAYER:11
G0 F9000 X99.044 Y98.063 Z1.400
;TYPE:WALL-INNER
G1 F600 X99.305 Y97.889 E0.77108
G1 X99.350 Y97.896 E0.77136
G1 X100.026 Y97.504 E0.77613
G1 X99.806 Y97.993 E0.77939
G1 X99.217 Y99.043 E0.78674
G1 X99.166 Y99.142 E0.78742
G1 X98.771 Y99.468 E0.79054
G1 X98.732 Y99.502 E0.79085
G1 X98.476 Y99.093 E0.79380
G1 X97.620 Y99.139 E0.79902
G1 X97.585 Y99.162 E0.79928
G1 X97.344 Y98.717 E0.80236
G1 X97.635 Y97.711 E0.80875
G1 X97.702 Y97.717 E0.80916
G1 X99.044 Y98.063 E0.81761
G0 F9000 X98.971 Y97.631
;TYPE:WALL-OUTER
G1 F600 X99.211 Y97.471 E0.81937
G1 X99.271 Y97.480 E0.81974
G1 X99.914 Y97.107 E0.82427
G1 X100.864 Y96.444 E0.83134
G1 X101.218 Y96.305 E0.83366
G1 X101.082 Y96.448 E0.83486
G1 X100.753 Y97.050 E0.83904
G1 X100.468 Y97.502 E0.84230
G1 X100.238 Y97.997 E0.84563
G1 X100.166 Y98.169 E0.84677
G1 X99.570 Y99.232 E0.85420
G1 X99.485 Y99.399 E0.85534
G1 X99.030 Y99.773 E0.85893
G1 X98.856 Y99.927 E0.86035
G1 X98.579 Y100.011 E0.86211
G1 X98.262 Y99.505 E0.86576
G1 X97.751 Y99.532 E0.86888
G1 X97.454 Y99.729 E0.87105
G1 X96.915 Y98.764 E0.87779
G1 X97.274 Y97.522 E0.88567
G1 X97.349 Y97.284 E0.88719
G1 X97.769 Y97.322 E0.88977
G1 X98.971 Y97.631 E0.89733
G0 F9000 X98.956 Y98.184
;TYPE:SKIN
G1 F600 X98.316 Y98.824 E0.90285
G0 F9000 X98.631 Y99.075
G1 F600 X99.109 Y98.597 E0.90697
G0 F9000 X98.399 Y98.176
G1 F600 X97.628 Y98.947 E0.91362
G0 F9000 X97.570 Y98.439
G1 F600 X98.057 Y97.952 E0.91782
;LAYER:12
G0 F9000 X99.148 Y97.874 Z1.500
;TYPE:WALL-INNER
G1 F600 X99.233 Y97.817 E0.91845
G1 X99.253 Y97.820 E0.91857
G1 X100.199 Y97.169 E0.92557
G1 X99.904 Y97.806 E0.92985
G1 X99.818 Y98.010 E0.93120
G1 X99.264 Y99.001 E0.93813
G1 X99.190 Y99.145 E0.93911
G1 X98.723 Y99.536 E0.94283
G1 X98.489 Y99.163 E0.94551
G1 X97.702 Y99.207 E0.95032
G1 X97.408 Y98.645 E0.95419
G1 X97.411 Y98.299 E0.95630
G1 X97.598 Y97.654 E0.96039
G1 X98.679 Y97.755 E0.96701
G1 X99.148 Y97.874 E0.96996
G0 F9000 X99.074 Y97.443
;TYPE:WALL-OUTER
G1 F600 X99.137 Y97.401 E0.97042
G1 X99.153 Y97.403 E0.97052
G1 X100.654 Y96.370 E0.98163
G1 X101.476 Y96.047 E0.98702
G1 X101.052 Y96.490 E0.99076
G1 X100.795 Y96.960 E0.99402
G1 X100.574 Y97.310 E0.99655
G1 X100.270 Y97.967 E1.00096
G1 X100.181 Y98.181 E1.00238
G1 X99.617 Y99.190 E1.00943
G1 X99.509 Y99.401 E1.01087
G1 X99.084 Y99.750 E1.01422
G1 X98.856 Y99.951 E1.01608
G1 X98.567 Y100.040 E1.01792
G1 X98.276 Y99.576 E1.02126
G1 X97.692 Y99.608 E1.02483
G1 X97.543 Y99.708 E1.02592
G1 X97.124 Y98.978 E1.03105
G1 X97.007 Y98.734 E1.03270
G1 X97.012 Y98.241 E1.03571
G1 X97.270 Y97.349 E1.04137
G1 X97.309 Y97.226 E1.04216
G1 X98.746 Y97.359 E1.05096
G1 X99.074 Y97.443 E1.05302
G0 F9000 X99.342 Y97.928
;TYPE:SKIN
G1 F600 X99.292 Y98.160 E1.05368
G1 X98.599 Y98.033 E1.05709
G1 X97.892 Y97.892 E1.05968
G1 X98.259 Y98.542 E1.06424
G1 X98.967 Y98.967 E1.06899
G1 X98.557 Y98.275 E1.07390
G0 F9000 X98.099 Y98.947
G1 F600 X98.190 Y99.038 E1.07468
G0 F9000 X98.117 Y98.965
G1 F600 X97.549 Y98.398 E1.07957
;LAYER:13
G0 F9000 X98.504 Y99.235 Z1.600
;TYPE:WALL-INNER
G1 F600 X97.839 Y99.272 E1.08364
G1 X97.791 Y99.198 E1.08417
G1 X97.510 Y98.625 E1.08806
G1 X97.519 Y97.744 E1.09344
G1 X97.561 Y97.597 E1.09437
G1 X98.388 Y97.674 E1.09943
G1 X99.132 Y97.620 E1.10398
G1 X99.466 Y97.470 E1.10622
G1 X100.390 Y96.823 E1.11309
G1 X100.324 Y96.935 E1.11389
G1 X99.936 Y97.775 E1.11953
G1 X99.825 Y98.040 E1.12128
G1 X99.311 Y98.959 E1.12770
G1 X99.215 Y99.147 E1.12899
G1 X98.714 Y99.570 E1.13299
G1 X98.504 Y99.235 E1.13540
G0 F9000 X98.291 Y99.648
;TYPE:WALL-OUTER
G1 F600 X97.636 Y99.684 E1.13940
G1 X97.443 Y99.397 E1.14151
G1 X97.109 Y98.716 E1.14613
G1 X97.120 Y97.683 E1.15243
G1 X97.266 Y97.176 E1.15565
G1 X98.392 Y97.273 E1.16254
G1 X99.033 Y97.226 E1.16646
G1 X99.267 Y97.121 E1.16802
G1 X100.449 Y96.294 E1.17682
G1 X100.936 Y96.086 E1.18005
G1 X101.742 Y95.781 E1.18530
G1 X101.024 Y96.529 E1.19163
G1 X100.679 Y97.120 E1.19580
G1 X100.302 Y97.936 E1.20128
G1 X100.188 Y98.210 E1.20309
G1 X99.664 Y99.148 E1.20964
G1 X99.533 Y99.404 E1.21140
G1 X99.139 Y99.728 E1.21451
G1 X98.859 Y99.975 E1.21678
G1 X98.597 Y100.055 E1.21845
G1 X98.541 Y100.048 E1.21880
G1 X98.291 Y99.648 E1.22167
G0 F9000 X98.020 Y99.120
;TYPE:SKIN
G1 F600 X99.581 Y97.559 E1.23514
G0 F9000 X99.658 Y98.048
G1 F600 X98.593 Y99.113 E1.24432
G0 F9000 X97.760 Y98.815
G1 F600 X98.790 Y97.785 E1.25320
G0 F9000 X98.212 Y97.797
G1 F600 X97.652 Y98.357 E1.25803
;LAYER:14
G0 F9000 X99.926 Y97.098 Z1.700
;TYPE:FILL
G1 F600 X100.060 Y97.232 E1.25919
G0 F9000 X99.609 Y97.150
;TYPE:WALL-INNER
G1 F600 X100.432 Y96.575 E1.26531
G1 X100.561 Y96.519 E1.26617
G1 X99.968 Y97.745 E1.27447
G1 X99.831 Y98.070 E1.27662
G1 X99.358 Y98.917 E1.28254
G1 X99.239 Y99.148 E1.28412
G1 X98.704 Y99.603 E1.28840
G1 X98.517 Y99.305 E1.29055
G1 X97.959 Y99.338 E1.29396
G1 X97.875 Y99.217 E1.29486
G1 X97.831 Y99.072 E1.29578
G1 X97.616 Y98.614 E1.29887
G1 X97.625 Y97.520 E1.30554
G1 X99.016 Y97.417 E1.31404
G1 X99.609 Y97.150 E1.31801
G0 F9000 X98.916 Y97.023
;TYPE:WALL-OUTER
G1 F600 X99.410 Y96.801 E1.32131
G1 X100.237 Y96.223 E1.32746
G1 X100.845 Y95.963 E1.33149
G1 X101.600 Y95.676 E1.33642
G1 X101.863 Y95.647 E1.33803
G1 X100.994 Y96.571 E1.34577
G1 X100.786 Y96.928 E1.34829
G1 X100.334 Y97.906 E1.35486
G1 X100.193 Y98.242 E1.35708
G1 X99.711 Y99.106 E1.36311
G1 X99.556 Y99.406 E1.36517
G1 X98.862 Y99.998 E1.37073
G1 X98.644 Y100.065 E1.37212
G1 X98.510 Y100.047 E1.37295
G1 X98.304 Y99.718 E1.37532
G1 X97.759 Y99.750 E1.37864
G1 X97.510 Y99.394 E1.38129
G1 X97.456 Y99.215 E1.38243
G1 X97.214 Y98.701 E1.38590
G1 X97.223 Y98.193 E1.38900
G1 X97.227 Y97.127 E1.39550
G1 X97.231 Y97.112 E1.39559
G1 X97.447 Y97.132 E1.39691
G1 X98.916 Y97.023 E1.40590
G0 F9000 X98.974 Y97.560
;TYPE:SKIN
G1 F600 X99.580 Y98.166 E1.41112
G0 F9000 X99.363 Y98.514
G1 F600 X98.447 Y97.599 E1.41902
G0 F9000 X97.920 Y97.638
G1 F600 X99.200 Y98.917 E1.43005
G0 F9000 X98.936 Y99.219
G1 F600 X97.759 Y98.042 E1.44020
G0 F9000 X97.775 Y98.624
G1 F600 X98.326 Y99.174 E1.44495
G0 F9000 X99.789 Y97.809
G1 F600 X99.572 Y97.309 E1.44843
G1 X99.968 Y97.423 E1.45094
;LAYER:15
G0 F9000 X100.067 Y97.239 Z1.800
;TYPE:FILL
G1 F600 X99.793 Y96.964 E1.45331
G0 F9000 X99.752 Y96.830
;TYPE:WALL-INNER
G1 F600 X100.220 Y96.502 E1.45680
G1 X100.720 Y96.289 E1.46011
G1 X100.624 Y96.389 E1.46095
G1 X100.000 Y97.713 E1.46988
G1 X99.839 Y98.097 E1.47242
G1 X99.404 Y98.876 E1.47786
G1 X99.260 Y99.157 E1.47978
G1 X98.697 Y99.640 E1.48431
G1 X98.532 Y99.377 E1.48620
