;Generated with Cura_SteamEngine DEV
M109 S210     ;Heatup to 210C
G21           ;metric values
G90           ;absolute positioning
G28           ;Home
G1 Z15.0 F300 ;move the platform down 15mm
G92 E0        ;zero the extruded length
G1 F200 E5    ;extrude 5mm of feed stock
G92 E0        ;zero the extruded length again

;Layer count: 298
;LAYER:0
M107
G0 F9000 X88.673 Y88.666 Z0.300
;TYPE:SKIRT
G1 F1200 X89.317 Y88.020 E0.02503
G1 X91.814 Y85.527 E0.12185
G1 X98.354 Y85.527 E0.30131
G1 X101.060 Y87.337 E0.39064
G1 X103.940 Y87.337 E0.46967
G1 X106.646 Y85.527 E0.55900
G1 X113.186 Y85.527 E0.73846
G1 X115.683 Y88.020 E0.83528
G1 X116.327 Y88.666 E0.86031
G1 X116.980 Y89.317 E0.88562
G1 X119.473 Y91.814 E0.98244
G1 X119.473 Y98.354 E1.16190
G1 X117.663 Y101.060 E1.25123
G1 X117.663 Y103.940 E1.33026
G1 X119.473 Y106.646 E1.41959
G1 X119.473 Y113.186 E1.59905
G1 X116.980 Y115.683 E1.69587
G1 X116.327 Y116.334 E1.72117
G1 X115.683 Y116.980 E1.74620
G1 X113.186 Y119.473 E1.84302
G1 X106.646 Y119.473 E2.02248
G1 X103.940 Y117.663 E2.11181
G1 X101.060 Y117.663 E2.19084
G1 X98.354 Y119.473 E2.28017
G1 X91.814 Y119.473 E2.45963
G1 X89.317 Y116.980 E2.55646
G1 X88.666 Y116.327 E2.58176
G1 X88.020 Y115.683 E2.60679
G1 X85.527 Y113.186 E2.70361
G1 X85.527 Y106.646 E2.88307
G1 X87.337 Y103.940 E2.97240
G1 X87.337 Y101.060 E3.05143
G1 X85.527 Y98.354 E3.14076
G1 X85.527 Y91.814 E3.32022
G1 X88.020 Y89.317 E3.41704
G1 X88.673 Y88.666 E3.44234
G1 F2700 E-1.05766
G0 F9000 X94.408 Y93.112
;TYPE:WALL-INNER
G1 F2700 E3.44234
G1 F1200 X94.794 Y92.727 E3.45730
G1 X96.167 Y92.727 E3.49498
G1 X98.873 Y94.537 E3.58431
G1 X106.127 Y94.537 E3.78336
G1 X108.833 Y92.727 E3.87269
G1 X110.206 Y92.727 E3.91037
G1 X110.591 Y93.111 E3.92529
G1 X111.888 Y94.408 E3.97562
G1 X112.273 Y94.794 E3.99058
G1 X112.273 Y96.167 E4.02826
G1 X110.463 Y98.873 E4.11759
G1 X110.463 Y106.127 E4.31664
G1 X112.273 Y108.833 E4.40597
G1 X112.273 Y110.206 E4.44365
G1 X111.889 Y110.591 E4.45857
G1 X110.592 Y111.888 E4.50890
G1 X110.206 Y112.273 E4.52386
G1 X108.833 Y112.273 E4.56154
G1 X106.127 Y110.463 E4.65087
G1 X98.873 Y110.463 E4.84992
G1 X96.167 Y112.273 E4.93925
G1 X94.794 Y112.273 E4.97693
G1 X94.408 Y111.888 E4.99189
G1 X93.111 Y110.591 E5.04222
G1 X92.727 Y110.206 E5.05714
G1 X92.727 Y108.833 E5.09482
G1 X94.537 Y106.127 E5.18415
G1 X94.537 Y98.873 E5.38320
G1 X92.727 Y96.167 E5.47253
G1 X92.727 Y94.794 E5.51021
G1 X93.111 Y94.409 E5.52513
G1 X94.408 Y93.112 E5.57546
G0 F9000 X94.545 Y92.127
;TYPE:WALL-OUTER
G1 F1200 X96.350 Y92.127 E5.62499
G1 X99.055 Y93.937 E5.71430
G1 X105.945 Y93.937 E5.90336
G1 X108.650 Y92.127 E5.99267
G1 X110.455 Y92.127 E6.04220
G1 X112.873 Y94.545 E6.13604
G1 X112.873 Y96.350 E6.18556
G1 X111.063 Y99.055 E6.27487
G1 X111.063 Y105.945 E6.46394
G1 X112.873 Y108.650 E6.55325
G1 X112.873 Y110.455 E6.60278
G1 X110.455 Y112.873 E6.69661
G1 X108.650 Y112.873 E6.74614
G1 X105.945 Y111.063 E6.83545
G1 X99.055 Y111.063 E7.02451
G1 X96.350 Y112.873 E7.11382
G1 X94.545 Y112.873 E7.16335
G1 X92.127 Y110.455 E7.25719
G1 X92.127 Y108.650 E7.30671
G1 X93.937 Y105.945 E7.39602
G1 X93.937 Y99.055 E7.58509
G1 X92.127 Y96.350 E7.67440
G1 X92.127 Y94.545 E7.72393
G1 X94.545 Y92.127 E7.81776
G0 F9000 X95.058 Y92.937
;TYPE:SKIN
G1 F1200 X112.062 Y109.940 E8.47760
G0 F9000 X111.727 Y110.454
G1 F1200 X94.545 Y93.272 E9.14437
G0 F9000 X94.120 Y93.696
G1 F1200 X111.302 Y110.878 E9.81114
G0 F9000 X110.878 Y111.302
G1 F1200 X93.696 Y94.120 E10.47791
G0 F9000 X93.272 Y94.545
G1 F1200 X110.454 Y111.727 E11.14468
G0 F9000 X109.940 Y112.062
G1 F1200 X92.937 Y95.058 E11.80452
G0 F9000 X92.937 Y95.907
G1 F1200 X109.092 Y112.062 E12.43144
G0 F9000 X106.924 Y110.742
G1 F1200 X94.255 Y98.074 E12.92306
G0 F9000 X94.746 Y99.413
G1 F1200 X105.585 Y110.252 E13.34368
G0 F9000 X104.736 Y110.252
G1 F1200 X94.746 Y100.262 E13.73135
G0 F9000 X94.746 Y101.110
G1 F1200 X103.888 Y110.252 E14.08612
G0 F9000 X103.039 Y110.252
G1 F1200 X94.746 Y101.959 E14.40794
G0 F9000 X94.746 Y102.807
G1 F1200 X102.191 Y110.252 E14.69685
G0 F9000 X101.342 Y110.252
G1 F1200 X94.746 Y103.656 E14.95282
G0 F9000 X94.746 Y104.504
G1 F1200 X100.494 Y110.252 E15.17588
G0 F9000 X110.743 Y106.925
G1 F1200 X98.075 Y94.256 E15.66749
G0 F9000 X99.414 Y94.747
G1 F1200 X110.252 Y105.585 E16.08808
G0 F9000 X110.252 Y104.736
G1 F1200 X100.262 Y94.747 E16.47573
G0 F9000 X101.111 Y94.747
G1 F1200 X110.252 Y103.888 E16.83046
G0 F9000 X110.252 Y103.039
G1 F1200 X101.959 Y94.747 E17.15226
G0 F9000 X102.808 Y94.747
G1 F1200 X110.252 Y102.191 E17.44113
G0 F9000 X110.252 Y101.342
G1 F1200 X103.656 Y94.747 E17.69708
G0 F9000 X104.505 Y94.747
G1 F1200 X110.252 Y100.494 E17.92010
G0 F9000 X110.572 Y106.094
G0 X112.062 Y109.092
G1 F1200 X95.907 Y92.937 E18.54702
G0 F9000 X98.906 Y94.428
G0 X105.353 Y94.747
G1 F1200 X110.252 Y99.645 E18.73711
G0 F9000 X110.257 Y98.802
G1 F1200 X106.196 Y94.741 E18.89470
G0 F9000 X106.705 Y94.402
G1 F1200 X110.597 Y98.294 E19.04573
G0 F9000 X110.937 Y97.785
G1 F1200 X107.214 Y94.062 E19.19021
G0 F9000 X107.722 Y93.722
G1 F1200 X111.277 Y97.276 E19.32815
G0 F9000 X111.617 Y96.768
G1 F1200 X108.231 Y93.381 E19.45956
G0 F9000 X108.740 Y93.042
G1 F1200 X111.957 Y96.259 E19.58440
G0 F9000 X112.062 Y95.515
G1 F1200 X109.483 Y92.937 E19.68447
G0 F9000 X94.746 Y105.353
G1 F1200 X99.645 Y110.252 E19.87458
G0 F9000 X98.801 Y110.257
G1 F1200 X94.740 Y106.196 E20.03217
G0 F9000 X94.401 Y106.705
G1 F1200 X98.293 Y110.597 E20.18320
G0 F9000 X97.785 Y110.937
G1 F1200 X94.061 Y107.213 E20.32772
G0 F9000 X93.721 Y107.722
G1 F1200 X97.275 Y111.276 E20.46564
G0 F9000 X96.767 Y111.616
G1 F1200 X93.381 Y108.230 E20.59703
G0 F9000 X93.041 Y108.739
G1 F1200 X96.259 Y111.956 E20.72189
G0 F9000 X95.515 Y112.062
G1 F1200 X92.937 Y109.483 E20.82196
;LAYER:1
M106 S127
G1 F2700 E16.32196
G0 F9000 X89.283 Y92.525 Z0.400
;TYPE:WALL-OUTER
G1 F2700 E20.82196
G1 F1620 X89.271 Y92.513 E20.82206
G1 X89.272 Y92.494 E20.82218
G1 X89.283 Y92.481 E20.82228
G1 X89.304 Y92.482 E20.82241
G1 X89.316 Y92.494 E20.82251
G1 X89.315 Y92.514 E20.82263
G1 X89.303 Y92.526 E20.82274
G1 X89.283 Y92.525 E20.82286
G0 F9000 X92.427 Y94.670
;TYPE:WALL-INNER
G1 F1620 X94.670 Y92.427 E20.84220
G1 X96.258 Y92.427 E20.85188
G1 X98.964 Y94.237 E20.87174
G1 X106.036 Y94.237 E20.91486
G1 X108.742 Y92.427 E20.93471
G1 X110.330 Y92.427 E20.94440
G1 X112.573 Y94.670 E20.96374
G1 X112.573 Y96.258 E20.97342
G1 X110.763 Y98.964 E20.99327
G1 X110.763 Y106.036 E21.03640
G1 X112.573 Y108.742 E21.05625
G1 X112.573 Y110.330 E21.06593
G1 X110.330 Y112.573 E21.08527
G1 X108.742 Y112.573 E21.09496
G1 X106.036 Y110.763 E21.11481
G1 X98.964 Y110.763 E21.15793
G1 X96.258 Y112.573 E21.17779
G1 X94.670 Y112.573 E21.18747
G1 X92.427 Y110.330 E21.20681
G1 X92.427 Y108.742 E21.21649
G1 X94.237 Y106.036 E21.23635
G1 X94.237 Y98.964 E21.27947
G1 X92.427 Y96.258 E21.29932
G1 X92.427 Y94.670 E21.30901
G0 F9000 X92.027 Y94.504
;TYPE:WALL-OUTER
G1 F1620 X94.504 Y92.027 E21.33037
G1 X96.381 Y92.027 E21.34181
G1 X99.085 Y93.837 E21.36165
G1 X105.915 Y93.837 E21.40330
G1 X108.619 Y92.027 E21.42314
G1 X110.496 Y92.027 E21.43459
G1 X112.973 Y94.504 E21.45595
G1 X112.973 Y96.381 E21.46739
G1 X111.163 Y99.085 E21.48724
G1 X111.163 Y105.915 E21.52888
G1 X112.973 Y108.619 E21.54873
G1 X112.973 Y110.496 E21.56017
G1 X110.496 Y112.973 E21.58153
G1 X108.619 Y112.973 E21.59298
G1 X105.915 Y111.163 E21.61282
G1 X99.085 Y111.163 E21.65447
G1 X96.381 Y112.973 E21.67431
G1 X94.504 Y112.973 E21.68575
G1 X92.027 Y110.496 E21.70712
G1 X92.027 Y108.619 E21.71856
G1 X93.837 Y105.915 E21.73840
G1 X93.837 Y99.085 E21.78005
G1 X92.027 Y96.381 E21.79989
G1 X92.027 Y94.504 E21.81134
G0 F9000 X92.566 Y94.958
;TYPE:SKIN
G1 F1620 X94.958 Y92.566 E21.83197
G0 F9000 X95.523 Y92.566
G1 F1620 X92.566 Y95.523 E21.85747
G0 F9000 X92.566 Y96.089
G1 F1620 X96.089 Y92.566 E21.88785
G0 F9000 X96.479 Y92.742
G1 F1620 X92.743 Y96.478 E21.92006
G0 F9000 X92.970 Y96.817
G1 F1620 X96.817 Y92.969 E21.95324
G0 F9000 X97.157 Y93.195
G1 F1620 X93.196 Y97.156 E21.98740
G0 F9000 X93.423 Y97.495
G1 F1620 X97.495 Y93.422 E22.02252
G0 F9000 X97.834 Y93.649
G1 F1620 X93.650 Y97.833 E22.05860
G0 F9000 X93.876 Y98.173
G1 F1620 X98.173 Y93.876 E22.09566
G0 F9000 X98.512 Y94.103
G1 F1620 X94.103 Y98.511 E22.13368
G0 F9000 X94.330 Y98.850
G1 F1620 X98.851 Y94.330 E22.17266
G0 F9000 X99.370 Y94.376
G1 F1620 X94.376 Y99.370 E22.21572
G0 F9000 X94.376 Y99.936
G1 F1620 X99.936 Y94.376 E22.26367
G0 F9000 X100.501 Y94.376
G1 F1620 X94.376 Y100.501 E22.31649
G0 F9000 X94.376 Y101.067
G1 F1620 X101.067 Y94.376 E22.37419
G0 F9000 X101.633 Y94.376
G1 F1620 X94.376 Y101.633 E22.43677
G0 F9000 X94.376 Y102.198
G1 F1620 X102.198 Y94.376 E22.50423
G0 F9000 X102.764 Y94.376
G1 F1620 X94.376 Y102.764 E22.57656
G0 F9000 X94.376 Y103.330
G1 F1620 X103.330 Y94.376 E22.65378
G0 F9000 X103.895 Y94.376
G1 F1620 X94.376 Y103.895 E22.73587
G0 F9000 X94.376 Y104.461
G1 F1620 X104.461 Y94.376 E22.82284
G0 F9000 X105.027 Y94.376
G1 F1620 X94.376 Y105.027 E22.91469
G0 F9000 X94.376 Y105.592
G1 F1620 X105.592 Y94.376 E23.01141
G0 F9000 X106.321 Y94.213
G1 F1620 X94.214 Y106.321 E23.11582
G0 F9000 X93.070 Y108.031
G1 F1620 X108.031 Y93.069 E23.24484
G0 F9000 X109.100 Y92.566
G1 F1620 X92.566 Y109.100 E23.38742
G0 F9000 X92.566 Y109.665
G1 F1620 X109.665 Y92.566 E23.53488
G0 F9000 X110.231 Y92.566
G1 F1620 X92.566 Y110.231 E23.68722
G0 F9000 X92.828 Y110.534
G1 F1620 X110.534 Y92.828 E23.83991
G0 F9000 X110.817 Y93.111
G1 F1620 X93.111 Y110.817 E23.99259
G0 F9000 X93.394 Y111.100
G1 F1620 X111.100 Y93.394 E24.14528
G0 F9000 X111.383 Y93.677
G1 F1620 X93.677 Y111.383 E24.29797
G0 F9000 X93.960 Y111.666
G1 F1620 X111.666 Y93.960 E24.45066
G0 F9000 X111.949 Y94.243
G1 F1620 X94.243 Y111.949 E24.60335
G0 F9000 X94.526 Y112.231
G1 F1620 X112.231 Y94.526 E24.75604
G0 F9000 X112.432 Y94.890
G1 F1620 X94.890 Y112.432 E24.90731
G0 F9000 X95.456 Y112.432
G1 F1620 X112.432 Y95.456 E25.05371
G0 F9000 X112.432 Y96.022
G1 F1620 X96.022 Y112.432 E25.19522
G0 F9000 X97.341 Y111.679
G1 F1620 X111.679 Y97.341 E25.31886
G0 F9000 X110.621 Y98.964
G1 F1620 X98.963 Y110.622 E25.41940
G0 F9000 X99.529 Y110.622
G1 F1620 X110.621 Y99.530 E25.51505
G0 F9000 X110.621 Y100.095
G1 F1620 X100.095 Y110.622 E25.60583
G0 F9000 X100.660 Y110.622
G1 F1620 X110.621 Y100.661 E25.69173
G0 F9000 X110.621 Y101.227
G1 F1620 X101.226 Y110.622 E25.77275
G0 F9000 X101.792 Y110.622
G1 F1620 X110.621 Y101.792 E25.84889
G0 F9000 X110.621 Y102.358
G1 F1620 X102.357 Y110.622 E25.92015
G0 F9000 X102.923 Y110.622
G1 F1620 X110.621 Y102.924 E25.98654
G0 F9000 X110.621 Y103.490
G1 F1620 X103.489 Y110.622 E26.04804
G0 F9000 X104.055 Y110.622
G1 F1620 X110.621 Y104.055 E26.10467
G0 F9000 X110.621 Y104.621
G1 F1620 X104.620 Y110.622 E26.15642
G0 F9000 X105.186 Y110.622
G1 F1620 X110.621 Y105.187 E26.20329
G0 F9000 X110.621 Y105.752
G1 F1620 X105.752 Y110.622 E26.24528
G0 F9000 X106.221 Y110.718
G1 F1620 X110.718 Y106.222 E26.28406
G0 F9000 X110.945 Y106.560
G1 F1620 X106.560 Y110.945 E26.32187
G0 F9000 X106.899 Y111.172
G1 F1620 X111.171 Y106.900 E26.35871
G0 F9000 X111.398 Y107.239
G1 F1620 X107.238 Y111.399 E26.39459
G0 F9000 X107.577 Y111.625
G1 F1620 X111.625 Y107.577 E26.42950
G0 F9000 X111.852 Y107.916
G1 F1620 X107.915 Y111.852 E26.46344
G0 F9000 X108.255 Y112.079
G1 F1620 X112.078 Y108.255 E26.49641
G0 F9000 X112.305 Y108.594
G1 F1620 X108.593 Y112.306 E26.52843
G0 F9000 X109.033 Y112.432
G1 F1620 X112.432 Y109.033 E26.55774
G0 F9000 X112.432 Y109.599
G1 F1620 X109.598 Y112.432 E26.58217
G0 F9000 X110.164 Y112.432
G1 F1620 X112.432 Y110.165 E26.60173
G1 F2700 E22.10173
G0 F9000 X89.315 Y97.463
;TYPE:WALL-OUTER
G1 F2700 E26.60173
G1 F1620 X89.303 Y97.475 E26.60183
G1 X89.283 Y97.474 E26.60195
G1 X89.271 Y97.462 E26.60206
G1 X89.272 Y97.444 E26.60217
G1 X89.283 Y97.430 E26.60227
G1 X89.304 Y97.431 E26.60240
G1 X89.316 Y97.443 E26.60251
G1 X89.315 Y97.463 E26.60263
G0 F9000 X92.494 Y89.316
G1 F1620 X92.481 Y89.303 E26.60274
G1 X92.481 Y89.284 E26.60286
G1 X92.495 Y89.271 E26.60297
G1 X92.522 Y89.278 E26.60314
G1 X92.528 Y89.294 E26.60325
G1 X92.521 Y89.311 E26.60336
G1 X92.504 Y89.318 E26.60347
G1 X92.494 Y89.316 E26.60353
G0 F9000 X97.428 Y89.294
G1 F1620 X97.430 Y89.284 E26.60359
G1 X97.445 Y89.271 E26.60372
G1 X97.471 Y89.278 E26.60388
G1 X97.477 Y89.294 E26.60398
G1 X97.470 Y89.311 E26.60410
G1 X97.452 Y89.318 E26.60421
G1 X97.435 Y89.311 E26.60433
G1 X97.428 Y89.294 E26.60444
G0 F9000 X107.556 Y89.272
G1 F1620 X107.570 Y89.283 E26.60455
G1 X107.569 Y89.304 E26.60468
G1 X107.557 Y89.316 E26.60478
G1 X107.537 Y89.315 E26.60490
G1 X107.525 Y89.303 E26.60500
G1 X107.526 Y89.283 E26.60513
G1 X107.538 Y89.271 E26.60523
G1 X107.556 Y89.272 E26.60534
G0 F9000 X112.506 Y89.272
G1 F1620 X112.519 Y89.283 E26.60544
G1 X112.518 Y89.304 E26.60557
G1 X112.506 Y89.316 E26.60568
G1 X112.486 Y89.315 E26.60580
G1 X112.474 Y89.303 E26.60590
G1 X112.475 Y89.283 E26.60602
G1 X112.487 Y89.271 E26.60613
G1 X112.506 Y89.272 E26.60624
G0 F9000 X115.684 Y92.494
G1 F1620 X115.697 Y92.481 E26.60635
G1 X115.716 Y92.481 E26.60647
G1 X115.729 Y92.495 E26.60659
G1 X115.729 Y92.511 E26.60668
G1 X115.722 Y92.522 E26.60676
G1 X115.706 Y92.528 E26.60687
G1 X115.689 Y92.521 E26.60698
G1 X115.682 Y92.504 E26.60709
G1 X115.684 Y92.494 E26.60715
G0 F9000 X115.706 Y97.428
G1 F1620 X115.716 Y97.430 E26.60722
G1 X115.729 Y97.445 E26.60734
G1 X115.729 Y97.461 E26.60744
G1 X115.722 Y97.471 E26.60751
G1 X115.706 Y97.477 E26.60761
G1 X115.689 Y97.470 E26.60773
G1 X115.682 Y97.452 E26.60784
G1 X115.689 Y97.435 E26.60796
G1 X115.706 Y97.428 E26.60807
G0 F9000 X115.728 Y107.556
G1 F1620 X115.717 Y107.570 E26.60818
G1 X115.696 Y107.569 E26.60830
G1 X115.684 Y107.557 E26.60841
G1 X115.685 Y107.537 E26.60853
G1 X115.697 Y107.525 E26.60863
G1 X115.717 Y107.526 E26.60876
G1 X115.729 Y107.538 E26.60886
G1 X115.728 Y107.556 E26.60897
G0 F9000 X115.728 Y112.506
G1 F1620 X115.717 Y112.519 E26.60907
G1 X115.696 Y112.518 E26.60920
G1 X115.684 Y112.506 E26.60930
G1 X115.685 Y112.486 E26.60943
G1 X115.697 Y112.474 E26.60953
G1 X115.717 Y112.475 E26.60965
G1 X115.729 Y112.487 E26.60976
G1 X115.728 Y112.506 E26.60987
G0 F9000 X112.506 Y115.684
G1 F1620 X112.519 Y115.697 E26.60998
G1 X112.519 Y115.716 E26.61010
G1 X112.505 Y115.729 E26.61022
G1 X112.489 Y115.729 E26.61031
G1 X112.478 Y115.722 E26.61039
G1 X112.472 Y115.706 E26.61050
G1 X112.479 Y115.689 E26.61061
G1 X112.496 Y115.682 E26.61072
G1 X112.506 Y115.684 E26.61078
G0 F9000 X107.572 Y115.706
G1 F1620 X107.570 Y115.716 E26.61085
G1 X107.555 Y115.729 E26.61097
G1 X107.539 Y115.729 E26.61107
G1 X107.529 Y115.722 E26.61114
G1 X107.523 Y115.706 E26.61124
G1 X107.530 Y115.689 E26.61136
G1 X107.548 Y115.682 E26.61147
G1 X107.565 Y115.689 E26.61159
G1 X107.572 Y115.706 E26.61170
G0 F9000 X97.444 Y115.728
G1 F1620 X97.430 Y115.717 E26.61181
G1 X97.431 Y115.696 E26.61193
G1 X97.443 Y115.684 E26.61204
G1 X97.463 Y115.685 E26.61216
G1 X97.475 Y115.697 E26.61226
G1 X97.474 Y115.717 E26.61239
G1 X97.462 Y115.729 E26.61249
G1 X97.444 Y115.728 E26.61260
G0 F9000 X92.494 Y115.728
G1 F1620 X92.481 Y115.717 E26.61270
G1 X92.482 Y115.696 E26.61283
G1 X92.494 Y115.684 E26.61293
G1 X92.514 Y115.685 E26.61306
G1 X92.526 Y115.697 E26.61316
G1 X92.525 Y115.717 E26.61328
G1 X92.513 Y115.729 E26.61339
G1 X92.494 Y115.728 E26.61350
G0 F9000 X89.316 Y112.506
G1 F1620 X89.303 Y112.519 E26.61361
G1 X89.284 Y112.519 E26.61373
G1 X89.271 Y112.505 E26.61385
G1 X89.271 Y112.489 E26.61394
G1 X89.278 Y112.478 E26.61402
G1 X89.294 Y112.472 E26.61413
G1 X89.311 Y112.479 E26.61424
G1 X89.318 Y112.496 E26.61435
G1 X89.316 Y112.506 E26.61441
G0 F9000 X89.294 Y107.572
G1 F1620 X89.284 Y107.570 E26.61448
G1 X89.271 Y107.555 E26.61460
G1 X89.271 Y107.539 E26.61469
G1 X89.278 Y107.529 E26.61477
G1 X89.294 Y107.523 E26.61487
G1 X89.311 Y107.530 E26.61499
G1 X89.318 Y107.548 E26.61510
G1 X89.311 Y107.565 E26.61522
G1 X89.294 Y107.572 E26.61533
;LAYER:2
M106 S255
G0 F9000 X89.303 Y92.526 Z0.500
;TYPE:WALL-OUTER
G1 F2100 X89.284 Y92.525 E26.61544
