;Generated with Cura_SteamEngine DEV
M109 S210     ;Heatup to 210C
G21           ;metric values
G90           ;absolute positioning
G28           ;Home
G1 Z15.0 F300 ;move the platform down 15mm
G92 E0        ;zero the extruded length
G1 F200 E5    ;extrude 5mm of feed stock
G92 E0        ;zero the extruded length again

;Layer count: 179
;LAYER:0
M107
G0 F9000 X90.711 Y95.067 Z0.300
G0 X93.175 Y94.386
;TYPE:SKIRT
G1 F1200 X96.495 Y92.531 E0.10436
G1 X97.981 Y91.014 E0.16263
G1 X102.501 Y93.077 E0.29897
G1 X107.004 Y90.999 E0.43505
G1 X108.523 Y92.550 E0.49462
G1 X111.845 Y94.388 E0.59880
G1 X114.266 Y95.053 E0.66769
G1 X113.994 Y102.244 E0.86516
G1 X112.575 Y104.407 E0.93614
G1 X112.101 Y105.069 E0.95848
G1 X109.440 Y108.635 E1.08058
G1 X105.212 Y108.219 E1.19715
G1 X102.518 Y107.981 E1.27137
G1 X99.824 Y108.215 E1.34557
G1 X95.567 Y108.645 E1.46298
G1 X92.901 Y105.072 E1.58530
G1 X92.423 Y104.406 E1.60780
G1 X91.015 Y102.255 E1.67834
G1 X90.711 Y95.067 E1.87576
G1 X93.175 Y94.386 E1.94591
G1 F2700 E-2.55409
G0 F9000 X98.743 Y100.158
;TYPE:FILL
G1 F2700 E1.94591
G1 F1200 X99.311 Y100.725 E1.96793
G0 F9000 X99.160 Y100.098
;TYPE:WALL-INNER
G1 F1200 X99.318 Y99.937 E1.97412
G1 X99.650 Y100.596 E1.99437
G1 X99.364 Y101.028 E2.00858
G1 X98.899 Y101.072 E2.02140
G1 X98.416 Y100.409 E2.04391
G1 X98.466 Y100.395 E2.04533
G1 X98.603 Y99.863 E2.06041
G1 X99.160 Y100.098 E2.07700
G0 F9000 X99.017 Y99.387
;TYPE:WALL-OUTER
G1 F1200 X99.454 Y98.941 E2.09413
G1 X99.548 Y98.985 E2.09698
G1 X99.783 Y99.521 E2.11304
G1 X100.031 Y100.035 E2.12870
G1 X100.349 Y100.634 E2.14731
G1 X100.018 Y101.121 E2.16347
G1 X99.709 Y101.600 E2.17911
G1 X99.187 Y101.645 E2.19348
G1 X98.621 Y101.703 E2.20910
G1 X98.229 Y101.177 E2.22710
G1 X97.865 Y100.668 E2.24427
G1 X97.533 Y100.161 E2.26090
G1 X97.527 Y100.032 E2.26444
G1 X97.971 Y99.909 E2.27708
G1 X98.165 Y99.158 E2.29837
G1 X98.298 Y99.083 E2.30256
G1 X99.017 Y99.387 E2.32398
G0 F9000 X98.879 Y100.194
G1 F2700 E-2.17602
G0 F9000 X105.503 Y100.308
;TYPE:WALL-INNER
G1 F2700 E2.32398
G1 F1200 X105.682 Y99.938 E2.33526
G1 X105.839 Y100.098 E2.34141
G1 X106.397 Y99.863 E2.35802
G1 X106.535 Y100.396 E2.37313
G1 X106.582 Y100.409 E2.37447
G1 X106.283 Y100.827 E2.38857
G1 X106.101 Y101.072 E2.39695
G1 X105.636 Y101.028 E2.40976
G1 X105.350 Y100.596 E2.42398
G1 X105.503 Y100.308 E2.43293
G0 F9000 X105.982 Y99.387
;TYPE:WALL-OUTER
G1 F1200 X106.701 Y99.083 E2.45435
G1 X106.835 Y99.158 E2.45856
G1 X107.029 Y99.909 E2.47985
G1 X107.473 Y100.031 E2.49248
G1 X107.468 Y100.159 E2.49600
G1 X107.134 Y100.669 E2.51272
G1 X106.771 Y101.176 E2.52983
G1 X106.380 Y101.702 E2.54782
G1 X105.814 Y101.646 E2.56343
G1 X105.290 Y101.600 E2.57786
G1 X104.983 Y101.122 E2.59345
G1 X104.650 Y100.634 E2.60966
G1 X104.968 Y100.036 E2.62825
G1 X105.218 Y99.521 E2.64395
G1 X105.452 Y98.984 E2.66003
G1 X105.546 Y98.941 E2.66286
G1 X105.982 Y99.387 E2.67998
G0 F9000 X105.937 Y100.557
;LAYER:1
M106 S127
G1 F2700 E-1.82002
G0 F9000 X99.877 Y100.391 Z0.400
;TYPE:WALL-INNER
G1 F2700 E2.67998
G1 F540 X99.999 Y100.622 E2.68157
G1 X99.594 Y101.217 E2.68596
G1 X99.532 Y101.313 E2.68666
G1 X98.762 Y101.388 E2.69138
G1 X98.137 Y100.525 E2.69787
G1 X97.931 Y100.211 E2.70016
G1 X98.211 Y100.134 E2.70193
G1 X98.379 Y99.475 E2.70608
G1 X98.422 Y99.451 E2.70638
G1 X99.077 Y99.727 E2.71071
G1 X99.405 Y99.392 E2.71357
G1 X99.877 Y100.391 E2.72031
G0 F9000 X100.234 Y100.210
;TYPE:WALL-OUTER
G1 F540 X100.465 Y100.648 E2.72333
G1 X99.927 Y101.438 E2.72916
G1 X99.763 Y101.692 E2.73100
G1 X98.575 Y101.808 E2.73828
G1 X97.798 Y100.738 E2.74634
G1 X97.530 Y100.328 E2.74933
G1 X97.513 Y99.912 E2.75187
G1 X97.881 Y99.810 E2.75420
G1 X98.035 Y99.210 E2.75798
G1 X98.398 Y99.007 E2.76051
G1 X98.982 Y99.253 E2.76438
G1 X99.342 Y98.886 E2.76751
G1 X99.691 Y99.045 E2.76985
G1 X100.234 Y100.210 E2.77769
G0 F9000 X99.675 Y100.293
;TYPE:SKIN
G1 F540 X98.787 Y101.182 E2.78535
G0 F9000 X98.550 Y100.853
G1 F540 X99.494 Y99.909 E2.79349
G0 F9000 X98.994 Y99.843
G1 F540 X98.312 Y100.525 E2.79937
G0 F9000 X99.345 Y101.189
G1 F540 X99.648 Y100.887 E2.80198
G0 F9000 X98.430 Y99.842
G1 F540 X98.596 Y99.675 E2.80342
G1 F2700 E-1.69658
G0 F9000 X105.443 Y101.032
;TYPE:FILL
G1 F2700 E2.80342
G1 F540 X106.582 Y99.892 E2.81324
G0 F9000 X106.790 Y100.135
;TYPE:WALL-INNER
G1 F540 X107.068 Y100.211 E2.81500
G1 X106.366 Y101.216 E2.82248
G1 X106.240 Y101.387 E2.82377
G1 X105.551 Y101.319 E2.82799
G1 X105.460 Y101.310 E2.82855
G1 X104.999 Y100.624 E2.83359
G1 X105.475 Y99.666 E2.84011
G1 X105.594 Y99.392 E2.84193
G1 X105.923 Y99.727 E2.84480
G1 X106.577 Y99.452 E2.84912
G1 X106.621 Y99.476 E2.84943
G1 X106.790 Y100.135 E2.85358
G0 F9000 X107.119 Y99.810
;TYPE:WALL-OUTER
G1 F540 X107.487 Y99.911 E2.85591
G1 X107.471 Y100.327 E2.85844
G1 X106.691 Y101.449 E2.86678
G1 X106.426 Y101.807 E2.86949
G1 X105.513 Y101.717 E2.87509
G1 X105.234 Y101.692 E2.87679
G1 X104.534 Y100.649 E2.88445
G1 X105.112 Y99.499 E2.89230
G1 X105.308 Y99.047 E2.89531
G1 X105.658 Y98.886 E2.89766
G1 X106.018 Y99.253 E2.90079
G1 X106.601 Y99.008 E2.90465
G1 X106.964 Y99.209 E2.90718
G1 X107.119 Y99.810 E2.91096
G0 F9000 X106.524 Y99.667
;TYPE:SKIN
G1 F540 X105.329 Y100.863 E2.92127
G0 F9000 X105.577 Y101.180
G1 F540 X106.639 Y100.118 E2.93043
G0 F9000 X106.396 Y100.926
G1 F540 X106.091 Y101.232 E2.93306
G0 F9000 X105.305 Y100.321
G1 F540 X105.811 Y99.815 E2.93743
;LAYER:2
M106 S255
G1 F2700 E-1.56257
G0 F9000 X99.987 Y100.610 Z0.500
;TYPE:WALL-INNER
G1 F2700 E2.93743
G1 F540 X99.998 Y100.630 E2.93757
G1 X99.536 Y101.309 E2.94258
G1 X98.765 Y101.386 E2.94730
G1 X98.143 Y100.524 E2.95378
G1 X98.021 Y100.338 E2.95514
G1 X98.014 Y100.169 E2.95617
G1 X98.202 Y100.117 E2.95736
G1 X98.336 Y99.595 E2.96065
G1 X98.529 Y99.487 E2.96199
G1 X99.064 Y99.713 E2.96554
G1 X99.340 Y99.432 E2.96794
G1 X99.460 Y99.487 E2.96874
G1 X99.987 Y100.610 E2.97631
G0 F9000 X100.345 Y100.431
;TYPE:WALL-OUTER
G1 F540 X100.464 Y100.656 E2.97786
G1 X99.762 Y101.688 E2.98547
G1 X98.576 Y101.807 E2.99274
G1 X97.813 Y100.750 E3.00069
G1 X97.625 Y100.463 E3.00278
G1 X97.601 Y99.868 E3.00641
G1 X97.872 Y99.793 E3.00813
G1 X97.992 Y99.328 E3.01105
G1 X98.505 Y99.043 E3.01463
G1 X98.969 Y99.239 E3.01770
G1 X99.251 Y98.952 E3.02016
G1 X99.759 Y99.184 E3.02356
G1 X100.345 Y100.431 E3.03196
G0 F9000 X99.810 Y100.658
;TYPE:SKIN
G1 F540 X98.980 Y99.829 E3.03912
G0 F9000 X98.419 Y99.833
G1 F540 X99.580 Y100.994 E3.04913
G0 F9000 X99.219 Y101.199
G1 F540 X98.264 Y100.244 E3.05736
G1 F2700 E-1.44264
G0 F9000 X105.443 Y101.031
;TYPE:FILL
G1 F2700 E3.05736
G1 F540 X106.592 Y99.883 E3.06727
G0 F9000 X106.799 Y100.118
;TYPE:WALL-INNER
G1 F540 X106.986 Y100.169 E3.06845
G1 X106.981 Y100.327 E3.06942
G1 X106.239 Y101.386 E3.07730
G1 X105.464 Y101.309 E3.08205
G1 X104.995 Y100.620 E3.08713
G1 X105.460 Y99.687 E3.09349
G1 X105.549 Y99.482 E3.09485
G1 X105.659 Y99.432 E3.09559
G1 X105.935 Y99.713 E3.09799
G1 X106.471 Y99.488 E3.10153
G1 X106.664 Y99.594 E3.10288
G1 X106.799 Y100.118 E3.10618
G0 F9000 X107.128 Y99.793
;TYPE:WALL-OUTER
G1 F540 X107.398 Y99.867 E3.10788
G1 X107.376 Y100.458 E3.11149
G1 X106.530 Y101.666 E3.12048
G1 X106.427 Y101.806 E3.12154
G1 X105.238 Y101.689 E3.12883
G1 X104.532 Y100.651 E3.13648
G1 X105.097 Y99.518 E3.14420
G1 X105.243 Y99.183 E3.14643
G1 X105.748 Y98.951 E3.14982
G1 X106.030 Y99.239 E3.15228
G1 X106.494 Y99.044 E3.15535
G1 X107.008 Y99.327 E3.15893
G1 X107.128 Y99.793 E3.16186
G0 F9000 X106.664 Y100.158
;TYPE:SKIN
G1 F540 X106.241 Y99.735 E3.16551
G0 F9000 X105.619 Y99.679
G1 F540 X106.586 Y100.646 E3.17385
G0 F9000 X106.353 Y100.979
G1 F540 X105.430 Y100.056 E3.18181
G0 F9000 X105.242 Y100.433
G1 F540 X106.032 Y101.223 E3.18862
G0 F9000 X106.819 Y100.313
G1 F540 X106.757 Y100.252 E3.18915
;LAYER:3
G1 F2700 E-1.31085
G0 F9000 X100.003 Y100.629 Z0.600
;TYPE:WALL-INNER
G1 F2700 E3.18915
G1 F540 X99.535 Y101.311 E3.19419
G1 X98.767 Y101.385 E3.19890
G1 X98.166 Y100.549 E3.20518
G1 X98.116 Y100.473 E3.20573
G1 X98.102 Y100.123 E3.20787
G1 X98.192 Y100.098 E3.20844
G1 X98.292 Y99.713 E3.21086
G1 X98.636 Y99.522 E3.21326
G1 X99.054 Y99.698 E3.21603
G1 X99.250 Y99.498 E3.21773
G1 X99.517 Y99.620 E3.21952
G1 X100.003 Y100.629 E3.22635
G0 F9000 X100.458 Y100.651
;TYPE:WALL-OUTER
G1 F540 X100.464 Y100.662 E3.22643
G1 X99.760 Y101.691 E3.23403
G1 X98.576 Y101.806 E3.24129
G1 X97.827 Y100.762 E3.24912
G1 X97.721 Y100.599 E3.25031
G1 X97.689 Y99.823 E3.25504
G1 X97.863 Y99.775 E3.25614
G1 X97.948 Y99.446 E3.25822
G1 X98.612 Y99.078 E3.26284
G1 X98.959 Y99.224 E3.26514
G1 X99.162 Y99.017 E3.26691
G1 X99.823 Y99.319 E3.27134
G1 X100.458 Y100.651 E3.28034
G0 F9000 X99.672 Y100.863
;TYPE:SKIN
G1 F540 X99.347 Y101.187 E3.28314
G0 F9000 X98.791 Y101.178
G1 F540 X99.682 Y100.286 E3.29082
G0 F9000 X99.498 Y99.905
G1 F540 X98.554 Y100.849 E3.29896
G0 F9000 X98.318 Y100.520
G1 F540 X99.008 Y99.830 E3.30491
G0 F9000 X98.536 Y99.735
G1 F540 X98.393 Y99.878 E3.30615
G1 F2700 E-1.19385
G0 F9000 X105.442 Y101.032
;TYPE:FILL
G1 F2700 E3.30615
G1 F540 X106.604 Y99.871 E3.31616
G0 F9000 X106.809 Y100.100
;TYPE:WALL-INNER
G1 F540 X106.898 Y100.124 E3.31673
G1 X106.884 Y100.472 E3.31885
G1 X106.233 Y101.386 E3.32569
G1 X105.465 Y101.312 E3.33040
G1 X105.142 Y100.841 E3.33388
G1 X104.996 Y100.626 E3.33546
G1 X105.446 Y99.705 E3.34172
G1 X105.483 Y99.619 E3.34229
G1 X105.749 Y99.497 E3.34407
G1 X105.945 Y99.697 E3.34578
G1 X106.364 Y99.522 E3.34855
G1 X106.708 Y99.713 E3.35095
G1 X106.809 Y100.100 E3.35339
G0 F9000 X107.138 Y99.775
;TYPE:WALL-OUTER
G1 F540 X107.310 Y99.823 E3.35447
G1 X107.280 Y100.598 E3.35920
G1 X106.423 Y101.806 E3.36824
G1 X105.274 Y101.695 E3.37527
G1 X105.241 Y101.692 E3.37548
G1 X104.534 Y100.660 E3.38310
G1 X105.083 Y99.538 E3.39072
G1 X105.177 Y99.320 E3.39217
G1 X105.838 Y99.017 E3.39660
G1 X106.041 Y99.224 E3.39837
G1 X106.388 Y99.079 E3.40066
G1 X107.052 Y99.446 E3.40529
G1 X107.138 Y99.775 E3.40736
G0 F9000 X106.458 Y99.733
;TYPE:SKIN
G1 F540 X105.327 Y100.864 E3.41712
G0 F9000 X105.575 Y101.182
G1 F540 X106.662 Y100.095 E3.42649
G0 F9000 X105.837 Y99.789
G1 F540 X105.295 Y100.330 E3.43116
G0 F9000 X106.091 Y101.232
G1 F540 X106.363 Y100.959 E3.43351
G1 F2700 E-1.06649
G0 F9000 X102.526 Y106.445
;TYPE:WALL-OUTER
G1 F2700 E3.43351
G1 F540 X102.654 Y106.728 E3.43540
G1 X102.645 Y107.619 E3.44084
G1 X102.500 Y108.576 E3.44674
G1 X102.354 Y107.620 E3.45264
G1 X102.346 Y106.730 E3.45806
G1 X102.475 Y106.446 E3.45997
G1 X102.500 Y106.139 E3.46185
G1 X102.526 Y106.445 E3.46372
;LAYER:4
G0 F9000 X99.530 Y101.317 Z0.700
;TYPE:WALL-INNER
G1 F600 X98.764 Y101.392 E3.46841
G1 X98.212 Y100.603 E3.47428
G1 X98.190 Y100.059 E3.47760
G1 X98.249 Y99.831 E3.47904
G1 X98.742 Y99.557 E3.48248
G1 X99.042 Y99.682 E3.48446
G1 X99.159 Y99.563 E3.48548
G1 X99.594 Y99.762 E3.48839
G1 X100.007 Y100.625 E3.49423
G1 X99.530 Y101.317 E3.49935
G0 F9000 X100.378 Y100.474
;TYPE:WALL-OUTER
G1 F600 X100.469 Y100.659 E3.50061
G1 X99.754 Y101.697 E3.50830
G1 X98.566 Y101.813 E3.51558
G1 X98.218 Y101.299 E3.51936
G1 X97.844 Y100.776 E3.52328
G1 X97.817 Y100.735 E3.52358
G1 X97.778 Y99.778 E3.52942
G1 X97.855 Y99.757 E3.52991
G1 X97.905 Y99.565 E3.53112
G1 X98.717 Y99.113 E3.53678
G1 X98.947 Y99.209 E3.53830
G1 X99.071 Y99.082 E3.53939
G1 X99.893 Y99.458 E3.54490
G1 X100.378 Y100.474 E3.55176
G0 F9000 X99.812 Y100.660
;TYPE:SKIN
G1 F600 X98.944 Y99.792 E3.55925
G0 F9000 X98.459 Y99.873
G1 F600 X99.581 Y100.995 E3.56892
G0 F9000 X99.225 Y101.205
G1 F600 X98.340 Y100.320 E3.57656
G1 F2700 E-0.92344
G0 F9000 X105.443 Y101.031
;TYPE:FILL
G1 F2700 E3.57656
G1 F600 X106.578 Y99.896 E3.58634
G0 F9000 X105.957 Y99.681
;TYPE:WALL-INNER
G1 F600 X106.256 Y99.557 E3.58832
G1 X106.752 Y99.832 E3.59178
G1 X106.810 Y100.054 E3.59318
G1 X106.789 Y100.596 E3.59648
G1 X106.453 Y101.071 E3.60003
G1 X106.236 Y101.392 E3.60239
G1 X105.483 Y101.321 E3.60701
G1 X105.472 Y101.320 E3.60707
G1 X104.993 Y100.623 E3.61223
G1 X105.415 Y99.757 E3.61810
G1 X105.840 Y99.562 E3.62096
G1 X105.957 Y99.681 E3.62197
G0 F9000 X106.053 Y99.208
;TYPE:WALL-OUTER
G1 F600 X106.282 Y99.114 E3.62348
G1 X107.096 Y99.565 E3.62916
G1 X107.146 Y99.757 E3.63037
G1 X107.221 Y99.778 E3.63084
G1 X107.184 Y100.730 E3.63665
G1 X106.782 Y101.298 E3.64089
G1 X106.438 Y101.807 E3.64464
G1 X105.449 Y101.719 E3.65070
G1 X105.246 Y101.697 E3.65194
G1 X104.532 Y100.658 E3.65963
G1 X105.067 Y99.559 E3.66708
G1 X105.111 Y99.457 E3.66776
G1 X105.928 Y99.082 E3.67324
G1 X106.053 Y99.208 E3.67432
G0 F9000 X106.227 Y99.721
;TYPE:SKIN
G1 F600 X106.664 Y100.159 E3.67810
G0 F9000 X106.583 Y100.643
G1 F600 X105.713 Y99.774 E3.68559
G0 F9000 X105.426 Y100.052
G1 F600 X106.348 Y100.974 E3.69354
G0 F9000 X106.041 Y101.232
G1 F600 X105.240 Y100.432 E3.70045
G1 F2700 E-0.79955
G0 F9000 X102.546 Y105.282
;TYPE:WALL-OUTER
G1 F2700 E3.70045
G1 F600 X102.629 Y106.258 E3.70642
G1 X102.818 Y106.677 E3.70922
G1 X102.806 Y108.008 E3.71734
G1 X102.673 Y108.884 E3.72274
G1 X102.500 Y109.278 E3.72537
G1 X102.328 Y108.884 E3.72799
G1 X102.193 Y108.008 E3.73339
G1 X102.182 Y106.678 E3.74150
G1 X102.372 Y106.259 E3.74431
G1 X102.453 Y105.281 E3.75029
G1 X102.499 Y105.210 E3.75081
G1 X102.546 Y105.282 E3.75133
G0 F9000 X102.365 Y106.608
;TYPE:SKIN
G1 F600 X102.500 Y107.026 E3.75401
G1 X102.500 Y107.591 E3.75699
G1 X102.521 Y108.178 E3.75982
G1 X102.585 Y108.525 E3.76197
;LAYER:5
G0 F9000 X99.525 Y101.322 Z0.800
;TYPE:WALL-INNER
G1 F600 X98.750 Y101.399 E3.76672
G1 X98.287 Y100.716 E3.77175
G1 X98.286 Y100.196 E3.77492
G1 X98.275 Y99.910 E3.77667
G1 X98.847 Y99.592 E3.78066
G1 X99.026 Y99.668 E3.78185
G1 X99.066 Y99.627 E3.78220
G1 X99.668 Y99.903 E3.78623
G1 X100.024 Y100.600 E3.79101
G1 X99.525 Y101.322 E3.79636
G0 F9000 X100.455 Y100.565
;TYPE:WALL-OUTER
G1 F600 X100.483 Y100.639 E3.79684
G1 X99.748 Y101.702 E3.80472
G1 X98.552 Y101.820 E3.81205
G1 X97.887 Y100.840 E3.81927
G1 X97.886 Y100.204 E3.82315
G1 X97.866 Y99.680 E3.82635
G1 X98.823 Y99.148 E3.83302
G1 X98.933 Y99.195 E3.83375
G1 X98.980 Y99.148 E3.83416
G1 X99.961 Y99.596 E3.84073
G1 X100.455 Y100.565 E3.84737
G0 F9000 X99.699 Y100.270
;TYPE:SKIN
G1 F600 X98.779 Y101.190 E3.85530
G0 F9000 X98.550 Y100.853
G1 F600 X99.448 Y99.955 E3.86304
G0 F9000 X99.021 Y99.817
G1 F600 X98.427 Y100.411 E3.86817
G0 F9000 X99.335 Y101.199
G1 F600 X99.667 Y100.868 E3.87103
G1 F2700 E-0.62897
G0 F9000 X102.418 Y106.714
;TYPE:WALL-INNER
G1 F2700 E3.87103
G1 F600 X102.500 Y106.533 E3.87224
G1 X102.582 Y106.714 E3.87345
G1 X102.566 Y108.370 E3.88355
G1 X102.506 Y108.767 E3.88600
G1 X102.500 Y108.781 E3.88609
G1 X102.495 Y108.769 E3.88617
G1 X102.433 Y108.368 E3.88864
G1 X102.418 Y106.714 E3.89873
G0 F9000 X102.270 Y106.073
;TYPE:WALL-OUTER
G1 F600 X102.337 Y105.256 E3.90373
G1 X102.499 Y105.009 E3.90553
G1 X102.662 Y105.257 E3.90734
G1 X102.731 Y106.072 E3.91233
G1 X102.983 Y106.628 E3.91605
G1 X102.966 Y108.398 E3.92684
G1 X102.893 Y108.884 E3.92984
G1 X102.500 Y109.781 E3.93581
G1 X102.108 Y108.884 E3.94178
G1 X102.033 Y108.398 E3.94478
G1 X102.017 Y106.629 E3.95557
G1 X102.270 Y106.073 E3.95929
G0 F9000 X105.444 Y101.030
;TYPE:FILL
G1 F600 X106.518 Y99.956 E3.96855
G0 F9000 X105.972 Y99.666
;TYPE:WALL-INNER
G1 F600 X106.150 Y99.592 E3.96973
G1 X106.725 Y99.911 E3.97374
G1 X106.713 Y100.717 E3.97865
G1 X106.252 Y101.400 E3.98368
G1 X105.665 Y101.345 E3.98727
G1 X105.477 Y101.324 E3.98843
G1 X104.979 Y100.600 E3.99378
G1 X105.274 Y100.038 E3.99766
G1 X105.341 Y99.898 E3.99860
G1 X105.932 Y99.626 E4.00257
G1 X105.972 Y99.666 E4.00291
G0 F9000 X106.066 Y99.194
;TYPE:WALL-OUTER
G1 F600 X106.175 Y99.149 E4.00363
G1 X107.134 Y99.680 E4.01032
G1 X107.115 Y100.203 E4.01351
G1 X107.112 Y100.839 E4.01739
G1 X106.528 Y101.705 E4.02376
G1 X106.449 Y101.820 E4.02461
G1 X105.622 Y101.742 E4.02967
G1 X105.251 Y101.702 E4.03195
G1 X104.645 Y100.820 E4.03847
G1 X104.517 Y100.639 E4.03982
G1 X104.545 Y100.566 E4.04030
G1 X104.916 Y99.859 E4.04517
G1 X105.042 Y99.595 E4.04695
G1 X106.019 Y99.147 E4.05351
G1 X106.066 Y99.194 E4.05391
G0 F9000 X106.336 Y99.855
;TYPE:SKIN
G1 F600 X105.329 Y100.863 E4.06260
